ncols        377
nrows        244
xllcorner    -4.549000000000
yllcorner    36.594997347480
cellsize     0.000045092838
 237.000 237.000 237.298 237.109 236.704 236.691 236.678 236.665 236.652 236.455 235.965 235.652 235.176 235.000 235.000 235.000 235.000 235.000 234.741 234.332 234.000 234.000 234.000 233.739 233.556 233.569 233.582 233.122 233.000 232.846 232.634 232.647 232.660 232.249 232.000 232.000 232.000 232.000 231.827 231.750 231.557 231.000 231.000 231.000 231.000 230.949 230.752 230.075 230.000 230.000 230.000 229.865 229.059 229.000 229.000 228.985 228.811 228.029 228.000 228.000 228.000 228.000 228.000 227.244 227.075 227.051 227.000 227.000 227.000 227.000 226.553 226.000 226.000 226.000 225.863 225.306 224.770 224.757 224.744 224.219 224.143 224.387 224.734 225.566 225.425 224.812 223.896 222.798 221.679 220.084 218.692 217.259 215.570 213.593 211.960 210.335 208.711 207.292 206.473 205.654 205.458 205.445 205.668 206.460 207.253 208.303 209.220 210.000 210.664 210.107 207.940 205.818 204.134 202.900 202.094 200.241 198.080 195.991 194.392 194.028 194.593 193.377 190.533 187.298 186.336 186.936 186.546 185.345 183.756 182.260 182.154 181.508 180.695 180.086 180.036 180.010 179.992 179.539 178.481 177.000 177.000 176.384 176.085 176.071 175.918 175.112 174.306 173.925 173.581 172.980 172.827 172.075 171.370 170.924 170.653 170.040 170.552 170.877 171.000 171.118 171.665 171.928 172.000 172.253 172.431 171.612 170.793 169.974 169.578 169.207 167.950 166.772 166.186 166.000 166.000 166.031 166.413 167.138 167.931 168.598 169.040 169.369 169.117 169.000 168.801 168.034 165.880 164.686 164.147 164.000 164.000 164.000 164.000 164.000 164.000 164.000 164.000 164.000 164.000 163.667 163.165 163.149 163.025 162.451 161.728 161.176 161.045 160.285 160.082 159.584 158.766 157.945 157.120 156.312 156.000 156.000 155.996 155.950 155.932 155.961 156.329 157.134 157.940 158.000 157.368 156.484 155.665 154.846 154.180 154.000 154.000 153.954 153.752 153.739 153.282 152.880 152.477 151.658 150.840 150.238 149.554 148.908 148.586 148.083 147.330 147.000 146.879 146.509 146.058 146.000 146.000 146.000 146.000 146.000 144.884 144.746 144.660 143.854 143.048 140.421 137.355 134.284 131.474 129.056 127.159 125.681 124.601 124.123 124.595 126.181 127.145 127.175 126.651 126.476 127.088 127.453 127.178 126.420 125.643 125.708 125.842 127.181 129.735 133.127 137.693 139.528 140.543 141.000 140.876 140.081 140.003 140.000 140.000 140.158 140.963 141.000 140.958 140.913 140.900 140.887 140.176 139.916 139.500 139.000 138.996 138.843 138.797 138.345 137.582 137.000 137.000 137.000 137.000 136.919 136.694 136.681 136.669 136.329 136.109 136.440 136.948 138.444 139.000 139.000 138.939 138.577 138.134 137.736 137.338 137.087 137.476 136.695 136.191 135.784 135.437 135.424 135.411 135.398 134.801 133.772 133.000 133.000 133.000 133.000 133.000 133.000 133.000 133.000 133.000 133.000 133.000 133.000 133.560 133.808 133.561 133.000 133.000 133.000 129.707 126.488 125.762 125.039 125.000 125.000 125.000 125.000 125.000 125.000 125.000 125.000 125.000 125.000 125.000 125.000 125.000 124.761 123.955
 237.239 237.045 236.539 236.283 236.296 236.308 236.321 236.334 236.185 236.000 235.951 235.458 235.399 235.412 235.425 235.391 235.039 235.000 234.726 234.490 234.503 234.516 234.133 234.000 234.000 234.000 234.000 233.684 233.253 233.000 233.000 233.000 233.000 232.799 232.398 232.000 232.000 232.000 232.000 232.000 231.745 231.000 231.000 231.000 231.000 230.765 230.145 230.015 230.000 230.000 230.000 229.881 229.075 229.000 229.000 229.000 228.996 228.984 228.239 228.004 228.000 228.000 228.000 228.000 228.000 227.599 227.000 226.999 226.897 226.774 226.330 225.796 225.636 225.456 224.733 223.988 223.540 223.514 223.488 223.830 224.490 225.296 226.101 226.907 226.287 225.301 224.107 222.738 221.127 219.515 218.226 216.867 215.152 213.087 211.456 209.844 208.233 206.715 205.492 204.671 204.130 203.892 204.085 204.865 205.645 206.425 207.205 207.828 208.012 207.167 205.437 204.012 202.832 201.379 199.380 197.484 195.626 194.331 193.912 193.277 193.345 192.213 190.047 187.577 186.096 185.450 185.176 184.377 182.753 181.128 181.070 180.468 180.027 179.805 179.019 179.006 178.995 178.564 177.769 177.000 177.000 177.047 177.046 176.740 175.934 175.128 174.322 173.517 172.953 172.746 172.080 171.293 170.890 170.526 170.000 170.000 170.000 170.391 170.810 171.000 171.000 171.512 171.656 171.509 171.077 170.246 169.728 169.236 168.829 168.353 167.524 166.270 166.000 166.000 166.000 166.000 166.000 166.305 166.659 167.145 167.892 168.342 168.813 168.695 167.693 165.893 164.494 164.094 164.000 164.000 164.000 164.000 164.000 164.000 164.000 164.000 164.000 164.000 163.528 162.789 161.839 160.456 160.418 160.302 160.179 160.100 160.057 159.239 158.459 157.650 157.063 156.963 156.145 156.000 155.992 155.971 155.873 155.099 155.000 155.466 156.219 156.987 157.585 157.604 156.726 155.604 154.707 154.038 153.851 153.791 153.778 153.629 153.013 153.000 152.837 152.312 151.556 150.988 150.182 149.789 149.370 148.764 148.000 148.000 147.346 147.000 146.735 146.000 146.000 145.681 145.754 146.000 145.949 145.529 144.043 143.973 144.299 143.870 143.064 140.775 138.143 135.208 132.157 129.752 128.119 126.520 125.041 124.000 124.000 124.440 125.130 125.395 125.236 125.228 125.384 125.394 124.927 124.095 123.317 123.291 123.266 124.238 126.181 128.873 133.657 136.957 139.084 140.043 140.026 140.001 140.000 140.000 140.000 140.137 140.902 140.939 140.408 140.000 140.000 140.000 140.000 139.411 139.000 138.967 138.818 138.152 138.000 137.576 137.000 137.000 137.000 137.000 137.000 136.741 136.000 136.000 136.000 136.166 136.542 137.000 137.000 138.133 138.801 139.000 138.876 138.070 138.000 137.459 136.653 136.001 135.979 135.588 135.463 135.281 135.000 135.000 135.000 134.639 134.229 133.788 133.000 133.000 133.000 133.000 133.000 133.000 133.000 133.000 133.000 133.205 133.769 133.781 133.936 134.000 133.700 133.000 133.000 128.687 126.429 126.000 125.986 125.915 125.923 125.418 125.000 125.000 125.000 125.000 125.000 125.000 125.000 125.000 125.000 125.000 125.000 124.777 123.971
 237.998 237.398 237.269 237.163 237.000 237.000 237.000 237.000 236.706 236.268 236.000 236.000 236.000 236.000 236.000 235.949 235.507 235.138 235.000 235.000 235.000 235.000 234.655 234.250 234.000 234.000 234.000 234.000 233.777 233.388 233.000 233.000 233.000 233.000 232.597 232.000 232.000 232.000 232.000 232.000 231.762 231.000 231.000 231.000 231.000 230.732 230.000 230.000 230.000 230.000 230.000 229.990 229.926 229.266 229.000 229.000 229.000 229.000 228.997 228.455 228.014 228.000 228.000 227.953 227.883 227.474 226.881 226.775 225.945 225.029 224.482 224.120 223.263 222.405 221.677 221.350 221.311 221.299 221.674 223.067 224.192 224.985 225.778 226.571 225.970 224.822 223.580 222.398 220.774 219.438 217.935 216.180 214.275 212.650 211.025 209.401 207.776 206.151 204.526 203.687 203.188 203.000 203.088 203.424 203.740 204.410 204.926 205.106 205.029 204.184 203.561 202.550 200.902 198.670 196.214 194.936 194.260 193.779 193.054 191.600 190.834 189.951 188.917 187.747 186.136 184.624 183.645 182.831 181.926 181.042 181.000 180.427 180.000 179.815 179.009 179.000 178.397 178.000 177.785 177.001 177.048 177.704 177.646 176.854 176.055 175.162 174.248 173.383 172.609 171.986 171.834 171.108 170.396 169.931 169.760 169.747 169.926 170.000 170.235 170.738 170.982 171.000 170.809 170.282 169.525 169.017 168.692 168.592 168.188 167.369 166.552 166.103 166.000 166.000 166.000 166.000 166.000 166.000 166.000 166.112 166.450 166.768 167.469 166.997 165.620 164.327 164.036 164.000 164.000 164.000 164.000 164.000 164.000 164.000 164.000 164.000 164.000 163.394 162.166 160.984 160.272 160.005 158.639 158.254 158.228 158.202 158.162 157.330 156.498 156.077 156.036 156.022 156.002 156.000 155.539 155.000 155.000 155.000 155.000 155.000 155.269 155.803 155.081 154.812 155.231 155.136 153.978 153.828 153.206 153.000 153.000 153.000 153.000 152.799 152.306 151.615 151.000 151.000 150.198 149.597 149.206 148.860 148.367 148.066 147.619 147.231 146.751 145.976 145.609 145.177 145.246 145.507 145.452 145.053 143.607 143.229 143.443 143.381 143.033 141.255 139.014 136.482 133.748 130.833 129.150 127.551 125.953 124.458 123.318 123.275 123.853 124.249 124.236 124.223 124.211 123.700 123.291 123.132 123.000 123.000 122.437 122.630 123.765 125.745 131.283 136.116 138.512 139.321 140.000 140.000 140.000 139.991 139.979 139.970 139.997 140.000 140.000 140.000 139.985 139.893 139.876 139.369 138.943 138.683 138.008 138.000 137.879 137.465 136.951 136.760 136.747 136.902 137.000 136.757 135.985 135.728 135.888 136.627 137.356 137.340 137.044 137.690 138.698 139.294 138.892 138.086 138.000 137.227 136.184 135.365 134.546 134.869 135.000 134.802 134.438 134.425 134.870 134.416 133.761 133.300 133.000 133.000 133.000 133.000 133.000 133.000 133.000 133.000 133.000 133.255 134.000 134.000 134.000 134.000 133.949 133.233 127.788 126.296 126.000 126.000 126.000 126.000 126.000 125.463 125.000 125.000 125.000 125.000 125.000 125.000 125.000 125.000 125.000 124.924 124.816 124.561 123.884
 238.000 238.000 238.000 237.595 237.000 237.000 237.000 237.000 237.000 236.846 236.355 236.057 236.000 236.000 236.000 236.000 236.000 235.313 235.000 235.000 235.000 235.000 234.621 234.219 234.000 234.000 234.000 234.000 233.665 233.245 233.000 233.000 233.000 233.000 232.613 232.000 232.000 232.000 232.000 232.000 231.778 231.000 231.000 231.000 231.000 230.956 230.840 230.853 230.286 230.000 230.000 230.000 230.000 229.952 229.468 229.000 229.000 229.000 229.000 228.987 228.624 227.960 227.907 227.121 226.290 225.763 225.427 224.569 223.712 222.343 221.147 220.303 219.460 218.768 218.467 218.444 218.595 218.838 220.436 221.861 223.024 223.969 224.741 225.275 225.107 224.345 223.161 221.803 220.191 219.007 217.557 215.746 213.688 211.712 210.058 208.433 206.809 205.263 204.055 203.231 203.000 203.000 202.894 202.425 202.408 202.634 202.764 202.738 202.690 201.858 200.811 199.390 197.822 196.501 195.222 194.337 193.299 192.204 191.354 190.351 189.508 188.689 187.870 186.941 185.317 183.692 183.058 182.666 181.860 181.054 180.302 180.026 180.000 179.995 179.981 179.218 178.407 177.981 177.776 177.004 177.763 178.545 178.529 177.772 176.933 175.321 173.709 172.549 171.958 171.762 170.943 170.260 169.897 169.552 169.000 169.000 169.518 169.864 170.000 170.085 170.634 170.670 170.118 169.299 168.631 168.618 168.143 167.768 167.205 166.464 166.007 166.000 166.000 166.000 166.000 166.000 166.000 166.000 166.000 166.000 165.974 165.499 165.265 164.800 164.104 163.360 163.347 163.791 164.000 164.000 164.000 164.000 164.000 164.000 164.000 163.897 163.265 161.867 160.727 159.822 159.030 158.333 157.397 157.127 157.114 156.929 156.179 156.090 156.024 156.000 156.000 156.000 156.000 155.999 155.547 155.000 155.000 155.000 155.000 155.000 154.974 154.895 154.882 153.564 153.431 153.843 153.734 153.064 153.000 153.000 153.000 153.000 153.000 152.243 152.000 151.631 150.948 150.694 150.144 150.000 149.602 149.000 148.994 148.502 148.152 147.750 147.095 145.961 145.155 145.000 145.000 145.000 144.965 144.547 143.108 142.721 143.000 142.944 142.473 141.408 139.767 137.657 135.206 132.518 130.842 128.889 126.984 125.385 123.786 123.168 123.151 123.250 123.237 123.224 123.211 123.078 122.666 122.172 122.159 122.147 122.049 122.053 122.598 124.359 128.506 133.183 136.080 137.361 138.061 138.035 138.698 138.992 138.979 139.076 139.869 139.940 139.927 139.915 139.763 138.944 138.876 138.863 138.542 137.973 137.829 137.812 137.331 136.916 136.620 135.999 135.795 136.350 136.721 136.481 135.673 135.110 135.432 136.558 137.644 137.592 137.081 137.142 137.950 138.453 137.609 136.764 136.624 136.047 135.200 134.442 134.036 134.350 134.464 134.296 134.000 134.000 134.314 134.173 133.626 133.000 133.000 133.000 133.000 133.000 133.000 133.000 133.000 133.000 133.000 133.059 133.267 133.883 134.000 134.000 132.243 127.245 126.149 126.000 126.000 126.000 126.000 126.000 126.000 125.479 125.000 125.000 125.000 125.000 125.000 125.000 125.000 125.000 125.000 123.840 122.614 122.175 122.896
 238.000 238.000 238.000 237.611 237.000 237.000 237.000 237.000 237.000 236.920 236.609 236.101 236.000 236.000 236.000 236.000 236.000 235.329 235.000 235.000 235.000 235.000 234.300 234.000 234.000 234.000 234.000 234.000 233.789 233.407 233.000 233.000 233.000 233.000 232.883 232.574 232.012 232.000 232.000 232.000 231.951 231.775 231.788 231.301 231.000 231.000 231.000 231.000 230.912 230.475 230.000 230.000 230.000 230.000 229.511 229.000 228.903 228.110 228.005 227.457 226.930 226.734 225.876 225.018 224.160 222.980 221.544 220.699 219.854 218.930 218.014 217.187 216.474 216.279 215.706 215.765 216.582 217.564 219.150 220.270 221.478 222.660 223.403 223.636 224.112 223.693 222.624 221.464 219.839 218.214 216.795 215.258 213.277 211.210 209.218 207.466 206.005 204.859 204.053 203.247 203.000 202.798 202.264 201.445 201.408 201.040 200.765 200.613 200.060 198.686 197.501 196.395 195.540 195.256 194.438 193.619 192.685 191.544 190.162 189.343 188.525 187.706 186.649 185.215 184.264 183.334 183.000 182.682 181.876 181.070 180.265 180.000 180.000 179.852 179.060 178.242 177.427 177.000 177.000 177.000 177.000 177.600 178.000 177.788 176.967 175.454 173.791 172.500 171.636 170.953 170.147 169.868 169.421 168.939 168.779 168.970 169.000 169.357 169.797 169.968 169.711 169.671 169.134 168.432 168.000 168.000 167.706 167.265 166.641 166.000 166.000 166.000 166.000 166.000 166.000 166.000 166.000 166.000 166.000 166.000 165.971 165.165 164.359 163.726 163.279 163.000 163.000 163.224 163.322 163.504 164.000 164.000 164.000 163.624 163.244 163.023 161.573 160.531 159.657 158.838 158.020 157.201 157.034 156.508 156.115 156.084 156.002 156.000 156.000 156.000 156.000 156.000 156.000 155.376 155.000 155.000 154.998 154.955 154.934 154.921 154.668 153.993 153.897 153.276 153.000 153.000 153.000 153.000 153.000 153.000 153.000 153.000 153.000 152.259 152.000 151.748 151.140 150.347 150.074 150.000 149.618 149.000 149.000 149.000 148.638 148.244 147.565 145.967 144.795 144.534 144.521 144.508 144.469 144.068 142.319 141.927 142.444 142.395 142.047 141.306 140.305 138.894 137.004 135.135 133.056 130.758 128.471 126.417 124.818 123.427 122.588 122.250 122.237 122.224 122.828 122.529 122.113 122.000 122.000 122.000 122.000 122.372 122.941 123.207 125.744 130.089 133.929 136.055 136.124 136.891 137.681 137.992 137.979 138.057 138.812 138.882 138.856 138.830 138.681 137.850 137.844 137.937 137.948 137.710 137.034 136.856 136.799 136.410 135.773 135.760 135.154 135.440 135.722 135.559 134.995 134.739 134.670 135.378 136.289 136.263 136.238 135.554 135.462 135.584 135.092 134.620 134.542 134.529 134.361 133.948 133.535 133.477 133.744 134.000 133.924 133.460 133.413 133.400 133.249 133.000 133.000 133.000 133.000 133.000 133.000 133.000 133.000 133.000 133.000 133.000 133.029 133.835 134.000 131.483 127.904 126.783 126.115 126.000 126.000 126.000 126.000 126.000 126.000 125.495 125.000 125.000 125.000 125.000 125.000 125.000 125.000 125.000 125.000 123.872 122.630 122.000 122.000
 238.000 238.000 238.000 237.627 237.000 237.000 237.000 237.000 237.000 236.792 236.000 236.000 236.000 236.000 236.000 236.000 236.000 235.345 235.000 235.000 235.000 235.000 234.677 234.540 234.390 234.000 234.000 234.000 234.000 233.876 233.548 233.040 233.000 233.000 233.000 232.951 232.719 232.164 232.000 232.000 232.000 232.000 232.000 231.879 231.477 231.000 231.000 231.000 231.000 230.557 230.000 229.950 229.211 228.450 228.087 227.778 226.978 226.146 225.318 224.475 223.630 222.785 221.941 221.096 220.251 219.377 218.463 217.605 216.747 215.406 214.182 213.482 213.298 212.607 212.512 212.965 213.947 215.535 217.326 218.972 220.145 220.938 221.731 222.524 222.668 222.655 222.121 220.496 218.871 217.516 216.318 214.707 212.373 210.748 208.742 206.729 205.193 204.374 203.555 203.125 202.707 201.906 200.715 199.883 199.818 199.220 198.533 197.926 197.081 196.485 195.729 195.188 194.703 193.579 193.328 192.635 191.816 190.755 189.179 188.360 187.541 186.344 185.031 184.150 184.017 183.906 183.442 182.698 181.892 181.087 180.281 179.506 178.731 177.930 177.098 177.009 176.994 176.982 176.969 176.956 176.943 177.514 177.917 177.727 176.998 176.192 174.160 172.161 170.964 170.795 169.976 169.158 168.787 168.577 168.046 168.649 168.913 169.000 169.202 169.607 168.788 168.671 168.151 167.645 167.632 167.619 167.163 167.000 166.801 166.368 166.020 166.000 166.000 166.000 166.000 166.000 166.000 166.000 166.000 165.883 165.412 164.593 163.774 163.220 163.000 163.000 163.000 163.000 163.000 163.082 163.296 163.283 163.270 162.404 161.265 160.648 160.259 159.492 158.674 157.855 157.145 157.010 156.362 156.058 156.000 156.000 156.000 156.000 156.000 156.000 156.000 156.000 155.208 155.000 155.000 154.994 154.936 154.160 154.000 154.000 154.000 153.946 153.140 153.000 153.000 153.000 153.000 153.000 152.865 152.792 152.779 152.767 152.754 152.204 152.000 152.000 151.857 151.052 150.246 150.189 149.984 149.300 149.008 149.000 149.000 148.605 147.511 145.549 144.289 144.000 144.000 144.000 143.982 143.564 141.868 141.208 141.444 141.431 141.418 141.131 140.516 139.421 137.870 136.780 135.004 132.805 130.413 128.059 125.899 124.251 122.795 122.000 122.000 122.000 122.162 122.085 121.693 121.173 121.160 121.826 122.000 122.407 123.190 123.961 126.391 129.541 132.803 135.044 135.080 135.873 136.666 136.986 136.960 136.934 136.908 136.842 136.785 136.772 136.709 135.967 136.596 137.389 137.570 136.978 136.835 136.205 135.889 135.504 135.000 135.000 135.000 135.000 134.892 134.709 134.696 134.132 134.000 134.275 134.645 134.632 134.619 134.217 134.000 134.000 133.974 133.615 133.850 134.000 134.000 133.911 133.105 133.000 133.236 133.452 133.387 133.032 133.000 133.000 132.790 132.375 132.362 132.844 133.000 133.000 133.000 133.000 133.000 133.000 133.000 133.000 133.003 133.180 131.228 129.387 128.250 126.993 126.868 126.857 126.470 126.000 126.000 126.000 126.000 125.511 125.000 125.000 125.000 125.000 125.000 125.000 125.000 125.000 125.000 123.870 122.598 122.000 122.000
 238.000 238.000 238.000 237.743 237.246 237.010 237.000 237.000 237.000 236.877 236.373 236.384 236.155 236.000 236.000 236.000 236.000 235.656 235.264 235.000 235.000 235.000 235.000 235.000 234.875 234.517 234.063 234.000 234.000 234.000 233.957 233.672 233.179 233.000 233.000 233.000 233.000 232.790 232.322 232.000 232.000 232.000 232.000 232.000 231.602 231.000 230.992 230.306 229.598 228.818 228.219 228.154 227.322 226.491 225.685 224.872 224.027 223.182 222.337 221.485 220.627 219.770 218.912 218.054 217.196 216.045 214.579 213.734 212.889 212.044 211.147 210.217 209.503 209.433 210.084 210.950 211.958 213.740 215.936 217.673 218.964 219.923 220.715 221.508 221.669 221.504 220.883 219.547 218.232 217.075 215.655 213.756 211.405 209.780 208.156 206.034 204.210 203.391 202.572 202.095 201.395 200.415 199.297 198.478 197.966 197.236 196.628 196.202 195.384 195.345 195.137 194.733 193.911 192.293 192.280 191.652 190.833 189.787 188.170 186.718 186.274 185.654 184.955 184.785 184.112 183.419 182.645 181.826 181.007 180.188 179.369 178.551 177.732 176.913 176.094 176.008 176.000 176.000 176.000 176.000 176.000 176.528 176.917 176.904 176.891 176.087 174.154 172.134 170.664 169.985 169.179 168.248 167.788 167.829 168.000 168.000 168.483 168.723 168.710 168.624 167.805 167.671 167.335 167.000 167.000 167.000 167.000 167.000 167.000 166.867 166.062 166.000 166.000 166.000 166.000 166.000 166.000 166.000 166.000 165.701 164.430 163.610 163.156 163.000 163.000 163.000 163.000 163.000 163.000 162.827 162.257 161.666 161.541 161.271 160.509 159.166 158.523 158.269 158.096 157.691 157.000 157.000 156.273 156.000 156.000 156.000 156.000 156.000 156.000 156.000 156.000 156.000 155.215 155.000 154.995 154.776 154.000 154.000 154.000 154.000 154.000 153.962 153.156 153.000 153.000 153.000 152.989 152.842 152.258 152.000 152.000 152.000 152.000 152.000 152.000 152.000 151.873 151.068 150.500 150.697 150.650 149.788 148.678 148.612 148.369 147.950 147.097 145.023 143.842 143.535 143.522 143.509 143.486 143.084 141.735 141.000 141.000 141.000 141.000 141.000 140.532 139.453 137.921 137.115 136.073 134.514 132.460 130.068 127.677 125.484 123.683 122.500 121.895 121.269 121.212 121.199 121.119 121.000 121.000 121.115 121.641 122.391 123.372 124.912 127.343 129.817 131.493 132.351 133.096 133.876 134.656 134.983 134.961 134.933 134.870 134.191 133.824 134.033 134.727 134.868 135.494 136.238 136.703 136.576 135.887 135.813 135.370 135.000 135.000 135.000 135.000 134.850 134.453 134.000 134.000 134.000 133.804 133.796 134.000 134.000 134.000 134.000 133.825 133.581 133.543 133.083 133.356 133.530 133.517 133.467 133.059 133.000 133.000 133.000 133.000 133.000 132.581 132.401 132.262 132.000 132.000 132.744 133.000 133.000 133.000 133.000 133.000 133.000 133.000 133.000 133.000 129.873 128.534 128.529 128.920 128.661 128.687 127.620 126.556 126.000 126.000 126.000 126.000 125.527 125.000 125.000 125.000 125.000 125.000 124.997 124.979 124.997 125.000 123.404 121.949 121.825 121.799
 238.000 238.000 238.000 238.000 237.897 237.339 237.077 237.000 237.000 237.000 237.000 237.000 236.642 236.246 236.000 236.000 236.000 236.000 235.775 235.373 235.000 235.000 235.000 235.000 235.000 234.930 234.124 234.000 234.000 234.000 234.000 234.000 233.289 233.000 233.000 233.000 233.000 233.000 232.454 232.000 232.000 232.000 231.395 231.201 230.806 230.020 229.329 228.499 227.667 226.475 225.137 224.365 223.507 222.650 221.792 220.934 220.076 219.218 218.361 217.503 216.645 215.787 214.930 214.072 213.214 212.356 211.499 210.641 209.783 208.925 207.783 206.513 206.474 206.576 207.713 209.013 210.243 212.452 214.056 215.798 217.397 218.615 219.395 220.175 220.338 220.035 219.415 218.596 217.777 216.312 214.502 212.492 210.438 208.813 207.188 205.082 203.226 202.407 201.588 200.770 199.951 199.132 198.313 197.494 196.675 195.857 195.171 194.590 193.758 193.690 193.664 193.518 193.069 192.017 191.429 190.668 189.548 188.221 187.208 186.216 186.000 185.566 185.000 184.954 184.148 182.775 181.661 180.842 180.024 179.205 178.386 177.567 176.748 176.031 176.002 176.000 175.998 176.000 176.000 176.000 176.000 176.000 176.000 176.000 176.000 175.225 173.837 171.838 169.969 169.827 168.860 167.624 167.000 167.173 167.762 167.750 167.905 168.000 167.927 167.640 166.821 166.672 166.659 166.646 166.633 166.620 166.607 166.594 166.581 166.502 166.043 166.000 166.000 166.000 165.928 165.515 165.478 165.465 165.452 165.088 163.464 162.626 162.400 162.387 162.375 162.368 162.880 163.000 163.000 162.766 161.960 161.154 161.000 160.661 159.917 158.931 158.125 157.460 157.194 157.128 157.000 157.000 156.289 156.000 156.000 156.000 156.000 156.000 156.000 156.000 155.848 155.061 155.003 155.000 154.611 154.000 154.000 154.000 154.000 154.000 154.000 153.980 153.268 153.047 152.937 152.845 152.789 152.117 152.000 152.000 152.000 152.000 152.000 152.000 152.000 152.000 151.889 151.084 151.000 151.000 150.666 149.670 147.754 147.321 146.865 146.587 146.307 145.039 143.438 143.000 143.000 143.000 142.998 142.581 141.564 141.000 141.000 141.000 141.000 141.000 140.548 139.645 138.529 137.215 136.325 135.038 133.335 131.419 129.014 126.609 124.715 123.195 121.878 121.072 121.000 120.568 120.187 120.174 120.161 120.798 121.569 122.704 124.252 125.877 127.568 128.684 129.521 130.301 131.081 131.861 132.017 132.425 132.962 132.890 132.059 131.884 131.461 131.247 132.046 133.556 133.923 134.426 134.852 134.856 134.984 135.000 135.000 135.000 134.970 134.776 134.749 134.330 134.000 134.000 134.000 133.756 133.282 133.255 133.646 133.633 133.620 133.607 133.347 133.000 133.000 133.000 132.708 132.530 132.517 132.504 132.492 132.479 132.466 132.453 132.440 132.427 132.125 132.000 132.000 132.000 132.000 132.728 133.000 133.000 133.000 133.000 133.000 133.000 133.000 132.341 129.244 128.236 128.000 128.078 128.183 128.178 128.845 127.756 126.944 126.676 126.000 126.000 125.401 125.036 125.000 125.000 125.000 125.000 125.000 124.700 124.094 124.839 124.972 123.452 121.356 120.000 120.000
 237.760 237.747 237.872 237.909 237.708 237.695 237.176 237.000 237.000 237.000 237.000 237.000 236.771 236.364 236.000 236.000 236.000 236.000 235.804 235.401 235.000 235.000 234.665 234.461 234.448 234.412 234.059 233.607 233.396 233.212 232.740 232.714 232.449 231.996 231.636 231.610 231.584 231.558 231.391 231.253 231.240 231.227 230.461 230.201 229.823 228.863 227.367 225.850 224.311 223.050 221.952 220.389 220.269 219.022 217.810 216.952 216.094 215.236 214.379 213.524 212.668 211.838 210.993 210.148 209.303 208.458 207.614 206.769 205.924 205.079 204.235 203.534 203.638 204.360 205.682 207.268 208.853 210.439 212.219 214.296 215.820 216.653 217.681 218.225 218.537 218.656 218.431 217.606 216.478 214.949 213.054 211.095 209.450 207.464 205.761 203.878 202.243 201.424 200.605 199.786 198.967 198.148 197.330 196.511 195.268 194.270 193.439 192.692 192.379 192.345 192.333 192.320 192.027 190.636 189.784 188.953 188.022 187.195 186.999 186.194 185.512 185.111 184.816 184.134 183.315 181.855 180.286 178.971 178.193 178.098 177.402 176.584 175.765 175.035 175.022 175.009 175.504 175.988 176.000 176.000 176.000 176.000 176.000 175.986 175.897 175.212 173.794 171.740 169.635 168.675 167.198 166.802 166.789 166.822 167.000 167.000 167.460 167.724 167.475 166.669 166.104 166.000 166.000 166.000 166.000 166.000 166.000 166.000 166.000 166.000 166.000 166.000 166.000 165.844 165.439 165.032 164.613 164.173 163.905 163.650 162.476 162.095 162.000 162.000 162.000 162.000 162.279 162.336 162.323 162.092 161.290 161.048 161.000 160.558 159.752 158.947 158.141 157.335 157.000 157.000 157.000 157.000 156.305 156.000 156.000 156.000 156.000 156.000 155.505 155.052 155.034 155.001 155.000 154.441 154.000 154.000 154.000 154.000 154.000 154.000 154.000 154.000 154.000 153.462 152.658 152.000 151.994 151.848 151.932 152.000 152.000 152.000 152.000 152.000 152.000 152.000 151.905 151.100 151.000 151.000 150.571 149.312 147.184 146.264 146.000 146.000 145.781 144.620 143.364 142.735 142.523 142.510 142.497 142.099 141.400 141.000 141.000 141.000 141.000 141.000 140.564 139.609 138.303 137.199 136.341 135.382 133.957 131.823 129.978 127.657 125.383 123.399 121.894 121.088 121.000 120.476 120.000 120.000 120.000 120.747 121.553 122.403 123.440 125.039 125.927 126.726 127.506 128.286 129.066 130.636 131.007 130.994 130.981 130.939 130.120 129.943 130.346 130.834 130.867 131.647 133.180 133.930 134.000 134.089 134.894 135.000 135.000 135.000 134.882 134.076 133.817 133.737 133.818 134.000 134.000 133.241 132.815 132.659 132.646 132.634 132.621 132.608 132.595 132.582 132.569 132.556 132.204 132.000 132.000 132.000 132.000 132.000 132.000 132.000 132.000 132.000 132.000 132.000 132.000 132.062 132.577 132.899 133.000 133.000 133.000 133.000 133.000 133.000 133.000 132.085 127.437 127.222 127.665 128.000 128.000 128.000 128.126 126.933 126.132 126.093 125.979 125.248 125.029 125.000 125.000 125.000 125.000 125.000 124.531 123.997 123.897 123.108 124.355 123.500 121.439 120.000 120.000
 236.280 236.417 236.837 236.941 236.416 236.390 236.364 236.338 236.312 236.286 236.260 236.234 235.647 235.182 235.156 235.130 235.104 235.078 234.656 234.027 233.996 233.557 233.129 232.693 232.345 232.306 232.267 231.579 231.189 230.889 230.111 230.072 229.588 229.165 228.955 228.917 228.878 228.839 228.800 228.999 229.386 228.736 228.486 227.970 227.217 226.345 225.371 223.766 222.128 220.537 219.127 218.206 216.712 215.642 214.769 213.924 213.079 212.234 211.389 210.104 208.939 208.823 207.965 207.108 206.283 205.476 204.624 203.689 202.904 202.097 201.252 200.623 201.390 202.292 203.650 205.307 207.049 208.647 210.806 212.580 213.804 214.751 216.337 216.366 216.924 217.314 217.092 216.258 214.929 213.377 211.752 210.033 208.038 205.594 204.090 202.629 201.259 200.440 199.622 198.803 197.984 197.008 195.783 194.951 193.417 192.287 191.649 191.372 191.359 191.346 191.333 191.087 190.419 189.352 188.520 188.116 187.627 187.000 187.000 186.210 185.404 184.674 183.969 183.139 181.636 180.026 178.388 176.988 176.239 176.949 176.419 175.600 174.781 174.105 174.881 175.000 174.998 175.291 175.973 175.996 176.000 176.000 176.000 175.881 175.163 174.942 173.146 170.643 168.386 166.889 166.185 166.000 166.000 166.148 166.761 166.951 167.000 166.886 166.555 166.000 166.000 166.000 166.000 166.000 166.000 166.000 166.000 165.809 165.582 165.569 165.556 165.544 165.531 165.358 164.944 164.533 163.753 162.934 162.268 161.817 161.449 161.414 161.737 162.000 162.000 162.000 162.000 162.000 161.732 161.248 161.000 161.000 161.000 160.890 160.348 158.934 157.499 157.073 157.000 157.000 157.000 157.000 156.321 156.000 156.000 155.914 155.180 155.078 155.032 155.000 155.000 155.000 155.000 154.457 154.008 154.000 154.000 154.000 154.000 154.000 154.000 154.000 154.000 154.000 153.242 152.121 151.980 151.174 151.510 151.794 151.835 152.000 152.000 152.000 152.000 151.923 151.649 151.080 151.000 151.000 150.501 149.106 147.205 146.280 146.000 145.863 145.359 144.089 142.913 142.239 142.000 142.000 142.000 142.000 141.416 141.000 141.000 141.000 141.000 141.000 140.580 139.688 138.580 137.268 136.357 135.551 134.409 132.574 130.976 128.704 126.299 123.966 121.978 121.797 121.234 120.492 119.745 119.175 119.162 119.881 120.674 121.467 122.409 124.008 124.846 125.113 125.491 126.271 127.051 128.621 129.607 129.989 129.967 129.956 129.172 129.000 129.000 129.000 129.039 129.757 131.684 133.182 133.892 134.073 134.878 134.873 134.801 134.726 134.472 133.833 133.215 133.000 133.236 133.711 133.698 132.942 132.303 132.000 132.000 132.000 132.000 132.000 132.000 132.000 132.000 132.000 132.000 132.000 132.000 131.987 131.578 131.480 131.467 131.454 131.441 131.428 131.415 131.402 131.559 132.084 132.890 133.000 132.668 132.533 133.000 133.000 133.000 130.299 127.826 127.523 126.307 126.809 127.117 127.197 127.324 127.982 127.340 126.469 125.656 125.119 125.106 125.017 125.000 125.000 125.000 125.000 125.000 124.362 124.002 123.733 123.000 123.000 123.613 123.424 122.099 120.078 120.010
 233.282 233.751 233.938 233.886 233.863 234.057 234.048 233.838 233.737 233.885 233.547 233.470 233.089 232.632 232.315 232.263 232.211 232.159 231.727 231.055 231.003 230.562 230.107 229.658 229.228 228.743 228.691 228.380 227.926 227.441 227.081 226.524 226.151 225.996 226.144 226.612 226.586 227.058 227.267 227.331 227.372 226.541 225.864 225.079 224.504 224.213 223.381 221.799 220.161 218.841 217.793 216.245 214.610 213.015 211.786 210.941 210.097 209.252 207.796 206.562 205.717 204.871 203.990 203.163 202.757 202.410 201.496 199.921 199.551 199.044 198.312 197.770 198.550 200.165 201.819 203.666 205.818 207.598 209.030 210.548 211.789 212.720 214.306 214.367 214.909 215.315 215.173 214.640 213.524 212.015 210.213 208.198 206.093 204.010 202.625 201.189 199.791 198.959 198.127 197.295 196.215 194.961 193.800 192.968 191.854 191.202 191.000 190.935 190.417 190.346 190.333 189.993 189.174 188.356 188.072 188.000 187.643 186.877 186.254 185.443 184.624 183.805 182.828 181.334 179.697 178.059 176.784 175.892 175.103 175.160 174.510 174.096 174.036 174.002 174.020 174.010 174.470 174.972 175.054 175.812 175.928 175.932 175.894 175.791 175.590 174.067 171.407 168.645 166.697 165.878 165.816 165.803 165.867 166.000 166.000 166.590 166.738 166.437 166.000 166.000 166.000 165.797 165.805 166.000 166.000 166.000 165.745 165.324 165.000 165.000 165.000 164.690 164.531 164.377 163.961 163.540 162.770 161.951 161.308 161.000 161.000 161.000 161.219 161.389 161.474 161.976 162.000 161.619 161.201 161.000 161.000 161.000 161.000 161.000 160.569 158.957 157.346 157.000 157.000 157.000 156.958 156.277 156.048 156.000 155.758 155.096 155.010 155.000 155.000 155.000 155.000 155.000 155.000 154.999 154.667 154.000 154.000 154.000 154.000 154.000 154.000 154.000 154.000 154.000 153.663 152.956 152.162 151.225 151.000 151.000 151.178 151.769 151.756 151.743 151.730 151.533 150.982 150.732 150.895 151.000 150.714 149.724 147.307 146.025 145.601 145.403 144.879 144.073 142.534 142.000 142.000 142.000 142.000 142.000 141.432 141.000 141.000 141.000 141.000 141.000 140.841 140.279 138.969 137.357 136.373 135.567 134.685 133.606 132.007 130.225 127.742 124.942 122.760 122.773 122.100 121.307 120.272 119.000 119.000 119.107 119.208 119.575 120.488 122.074 122.915 123.656 124.416 125.209 126.002 126.811 127.596 127.988 128.132 128.844 128.817 128.809 128.821 128.854 128.905 128.892 129.518 131.082 132.811 133.578 134.345 133.900 133.604 133.357 132.776 132.763 132.750 132.870 133.000 132.967 132.723 132.187 131.826 131.660 131.647 131.634 131.622 131.609 131.596 131.583 131.570 131.557 131.544 131.531 131.519 131.501 131.091 131.000 131.000 131.000 131.000 131.000 131.000 131.000 131.102 131.445 132.238 132.351 131.853 131.814 133.000 133.000 129.459 126.930 126.000 126.000 126.000 126.165 126.210 126.479 126.901 126.367 126.195 126.062 125.620 125.000 125.000 125.000 125.000 125.000 124.797 124.043 124.030 124.006 123.563 123.000 122.999 122.970 122.322 121.972 121.673 120.927 120.202
 230.249 230.244 230.205 230.166 230.185 230.706 230.732 230.181 229.829 230.188 229.915 229.578 229.629 229.442 228.678 228.288 228.213 228.161 227.744 227.057 227.005 226.953 226.622 226.175 225.707 225.306 224.802 224.641 224.166 223.537 223.472 223.132 223.036 222.997 223.216 223.964 224.495 224.750 224.802 224.763 224.702 224.480 224.279 223.691 222.933 222.230 221.398 220.456 219.523 218.350 216.807 215.182 213.558 211.933 210.331 208.739 207.126 205.492 204.428 203.578 202.717 201.842 200.214 199.793 199.286 198.428 197.570 196.712 195.935 195.596 195.597 195.767 196.688 198.748 200.588 202.237 204.067 206.278 207.395 208.643 209.774 210.650 211.989 212.287 212.712 212.973 212.876 212.539 211.220 209.654 207.774 205.773 204.135 202.498 200.860 199.419 198.292 197.459 196.228 194.977 193.737 192.649 191.850 191.482 191.136 191.000 190.827 190.340 190.038 189.543 189.334 189.221 188.883 188.077 188.000 187.609 186.662 185.451 185.241 184.459 183.640 182.821 181.682 179.383 177.730 176.603 175.727 175.090 174.990 174.255 173.452 173.062 173.049 173.036 173.023 173.010 172.997 173.244 173.943 173.917 174.573 174.865 174.498 173.418 171.668 170.066 168.057 166.434 165.713 164.894 164.952 165.000 165.278 165.777 165.764 165.943 166.000 166.000 166.000 166.000 166.000 165.395 165.272 165.648 165.635 165.622 164.974 164.596 164.583 164.548 164.177 163.727 163.531 163.243 162.506 162.493 161.786 161.234 161.000 161.000 161.000 161.000 161.000 161.000 161.141 161.947 161.511 161.149 160.754 160.429 160.983 160.442 160.700 161.000 160.751 159.755 158.156 157.303 157.000 156.813 156.164 156.025 156.000 156.000 155.742 155.000 155.000 155.000 155.000 155.000 155.000 155.000 155.000 155.000 154.686 154.024 154.037 154.013 154.000 154.000 154.000 154.000 154.000 154.000 154.000 153.818 153.012 151.555 151.077 151.000 151.000 151.000 151.000 151.000 151.000 151.000 150.967 150.410 150.557 150.666 150.383 149.413 146.982 145.504 145.000 145.000 144.895 144.089 142.566 141.758 141.524 141.577 141.970 142.000 141.448 140.806 140.538 140.983 141.000 141.000 140.766 140.115 139.001 137.389 135.988 135.193 134.777 133.982 133.513 131.699 129.275 126.736 124.475 123.877 123.115 121.942 120.436 118.928 118.252 118.150 118.137 118.436 119.242 120.113 120.900 121.680 122.461 123.241 124.021 124.801 125.581 125.615 124.755 123.897 124.581 125.347 126.151 126.960 127.716 127.677 128.337 129.162 129.942 130.716 131.357 131.566 131.695 131.789 131.792 131.971 132.000 132.360 132.725 132.641 132.066 131.777 131.325 131.000 131.000 131.000 131.000 131.000 131.000 130.934 130.586 130.558 130.545 130.532 130.519 130.506 130.898 130.686 130.468 130.573 131.000 131.000 130.629 130.403 130.541 131.052 131.858 131.570 130.869 130.320 130.084 128.338 126.617 126.000 126.000 126.000 126.000 126.000 126.000 126.066 126.159 126.009 125.367 125.146 125.085 125.000 125.000 125.000 125.000 124.634 124.045 124.000 124.000 123.394 123.003 122.998 122.945 122.154 122.000 121.548 121.000 121.000 121.000
 226.687 226.905 226.942 226.890 226.838 226.786 226.734 226.358 225.973 225.995 226.464 226.037 226.127 226.052 225.246 224.739 224.661 224.373 223.762 223.058 223.007 222.955 222.603 222.139 221.799 221.747 221.358 220.878 220.429 220.023 219.487 219.435 219.796 220.290 220.882 221.628 221.839 221.843 222.145 222.510 222.484 222.458 221.892 221.509 221.079 220.335 220.178 219.432 218.614 217.464 215.840 214.215 212.590 210.452 208.401 206.763 205.126 203.488 201.855 200.208 198.752 197.907 197.063 196.183 195.333 194.528 193.683 192.839 192.636 192.657 192.997 193.950 195.408 196.971 198.557 200.426 202.728 204.314 205.900 206.979 207.672 208.249 209.016 209.552 209.861 209.975 209.735 208.592 207.428 205.901 204.526 203.387 201.736 200.437 199.166 198.317 197.793 196.968 194.945 193.554 192.570 191.764 191.000 191.000 190.615 190.399 190.284 189.955 189.439 189.110 189.000 189.000 188.969 188.732 188.206 187.102 185.607 184.244 184.231 183.476 182.221 180.458 178.367 176.572 175.569 175.696 175.951 175.718 175.004 173.469 173.030 173.000 173.000 173.000 173.000 172.370 172.000 172.000 172.000 172.000 172.594 172.803 171.870 169.479 167.109 166.067 165.301 164.855 164.747 164.067 164.592 164.908 165.000 165.000 165.000 165.567 165.739 165.826 166.000 166.000 165.755 165.277 165.000 164.929 164.633 164.316 163.842 163.597 163.584 163.534 162.716 162.545 162.532 162.259 161.506 161.493 160.803 160.467 160.454 160.441 160.429 160.829 161.000 161.000 161.047 161.339 161.093 160.641 160.212 159.942 159.615 159.353 159.430 159.521 159.312 158.480 157.472 157.083 156.673 156.144 156.000 156.000 156.000 156.000 155.971 155.851 155.132 155.000 155.000 155.000 155.000 155.000 155.000 155.000 155.000 155.000 155.000 154.317 154.030 154.000 154.000 154.000 154.000 154.000 154.000 153.834 153.028 152.222 151.417 151.000 151.000 151.000 151.000 151.000 151.000 151.000 150.991 150.743 150.243 149.851 149.400 148.483 146.353 145.328 145.000 145.116 145.335 144.542 142.732 141.493 141.000 141.061 141.461 141.486 141.219 140.658 140.066 140.414 140.421 140.408 140.249 139.822 139.017 137.421 135.810 135.000 134.793 134.000 134.000 133.026 131.175 128.960 127.171 125.158 124.131 122.878 121.279 119.693 118.225 118.000 118.000 118.037 118.123 118.189 118.885 119.665 120.445 121.226 122.006 122.786 123.023 122.283 120.823 120.004 119.957 121.067 122.604 123.930 124.619 124.572 125.661 126.749 127.490 128.207 128.143 128.715 129.631 130.474 130.831 131.624 131.751 131.738 131.725 131.713 131.700 131.209 130.837 130.661 130.648 130.635 130.622 130.610 130.597 130.442 129.623 129.558 129.545 129.532 129.520 129.507 129.881 129.678 129.678 130.092 130.442 130.429 130.159 130.000 130.230 131.014 131.307 130.704 129.885 129.242 128.803 126.385 126.000 126.000 126.000 126.000 126.000 126.000 126.000 126.000 126.000 126.000 125.264 125.000 125.000 125.000 125.000 125.000 125.000 124.622 124.000 124.000 123.229 123.007 123.000 122.781 122.000 122.000 121.971 121.530 121.000 120.996 120.916
 222.244 222.720 222.944 222.892 222.840 222.788 222.736 222.684 222.632 222.580 222.528 222.476 222.228 221.786 221.320 221.268 221.216 220.638 219.937 219.478 219.036 218.956 218.640 218.389 218.258 217.764 217.697 217.404 216.959 216.465 216.118 216.596 217.307 218.087 218.867 219.615 219.589 219.563 219.657 219.766 219.727 219.688 219.504 219.025 218.517 218.355 218.329 217.601 216.769 215.623 213.985 212.347 211.378 209.460 207.373 205.749 204.124 201.754 199.321 197.248 195.784 194.925 194.080 192.639 191.765 191.481 190.701 189.856 189.713 190.164 191.182 192.731 193.651 195.004 196.525 198.322 200.489 202.254 203.869 204.834 205.253 205.494 206.029 206.054 206.364 206.635 206.319 204.655 202.992 201.544 200.782 200.555 199.605 198.782 197.963 197.529 197.325 196.506 194.492 193.392 192.586 191.780 190.985 190.522 190.149 190.000 190.000 189.944 189.139 189.000 189.000 189.000 188.941 188.373 187.087 185.902 184.640 183.158 182.524 181.143 179.129 177.028 175.368 174.391 174.831 175.561 175.680 174.788 173.243 172.323 172.076 172.063 172.242 173.000 173.000 172.380 172.000 172.000 171.999 171.966 171.262 169.956 168.318 166.680 165.043 164.165 163.869 163.856 163.858 163.983 164.000 164.414 164.791 164.778 164.765 164.935 165.000 165.254 165.713 165.701 164.920 164.675 164.533 164.178 163.642 162.826 162.610 162.597 162.584 162.560 162.097 162.000 161.795 161.393 160.975 160.567 160.163 160.000 160.000 160.000 160.000 160.287 160.700 161.000 161.000 161.000 160.533 160.160 159.776 159.270 159.017 158.465 157.870 157.522 157.455 157.241 157.049 156.537 156.120 156.000 156.000 156.000 156.000 156.000 156.000 155.968 155.162 155.000 155.000 155.000 155.000 155.000 155.000 155.000 155.000 155.000 155.000 155.000 154.491 154.000 154.000 154.000 154.000 154.000 154.000 153.850 153.044 152.238 151.433 151.000 151.000 151.000 151.000 151.000 150.892 150.719 150.695 150.124 149.800 149.379 148.762 147.912 146.300 145.344 145.000 145.158 145.503 144.685 142.803 141.509 141.000 141.000 141.000 141.000 141.000 140.674 140.000 140.000 140.000 140.000 140.000 139.838 139.033 136.956 135.566 134.743 134.258 134.001 133.432 133.110 132.364 131.051 129.458 127.689 126.215 124.707 123.121 121.489 119.229 118.282 117.592 117.125 117.112 117.100 117.784 118.576 119.369 120.162 120.955 120.328 120.028 119.996 119.842 119.049 119.000 119.562 120.342 120.905 120.814 120.787 121.281 122.000 122.738 123.365 123.037 123.403 124.901 127.191 129.387 130.535 130.752 130.858 130.928 130.713 130.700 130.687 130.347 130.000 130.000 130.000 129.733 129.610 129.597 129.511 129.039 129.000 129.000 129.000 129.000 129.000 129.000 129.000 129.178 129.556 129.995 130.000 130.000 129.757 129.475 129.757 129.731 129.482 129.191 129.000 128.851 126.433 126.000 126.000 126.000 126.000 126.000 126.000 126.000 125.757 125.185 125.173 125.045 125.000 125.000 125.000 125.000 124.322 124.083 124.045 123.842 123.070 123.007 123.000 122.611 122.000 122.000 121.973 121.368 121.000 120.984 120.886 120.146
 218.904 218.997 218.945 218.893 218.841 218.790 218.738 218.834 218.887 218.582 218.530 218.478 218.134 217.664 217.322 217.270 217.218 216.656 216.114 215.999 215.544 215.094 214.906 214.854 214.734 214.332 213.835 213.647 213.445 213.268 213.737 214.512 215.292 216.072 216.851 217.616 217.590 217.564 217.538 217.512 217.486 217.460 217.434 216.945 216.382 216.295 215.595 215.352 214.786 213.916 212.905 211.280 209.718 208.066 206.406 204.654 202.250 199.809 197.911 195.920 193.624 191.973 191.098 189.704 188.476 187.821 187.717 186.960 187.369 188.149 189.151 190.732 192.179 193.084 194.208 195.658 197.262 199.436 201.087 201.810 202.099 202.580 202.760 202.740 202.689 202.637 202.394 201.027 199.958 199.283 198.862 198.521 198.158 197.690 196.980 196.530 196.342 195.523 194.318 193.408 192.602 191.684 190.434 190.078 190.000 190.000 190.000 189.985 189.695 189.227 189.000 188.822 188.193 186.806 185.205 184.054 182.930 181.391 180.559 178.462 176.069 174.454 174.157 174.011 174.114 174.218 173.905 173.055 172.143 171.320 171.607 172.000 172.187 172.992 172.221 172.005 171.999 171.986 171.950 171.099 169.626 167.989 166.351 164.718 163.166 162.882 162.931 163.000 163.068 163.736 163.817 163.902 164.000 164.000 164.000 164.543 164.740 164.727 164.714 164.701 163.937 163.675 163.422 162.941 162.645 162.137 162.000 161.842 161.585 161.572 161.559 161.546 161.308 160.891 160.473 159.654 159.481 159.708 160.000 160.000 160.000 160.000 160.194 160.391 160.378 160.365 159.648 159.339 159.010 158.313 158.300 158.076 157.460 157.000 157.000 157.000 157.000 156.881 156.502 156.000 156.000 156.000 155.488 155.132 155.119 155.105 155.017 155.000 154.596 154.055 154.042 154.029 154.016 154.465 154.993 154.998 154.969 154.985 154.538 154.052 154.000 154.000 154.000 154.000 154.000 153.866 153.060 152.254 151.449 150.927 150.819 150.993 150.812 150.745 150.449 150.000 150.000 150.000 149.390 149.000 148.778 147.944 146.332 145.360 145.000 145.000 144.918 143.761 142.213 141.283 141.000 141.000 141.000 141.000 141.000 140.523 139.512 139.956 140.000 139.685 139.396 139.238 138.419 136.572 135.437 134.631 134.000 134.000 133.213 133.000 132.601 131.744 130.745 129.768 128.324 126.738 125.341 124.349 121.970 119.788 118.404 117.644 116.939 116.213 116.768 117.110 117.415 118.102 118.103 118.746 119.010 118.997 118.984 118.971 118.958 119.431 119.797 119.639 119.026 119.000 119.000 119.280 119.683 119.528 118.027 117.411 118.284 120.997 125.517 128.034 128.984 129.887 130.548 130.000 130.000 129.793 129.675 129.662 129.649 129.636 129.192 129.000 128.878 128.585 128.572 128.559 128.546 128.533 128.520 128.508 128.874 129.000 129.000 129.077 129.432 129.430 129.417 129.246 129.000 129.000 129.000 129.000 129.000 128.847 128.236 126.369 126.000 126.000 126.000 125.953 125.337 125.748 125.621 125.142 125.000 125.000 125.000 125.000 125.000 124.893 124.173 124.026 123.505 123.070 123.049 123.002 123.000 122.442 122.004 121.999 121.980 121.201 121.000 120.976 120.733 120.000 120.000
 215.051 214.999 215.054 215.171 215.132 215.093 215.055 215.308 215.477 214.938 214.899 214.860 214.638 214.215 213.743 213.704 213.359 212.900 212.587 212.497 212.056 211.608 211.431 211.392 211.279 210.785 210.383 210.236 210.197 210.323 211.090 211.857 213.004 214.056 214.705 214.925 215.453 215.565 215.539 215.513 215.487 215.461 215.435 214.962 214.383 214.298 213.466 212.737 211.942 211.097 210.243 209.318 207.776 206.606 205.146 202.857 201.192 199.548 196.870 193.629 190.692 189.093 188.209 187.380 186.562 185.743 184.924 184.893 185.403 186.134 187.090 188.535 189.302 190.184 191.034 191.999 193.411 194.984 196.394 197.408 197.971 198.205 198.972 199.271 199.505 199.660 199.582 199.060 198.730 198.405 197.735 196.670 196.175 196.112 195.789 195.530 195.358 194.540 193.721 193.203 192.413 191.179 190.009 190.000 190.000 190.000 190.000 189.985 189.471 189.127 188.707 187.909 186.477 184.272 182.998 182.071 181.168 180.101 178.662 176.356 174.706 174.000 174.000 174.000 174.000 173.546 172.793 171.974 171.156 171.022 171.043 171.405 172.009 172.037 172.005 171.419 170.999 170.983 170.934 169.265 167.607 165.984 164.402 162.876 162.142 162.000 162.394 162.857 162.854 162.978 163.000 163.388 163.792 163.800 163.977 164.000 164.000 163.913 163.714 163.701 162.953 162.676 162.663 162.550 162.026 161.712 161.611 161.373 161.000 161.000 161.000 161.000 160.811 160.309 159.498 159.087 159.000 159.204 159.456 159.469 159.916 160.000 159.723 159.391 159.378 159.365 158.664 158.339 158.229 158.000 158.000 157.489 157.131 157.000 157.000 157.000 157.000 156.563 156.126 155.866 155.196 155.159 154.563 154.133 154.120 154.107 154.094 154.081 154.040 154.000 154.000 154.000 154.000 154.002 154.251 154.920 154.130 154.638 154.910 154.590 153.921 153.989 154.000 154.000 154.000 153.882 153.076 152.141 151.274 150.525 150.115 150.735 150.183 150.000 150.000 150.000 150.000 150.241 149.535 149.000 148.865 148.334 146.735 145.521 145.000 145.000 144.935 143.674 142.142 141.250 140.874 140.547 140.938 141.000 140.743 140.031 139.045 139.395 139.423 139.198 139.000 138.791 137.476 136.351 135.095 134.215 133.892 133.331 133.067 132.585 132.165 131.812 131.006 130.816 129.571 127.973 126.768 126.573 124.181 122.328 120.761 119.284 117.786 116.268 116.058 116.075 116.079 116.098 116.072 116.741 117.516 117.996 117.986 117.998 117.970 117.445 117.022 117.340 118.811 118.894 118.881 118.456 117.540 116.709 115.877 114.672 114.240 115.458 118.915 121.885 124.828 127.601 129.516 129.714 129.701 129.243 129.000 129.000 129.000 129.000 129.000 128.812 128.426 128.000 128.000 128.000 128.000 128.000 128.000 128.000 128.364 128.482 128.469 128.540 128.977 129.000 129.000 129.000 129.000 129.000 129.000 129.000 128.732 128.258 127.964 126.352 126.000 126.000 126.000 125.953 125.147 125.148 125.113 125.000 125.000 125.000 125.000 125.000 124.740 124.109 124.010 123.351 122.560 122.071 122.058 122.045 122.032 122.009 122.000 121.830 121.029 121.000 120.974 120.576 120.000 120.000 119.922
 211.290 211.251 211.499 211.897 211.845 211.793 211.934 212.017 211.978 211.939 211.900 211.617 211.157 210.783 210.719 210.331 209.848 209.409 209.118 209.019 208.563 208.114 207.910 207.858 207.752 207.348 207.277 207.238 207.404 207.830 208.104 209.328 210.458 211.376 212.086 212.606 213.381 213.565 213.539 213.360 212.731 212.692 212.653 212.526 212.384 212.315 211.483 210.652 209.820 208.988 208.156 207.324 206.432 205.133 203.792 202.701 200.311 197.204 193.955 191.349 189.885 189.092 187.557 186.476 185.622 184.759 183.940 183.893 183.880 184.251 185.044 185.837 186.767 188.103 189.297 190.219 191.044 192.465 193.387 194.180 194.973 195.782 196.818 197.457 198.145 198.660 198.618 198.309 197.547 196.519 195.420 194.582 194.569 194.556 194.543 194.530 194.375 193.556 192.737 192.187 191.395 190.375 190.010 190.000 190.000 189.763 189.511 189.993 189.187 188.597 187.629 186.028 183.871 182.548 181.636 180.486 179.063 177.604 175.953 174.683 174.107 173.766 173.181 173.168 172.557 171.770 170.939 170.217 170.110 170.761 171.000 171.022 171.198 171.962 171.253 170.440 169.999 169.773 168.905 166.487 164.671 163.462 162.647 161.909 161.896 161.883 161.927 162.000 162.041 162.710 162.818 162.896 163.000 163.061 163.678 163.924 163.871 163.508 162.969 162.728 162.193 162.000 162.000 161.952 161.658 161.157 161.000 161.000 161.000 161.000 160.657 160.282 159.859 159.419 159.000 159.000 159.000 159.000 159.000 159.014 159.360 159.417 159.223 159.000 158.962 158.450 158.116 158.000 158.000 158.000 158.000 157.798 157.357 157.000 156.910 156.294 156.224 155.674 155.198 155.036 154.217 154.159 154.063 154.000 154.000 154.000 154.000 153.453 153.069 153.056 153.043 153.030 153.017 153.433 153.991 153.978 153.965 153.952 153.479 152.926 152.980 153.692 153.775 153.811 153.821 153.612 152.913 151.522 150.481 150.000 150.000 150.000 150.000 150.000 150.000 150.045 150.283 150.842 149.844 149.000 149.000 149.000 147.396 145.785 145.000 145.000 144.985 144.530 143.174 141.610 140.395 140.028 140.431 140.488 140.251 139.871 139.505 139.062 139.000 139.000 138.815 138.227 137.110 135.810 134.631 134.000 133.857 133.051 132.467 132.124 131.732 131.212 131.005 130.396 129.499 128.523 127.646 126.990 125.917 124.981 124.097 122.829 120.519 117.495 116.320 115.579 115.062 115.049 115.036 115.702 116.016 116.288 117.079 117.849 117.239 116.974 117.298 117.930 117.994 118.000 117.872 117.086 115.724 115.033 114.233 114.000 113.696 113.577 115.201 117.622 121.412 125.111 127.727 128.714 128.702 128.885 128.858 128.663 128.650 128.637 128.624 128.326 128.000 128.000 128.000 128.000 128.000 128.000 128.000 128.000 128.000 128.272 128.354 128.063 128.419 128.431 128.418 128.406 128.393 128.380 128.367 128.354 128.208 128.000 127.996 126.384 126.000 126.000 126.000 125.969 125.163 125.000 125.000 125.000 125.000 125.000 125.000 124.592 123.851 123.123 123.110 122.395 121.576 121.071 121.058 121.045 121.033 121.546 121.659 121.000 121.000 120.976 120.414 120.000 119.987 119.918 119.190
 208.055 208.144 208.213 208.174 208.135 208.096 208.466 208.823 208.979 208.935 208.601 208.094 207.654 207.379 207.302 206.792 206.376 205.921 205.464 205.067 205.016 204.627 204.434 204.236 203.808 203.756 204.114 204.239 204.526 205.242 205.709 207.210 208.246 209.026 209.806 210.586 210.821 211.265 211.259 210.722 210.489 210.462 210.437 210.411 210.207 209.533 209.361 208.669 208.218 207.878 207.059 206.240 205.421 203.691 201.322 198.862 195.615 193.691 192.015 191.000 190.887 190.105 188.618 187.015 185.368 183.844 182.962 182.894 182.881 183.236 184.029 184.821 186.400 187.407 188.519 189.783 190.563 191.343 192.123 193.015 193.958 194.778 196.134 196.373 196.505 196.731 196.899 196.349 195.564 194.627 194.000 194.000 194.000 193.686 193.544 193.380 192.970 192.539 191.754 190.935 190.303 190.000 190.000 189.560 189.414 189.249 188.959 188.753 187.928 187.096 185.855 184.148 182.290 181.471 180.200 178.348 176.288 174.713 174.300 174.074 173.629 172.920 172.116 171.432 170.619 169.787 169.220 169.213 169.924 170.065 170.563 171.000 171.007 171.037 170.276 168.908 167.638 166.638 165.001 163.363 162.341 161.544 160.938 161.000 161.000 161.000 161.366 161.858 161.845 161.832 161.936 162.363 162.793 162.780 162.767 163.262 163.127 162.728 162.650 162.072 162.000 162.000 162.000 161.879 161.073 161.000 161.000 161.000 161.000 161.000 159.903 158.979 158.534 158.521 158.508 158.895 159.000 159.000 159.000 159.000 159.000 159.000 159.000 158.855 158.362 158.055 158.000 158.000 158.000 158.000 158.000 157.512 157.140 156.781 156.147 155.328 154.669 154.312 154.198 154.161 154.011 154.000 153.530 153.134 153.121 153.108 153.095 153.034 153.000 153.000 153.000 153.000 153.000 153.002 152.990 152.957 152.931 152.936 152.495 151.927 151.914 151.901 151.888 152.349 152.621 151.987 151.854 151.249 150.592 150.140 150.000 150.000 150.000 150.000 150.000 150.104 150.672 150.233 149.457 148.878 148.656 148.643 147.349 145.817 145.000 145.000 145.000 145.000 143.758 141.719 140.000 140.000 140.000 140.000 140.000 139.859 139.419 139.055 139.000 139.000 138.708 137.842 136.529 134.940 134.168 133.786 133.193 132.375 132.077 132.000 131.649 130.884 130.272 129.462 128.643 128.127 127.814 127.008 126.868 126.244 125.803 125.288 123.554 119.645 117.036 115.561 115.000 115.000 115.000 115.016 115.011 115.272 115.987 115.997 116.000 116.471 116.954 117.109 117.915 117.924 116.828 115.623 115.143 115.156 114.419 114.182 114.266 114.752 116.390 118.625 120.860 123.466 126.016 127.145 127.106 127.874 128.204 128.000 128.000 128.000 128.000 128.000 128.000 128.000 128.000 128.000 128.217 128.465 128.434 128.050 128.000 128.509 128.685 127.934 127.485 127.848 128.000 128.000 128.000 128.000 128.000 128.000 128.000 127.879 127.325 126.271 126.000 126.000 126.000 125.985 125.179 125.000 125.000 125.000 125.000 125.000 124.449 123.686 122.867 122.123 122.110 121.411 121.043 121.000 121.000 121.000 121.000 121.010 121.005 121.000 121.000 120.255 120.000 119.980 119.779 119.029 119.000
 204.232 204.668 205.046 205.176 205.137 205.098 205.059 205.406 205.981 205.942 205.098 204.864 204.409 203.696 203.329 203.277 202.869 202.426 201.870 201.069 201.017 200.965 200.913 200.731 200.357 200.318 200.978 201.536 202.111 202.891 203.671 204.714 205.927 207.011 207.692 207.914 208.422 208.727 208.712 208.515 208.489 208.463 208.437 208.411 208.181 207.343 205.974 204.993 203.828 202.533 201.650 200.766 199.882 198.506 196.525 194.105 192.370 192.039 191.519 191.000 190.999 190.975 190.249 188.425 186.034 183.744 182.132 182.000 182.000 182.305 183.013 183.806 185.237 186.208 186.988 187.768 188.548 189.328 190.258 191.452 192.668 193.448 194.228 194.374 193.908 193.568 194.314 194.583 193.959 193.793 193.889 193.583 193.570 192.864 192.317 191.758 191.037 191.011 190.629 189.677 188.933 188.907 188.881 188.104 187.503 187.205 186.997 186.152 185.308 184.463 183.746 182.927 181.303 179.919 177.897 175.857 174.231 173.246 173.233 173.220 173.114 172.742 171.885 170.408 169.480 169.074 169.000 169.093 169.899 170.000 170.040 170.065 169.936 169.147 168.318 166.947 165.655 164.684 163.059 161.434 160.949 160.584 160.167 160.898 160.897 160.953 161.000 160.970 160.845 160.832 161.448 161.806 161.793 161.780 161.767 161.755 161.742 161.729 161.716 161.703 161.903 162.000 162.000 161.895 161.089 161.000 161.000 161.000 160.944 160.599 159.396 158.448 158.000 158.000 158.000 158.385 158.483 158.470 158.562 158.999 159.000 159.000 159.000 158.913 158.603 158.105 158.000 158.000 158.000 158.000 158.000 156.854 155.932 155.245 154.479 154.263 154.068 153.602 153.199 153.186 153.173 153.160 153.068 153.000 153.000 153.000 152.314 152.082 152.069 152.057 152.044 152.031 152.018 152.005 151.789 151.000 151.000 151.593 151.537 151.000 151.000 151.000 151.000 151.401 151.863 151.791 151.104 151.120 151.097 150.707 150.000 150.000 150.000 150.000 150.000 149.964 149.727 148.666 148.343 148.219 147.946 147.656 146.861 145.686 145.000 145.000 145.000 144.653 143.343 141.685 140.370 140.000 140.000 140.000 140.000 139.754 138.971 138.517 138.424 138.411 138.123 137.222 135.598 134.417 133.674 133.232 132.889 132.083 132.000 131.621 130.935 130.220 130.013 129.248 128.442 128.000 127.830 127.024 127.000 126.412 126.000 125.601 123.979 120.673 118.060 116.501 115.723 114.967 114.191 114.024 114.012 114.258 115.050 115.843 115.987 116.025 116.334 117.086 117.817 117.264 116.038 115.406 116.000 116.000 115.265 115.196 115.668 116.480 117.926 119.528 121.000 122.771 124.456 124.431 124.405 125.206 126.374 127.470 127.994 127.702 127.625 127.612 127.599 127.587 127.574 127.850 128.254 128.535 128.446 127.628 127.496 127.977 128.330 127.952 127.595 127.471 127.419 127.406 127.394 127.381 127.368 127.355 127.342 127.165 126.346 126.068 126.000 126.000 125.858 125.252 125.047 125.000 125.000 125.000 124.977 124.311 123.521 122.703 121.884 121.123 121.111 121.032 121.000 121.000 121.000 121.000 121.000 121.000 121.000 120.995 120.982 120.263 119.977 119.622 119.000 119.000 118.928
 200.851 201.139 201.468 201.943 202.124 202.099 202.237 202.597 202.982 202.943 202.404 202.019 201.583 200.986 200.161 199.788 199.670 199.202 198.357 197.533 197.095 197.299 197.436 197.397 197.397 197.811 198.536 199.030 199.673 200.876 201.656 202.436 203.396 204.117 204.380 204.885 205.111 204.745 204.613 205.032 204.980 204.929 204.877 204.825 204.585 203.727 202.069 200.499 198.883 197.614 197.438 196.580 195.722 194.831 194.143 193.944 193.109 192.327 191.529 191.000 190.903 190.084 189.293 187.973 186.016 183.706 182.157 182.076 182.056 182.000 182.141 182.947 183.625 184.376 185.169 185.926 186.538 187.313 188.827 190.134 190.981 192.004 192.569 192.687 192.251 191.813 192.320 192.806 192.465 192.672 193.039 192.557 192.197 191.738 191.282 190.711 190.000 190.000 189.642 188.190 186.765 186.430 186.843 185.700 184.704 184.207 184.202 184.366 183.598 182.780 182.088 181.284 179.646 177.451 175.485 174.028 173.048 172.247 172.234 172.221 172.553 172.564 171.087 169.462 168.497 168.542 169.000 169.009 169.092 169.717 169.544 168.785 167.999 167.167 166.335 165.496 164.671 163.727 162.093 160.467 159.949 159.936 159.936 159.997 160.000 160.515 160.871 160.664 159.846 159.833 160.432 160.888 161.000 161.000 161.000 161.000 161.000 161.000 160.983 160.743 161.154 161.509 161.664 161.594 161.067 161.000 160.804 160.600 160.469 159.650 158.831 158.254 158.000 158.000 158.000 158.000 158.000 158.000 158.081 158.437 158.880 159.000 159.000 159.000 158.988 158.182 158.000 158.000 158.000 157.971 157.409 155.982 154.817 154.194 154.000 154.000 153.471 153.108 153.000 153.000 153.000 153.000 153.000 152.719 152.122 152.109 152.025 152.000 152.000 152.000 152.000 152.000 151.433 151.005 151.000 151.000 151.000 151.000 151.000 151.000 151.000 151.000 151.000 151.000 151.000 151.000 151.000 151.665 151.529 150.667 149.786 149.773 149.760 149.747 149.734 149.640 149.058 149.000 148.108 147.444 147.564 147.034 146.246 145.440 145.000 145.000 145.000 143.877 142.638 141.605 140.799 140.000 140.000 140.000 140.000 139.770 138.964 138.158 138.000 137.733 136.983 135.681 134.549 133.683 133.179 132.808 132.291 132.031 131.502 131.138 130.681 129.908 129.297 128.495 128.100 128.000 127.846 127.040 126.362 126.066 126.000 125.793 124.897 122.431 120.018 117.689 115.787 114.999 114.969 114.360 114.000 113.999 114.034 114.827 115.646 116.441 116.952 117.000 117.000 117.000 116.563 116.130 116.112 115.872 115.355 116.230 117.194 117.343 118.162 119.555 120.418 121.368 122.457 122.432 122.637 122.871 124.042 126.055 127.651 127.123 127.000 126.838 126.600 126.587 126.574 126.922 127.097 127.189 127.463 126.644 126.497 126.715 127.092 127.458 127.445 126.732 126.714 127.000 127.000 127.000 127.000 127.000 126.775 126.281 126.015 126.000 126.000 125.732 125.218 125.004 125.000 125.000 124.685 124.201 124.175 123.357 122.538 122.085 121.764 121.000 121.000 121.000 121.000 121.000 121.000 121.000 121.000 120.521 120.008 120.000 120.000 120.000 119.481 119.000 118.991 118.923 118.233
 197.228 197.775 198.302 198.547 199.094 199.323 199.923 200.348 200.322 200.296 200.270 199.666 199.218 199.003 198.171 197.339 196.845 196.219 195.375 194.542 194.096 194.298 194.668 195.065 195.508 196.301 197.094 197.414 197.791 198.861 199.641 200.420 200.874 201.009 201.084 201.851 201.383 200.987 200.906 201.034 200.982 200.930 200.878 200.827 200.602 199.745 199.408 198.628 197.690 196.824 196.108 195.289 195.034 194.575 194.000 193.963 193.157 192.351 191.545 190.739 189.920 189.101 188.933 187.468 185.064 182.833 182.089 182.633 182.429 182.000 182.107 182.785 182.955 183.444 184.153 184.792 184.779 185.532 187.328 188.858 189.771 191.124 191.340 191.376 190.942 190.324 190.305 190.572 190.623 190.877 191.292 191.556 191.083 190.708 190.545 190.387 190.000 190.000 188.960 186.992 185.166 184.504 184.845 183.829 182.583 182.003 182.443 182.732 182.455 181.436 180.076 178.642 176.991 175.108 173.821 172.883 172.064 171.247 171.234 171.221 170.964 170.317 169.328 168.360 168.056 168.065 168.352 169.000 169.000 169.062 168.600 167.782 166.963 166.144 166.008 165.492 164.686 163.619 161.197 159.527 159.000 159.000 159.138 159.870 159.976 159.935 159.776 159.423 158.705 158.798 159.416 160.209 160.837 161.000 161.000 160.847 160.742 160.730 160.686 160.106 160.000 160.312 160.665 160.652 160.639 160.626 160.123 159.482 159.115 158.627 157.847 157.548 157.536 157.585 157.969 158.000 158.000 158.000 158.000 158.000 158.773 159.000 158.772 158.393 158.380 158.073 158.000 158.000 157.852 157.272 155.891 154.758 153.834 153.264 153.251 153.238 153.075 153.000 153.000 152.931 152.264 152.161 152.148 152.093 152.000 152.000 152.000 152.000 152.000 152.000 152.000 152.000 151.439 151.000 151.000 151.000 151.000 151.000 151.000 151.000 151.000 151.000 151.000 151.000 151.000 151.000 151.000 151.536 151.357 150.329 149.000 149.000 149.000 149.000 149.000 149.000 149.000 148.785 148.169 147.456 147.000 147.000 146.262 145.456 144.862 144.529 144.176 142.932 141.981 141.336 140.902 140.489 140.498 140.203 140.000 139.786 138.980 138.174 137.637 136.717 135.457 134.337 133.518 133.122 132.695 132.062 131.322 131.309 131.092 130.644 130.189 129.892 129.086 128.280 128.000 128.000 127.862 127.056 126.250 125.530 125.141 124.961 124.142 123.164 121.155 118.751 116.555 115.000 115.000 114.386 113.585 113.000 113.032 113.816 115.249 115.995 116.304 117.005 117.079 117.103 117.116 117.092 116.831 115.345 115.871 117.106 118.000 118.120 118.926 119.562 119.887 120.255 120.770 120.987 121.762 122.743 123.949 125.298 126.627 126.639 126.626 126.366 126.000 126.000 126.000 126.000 125.805 125.664 126.023 125.587 125.827 126.000 126.126 126.459 126.446 126.136 126.491 127.000 127.000 127.000 127.000 126.665 126.231 126.000 126.000 126.000 126.000 125.644 125.000 125.000 125.000 124.552 123.829 123.201 123.189 122.373 122.064 121.648 121.107 121.000 121.000 121.000 121.000 121.000 121.000 121.000 121.000 120.527 120.000 119.996 119.983 119.970 119.476 118.983 118.825 118.073 118.000
 194.228 195.008 195.788 196.484 196.691 197.209 197.907 198.349 198.323 198.297 198.271 197.683 197.219 197.020 196.188 195.356 194.524 193.511 192.487 192.037 192.011 192.300 192.906 193.699 194.513 195.757 196.278 196.415 196.664 197.415 197.704 198.405 198.700 198.867 199.355 199.592 199.385 199.653 200.000 199.906 199.297 199.233 199.220 198.929 198.358 198.188 198.168 197.581 196.437 195.234 195.117 194.306 194.090 194.046 194.000 193.979 193.173 192.367 191.128 189.755 188.936 188.095 187.259 185.959 184.083 181.994 181.919 181.968 182.000 182.000 182.000 182.000 182.721 183.000 183.268 183.821 183.988 184.575 185.728 186.842 187.622 188.402 189.182 189.377 189.086 188.729 189.003 189.809 190.000 190.000 190.136 190.585 190.572 189.914 189.546 189.533 189.490 189.079 187.640 185.771 184.182 183.455 183.442 182.726 181.695 181.127 181.390 181.377 180.432 178.627 176.892 175.777 174.682 173.608 172.313 171.445 171.214 171.003 171.000 170.070 169.014 168.182 167.363 167.200 167.686 168.371 168.900 168.961 168.239 168.092 167.617 166.798 165.979 165.160 165.028 165.007 164.108 161.780 160.135 159.237 158.950 158.958 159.000 159.000 159.669 159.271 158.031 156.742 156.842 157.608 158.505 159.386 160.153 160.780 160.769 160.295 160.000 159.940 159.717 159.704 159.691 159.678 159.665 159.633 159.328 159.253 158.936 158.320 157.588 157.575 157.170 157.000 157.000 157.060 157.470 157.863 158.000 158.000 158.000 158.000 158.327 158.420 158.257 157.894 157.393 157.368 157.355 157.342 157.125 156.297 154.672 153.669 153.159 153.000 153.000 153.000 153.000 153.000 152.790 152.174 152.022 152.000 152.000 152.000 152.000 152.000 152.000 152.000 152.000 152.000 152.000 151.284 151.009 151.000 150.993 150.980 150.992 151.000 151.000 151.000 151.000 151.000 151.000 151.000 151.000 151.000 151.000 150.889 150.456 149.755 149.000 149.000 149.000 149.000 149.000 148.978 148.742 148.214 147.502 146.900 146.658 146.645 145.910 145.091 144.273 143.510 143.032 142.249 141.691 141.292 141.000 141.000 141.000 140.413 140.000 139.695 138.445 137.173 136.235 135.229 134.172 133.374 133.060 133.000 132.549 131.743 130.957 130.400 130.297 129.803 129.271 129.234 129.025 128.296 128.000 127.749 127.170 127.013 126.266 125.460 125.000 124.849 124.043 123.237 121.293 118.875 116.638 115.027 115.000 114.402 113.596 113.000 112.987 112.995 114.256 115.867 117.000 117.042 117.775 117.965 118.000 117.766 117.077 116.410 116.907 117.584 118.058 118.289 118.930 119.000 119.522 120.000 120.134 120.940 121.746 122.932 124.035 124.828 125.621 125.639 125.627 125.614 125.601 125.588 125.575 125.562 125.321 125.000 125.000 125.000 125.319 125.485 125.605 126.000 126.000 126.000 126.200 126.408 126.395 126.382 126.369 126.177 126.000 126.000 126.000 126.000 125.622 125.184 125.000 125.000 124.425 123.664 122.846 122.202 122.189 122.038 122.000 121.601 121.000 121.000 121.000 121.000 121.000 121.000 121.000 121.000 121.000 120.542 119.739 119.004 119.002 119.000 119.000 118.707 118.000 118.000 117.933
 192.213 192.993 193.849 194.799 195.360 195.614 196.043 196.350 196.324 196.298 196.272 195.906 195.473 195.037 194.205 193.373 192.541 191.501 190.532 190.519 190.506 191.098 191.891 192.684 193.487 194.635 195.219 195.415 195.648 196.389 196.376 197.027 197.350 197.613 198.324 198.311 197.812 197.713 198.039 198.408 197.576 197.467 197.441 196.816 195.584 195.545 195.506 195.380 194.870 194.130 194.117 194.023 194.000 194.000 194.000 193.995 193.189 191.783 190.168 188.772 187.905 186.268 185.276 184.016 182.677 181.863 181.119 181.675 182.000 182.000 182.013 182.140 182.755 183.000 183.000 183.123 183.928 184.171 184.654 185.346 186.111 186.685 187.465 187.866 188.000 188.181 188.987 189.505 189.624 189.611 189.513 189.170 189.144 188.490 187.895 187.600 187.537 187.090 186.005 184.794 183.587 182.455 182.442 181.742 181.211 181.000 180.872 179.866 177.840 175.487 173.688 172.934 172.645 171.854 171.257 170.740 170.261 170.248 169.642 168.281 167.338 167.003 166.184 166.838 167.096 167.918 169.000 168.971 168.165 166.838 165.713 165.117 165.051 165.006 165.000 164.531 163.157 160.717 158.293 157.989 158.000 158.292 158.925 158.912 158.825 157.702 156.108 155.006 155.799 156.592 157.949 159.178 159.795 159.782 159.769 159.756 159.743 159.580 159.000 159.000 159.000 158.862 158.666 158.626 158.098 158.000 157.823 157.442 156.971 156.628 156.861 157.000 157.000 157.000 157.000 157.711 158.000 158.000 158.000 158.000 157.580 157.420 157.407 157.332 157.014 157.000 157.000 156.749 156.016 154.644 153.565 152.685 152.278 152.265 152.252 152.239 152.226 152.213 152.151 151.957 151.291 151.162 151.149 151.374 152.000 152.000 152.000 152.000 152.000 151.895 151.124 151.009 151.000 150.667 150.000 150.000 150.729 150.980 151.000 151.000 151.000 151.000 151.000 151.000 151.000 151.000 151.000 150.383 149.921 149.571 148.787 148.774 148.761 148.748 148.736 148.676 148.092 147.795 147.202 146.383 145.658 145.645 144.927 144.303 143.682 143.000 143.000 142.265 142.000 141.653 141.000 141.000 140.620 139.920 139.281 138.565 136.927 135.735 134.826 134.007 133.315 132.989 132.485 131.960 131.262 130.590 130.276 129.457 129.297 129.152 129.000 128.943 128.334 127.544 127.220 126.907 126.194 126.181 125.450 125.074 125.000 124.865 124.059 122.583 120.935 118.923 116.670 115.059 115.746 114.824 113.612 112.806 112.000 112.786 114.186 115.785 116.936 116.923 116.910 117.539 117.936 118.000 118.000 118.000 118.000 118.000 118.283 119.000 119.000 119.000 119.506 120.000 120.118 120.924 121.730 122.535 123.232 123.813 124.606 124.913 125.000 125.000 124.930 124.596 124.576 124.823 125.000 125.000 125.000 125.000 125.000 125.000 125.111 125.482 125.916 126.000 126.000 126.000 126.000 126.000 126.000 126.000 126.000 126.000 126.000 125.505 125.141 125.000 124.905 124.302 123.499 122.681 122.139 122.000 122.000 122.000 122.000 121.617 121.000 121.000 121.000 121.000 121.000 121.000 121.000 121.000 121.000 120.990 120.743 119.947 119.141 119.000 118.980 118.684 117.994 117.929 117.277
 190.431 191.340 192.410 193.477 193.683 194.188 194.533 194.675 194.662 194.649 194.636 194.424 194.016 193.456 192.637 191.496 190.558 189.892 189.533 189.520 189.507 189.784 190.151 190.603 191.370 192.137 193.257 194.079 194.632 195.390 195.377 196.011 196.351 196.425 196.650 196.624 196.395 196.286 196.352 196.425 195.594 196.009 195.822 195.032 194.195 194.182 193.558 193.312 193.236 193.264 193.964 194.000 194.000 193.653 193.065 193.052 191.481 189.852 188.214 186.789 185.939 184.343 183.370 182.542 181.694 180.926 180.987 181.659 182.000 182.035 182.208 182.901 183.000 183.000 183.000 183.084 183.712 184.485 184.754 185.071 185.765 185.983 186.748 187.381 187.676 187.773 188.282 188.275 188.249 188.223 188.002 187.171 187.145 186.507 185.675 185.067 185.041 185.015 184.672 184.034 183.096 181.968 181.518 180.759 180.417 180.404 180.159 178.032 176.073 174.160 172.481 171.087 169.409 168.472 168.914 169.703 169.891 169.283 167.895 166.754 166.210 166.162 166.003 166.789 167.000 167.459 168.132 168.095 166.556 165.504 164.650 164.067 164.054 164.041 164.029 163.103 161.208 158.838 157.239 157.659 157.951 157.956 157.992 157.920 157.043 155.621 154.377 153.991 154.784 155.577 156.918 158.162 158.828 158.993 159.000 159.000 159.000 159.000 159.000 159.000 158.813 158.399 158.000 157.991 157.701 157.627 157.172 156.602 156.557 156.081 156.375 156.762 157.000 157.000 157.000 157.695 158.000 157.838 157.459 157.446 156.709 156.421 156.408 156.395 156.382 156.369 156.356 155.737 154.317 152.679 152.370 152.120 152.000 152.000 152.000 152.000 152.000 152.000 151.816 151.181 151.028 151.000 151.000 151.035 151.181 151.886 152.000 152.000 151.731 151.053 151.005 150.316 150.020 150.005 149.994 149.981 149.992 150.518 150.963 151.000 151.000 151.000 151.000 151.000 151.000 151.000 150.872 150.225 149.482 148.787 148.000 148.000 148.000 148.000 147.936 147.723 147.710 147.237 146.534 145.728 145.000 145.000 144.310 144.000 143.817 143.362 143.036 142.281 142.000 141.669 140.936 140.544 139.384 138.427 137.596 136.687 135.493 134.661 133.842 133.252 132.883 132.385 131.062 130.110 129.552 129.336 129.313 129.051 129.000 129.000 128.815 128.198 127.379 126.561 125.847 125.356 125.194 125.181 125.050 124.571 124.411 124.881 124.075 122.538 120.926 118.971 116.841 115.995 115.991 115.418 114.247 112.822 112.016 112.000 113.169 114.753 115.950 116.000 116.000 116.625 117.431 118.000 118.000 118.000 118.000 118.000 118.215 118.810 118.973 119.000 119.490 120.000 120.102 120.908 121.714 122.359 122.783 123.087 123.612 124.383 124.832 124.863 124.505 124.020 124.000 124.326 124.723 125.000 125.000 125.000 125.000 125.000 125.000 125.012 125.372 125.434 125.422 125.556 126.000 126.000 126.000 125.696 125.344 125.331 125.319 125.093 125.000 124.778 124.153 123.335 122.516 122.107 121.735 121.317 121.959 122.000 122.000 121.633 121.000 121.000 121.000 121.000 121.000 121.000 121.000 121.000 121.000 121.000 120.768 119.963 119.157 119.000 118.545 117.986 117.870 117.117 117.000
 189.416 190.663 191.741 191.794 192.587 192.702 193.022 193.352 193.326 193.300 193.274 192.928 192.487 192.071 191.239 189.985 189.256 189.000 189.000 189.000 188.622 188.494 188.677 189.086 189.451 189.794 191.062 192.240 193.020 193.792 194.268 194.594 194.986 195.177 194.684 195.212 195.299 195.286 195.273 195.240 195.029 194.633 194.333 194.146 193.913 193.253 193.645 193.843 193.573 193.018 193.111 192.434 192.183 191.797 190.976 190.184 188.562 187.480 186.247 184.806 184.000 183.959 183.310 182.058 180.675 180.031 180.837 181.643 182.000 182.255 183.000 183.000 183.000 183.000 183.000 183.000 183.000 183.539 183.754 184.055 184.848 185.641 186.217 186.379 186.353 186.327 186.301 186.276 186.250 186.224 186.019 185.187 185.146 184.524 183.874 183.534 183.521 183.508 183.811 183.568 182.510 180.846 179.565 178.636 178.252 178.214 178.000 176.045 174.796 173.689 172.016 169.278 166.280 165.189 165.904 167.151 167.752 167.514 165.985 165.324 165.210 165.327 165.973 166.132 166.158 166.201 166.265 166.239 164.608 163.579 163.128 163.068 163.055 163.042 162.410 160.708 158.509 156.990 156.977 156.988 157.000 157.262 157.841 157.022 154.740 152.825 152.182 152.975 153.768 154.561 155.886 157.147 157.940 158.733 158.770 158.757 158.744 158.731 158.718 158.705 158.283 158.000 157.932 157.648 157.119 156.769 156.189 155.694 156.000 156.000 156.000 156.251 156.658 157.000 157.000 157.339 157.486 157.182 156.460 156.447 155.725 155.421 155.598 156.000 156.000 156.000 155.300 153.987 152.558 152.024 152.000 151.594 151.279 151.266 151.253 151.240 151.227 151.214 151.158 150.983 150.319 150.163 150.150 150.137 150.174 150.967 151.098 151.085 150.799 149.985 149.202 149.044 149.020 149.008 149.000 149.000 149.698 149.956 150.275 150.930 150.917 150.904 150.891 150.922 151.000 151.000 150.220 149.415 148.927 148.643 147.999 147.818 147.762 147.749 147.570 147.000 147.000 146.805 146.377 145.828 145.320 145.047 144.573 144.198 144.000 143.909 143.103 141.994 141.330 140.771 139.939 139.108 137.543 136.444 135.792 135.315 134.496 134.105 133.432 132.781 132.114 130.799 129.662 129.146 129.000 129.000 129.000 129.000 128.560 128.285 128.033 127.215 126.396 125.577 124.758 124.208 124.195 124.182 124.169 124.079 124.043 124.027 123.208 122.315 120.958 119.019 116.867 116.061 115.285 113.941 112.667 112.001 111.989 111.994 112.580 113.752 115.129 115.922 115.983 116.485 117.281 118.000 118.000 118.000 118.000 118.000 118.000 118.045 118.675 118.924 119.359 119.744 119.794 120.358 121.108 121.540 122.088 123.000 123.000 123.727 124.335 124.407 123.942 123.610 123.576 123.809 124.203 124.618 124.991 125.000 125.000 125.000 125.000 125.000 125.000 125.000 125.000 125.095 125.396 125.383 125.371 125.194 125.000 125.000 125.000 124.528 124.293 123.989 123.170 122.351 122.070 122.000 121.679 121.127 121.933 122.000 122.000 121.649 121.000 121.000 121.000 121.000 121.000 121.000 121.000 121.000 121.000 121.000 120.784 119.979 119.173 118.982 118.520 117.701 116.937 116.989 117.000
 188.485 189.524 190.483 190.507 191.287 191.405 191.379 191.441 191.663 191.650 191.637 191.438 191.037 190.489 189.670 188.852 188.559 188.546 188.533 188.520 188.127 188.000 188.174 188.558 188.986 189.000 189.837 190.580 191.005 191.785 192.565 193.120 193.500 193.601 193.359 194.151 193.848 193.574 193.548 193.522 193.496 193.311 193.222 193.209 193.104 192.285 192.290 192.314 192.243 192.026 191.300 190.477 189.695 188.893 188.189 188.109 187.287 186.459 185.635 184.820 183.991 182.367 181.305 180.082 179.146 179.939 180.732 181.525 181.935 182.239 183.000 183.000 183.000 183.000 183.000 183.000 183.000 182.841 182.755 183.040 183.805 184.367 184.406 184.542 184.571 184.328 184.302 184.276 184.251 184.225 184.036 183.204 183.147 182.541 182.095 181.980 181.566 181.921 182.294 181.817 180.332 178.330 177.128 176.223 175.318 174.471 173.950 173.777 173.487 172.879 171.404 168.713 166.043 164.513 164.291 164.636 164.873 165.440 164.574 164.638 165.000 165.029 165.176 165.172 165.159 165.146 164.830 163.394 163.153 162.502 162.081 162.068 162.055 162.042 160.201 158.187 156.773 156.000 156.000 156.628 156.974 157.000 156.926 156.049 153.246 151.459 151.167 151.959 152.752 153.545 154.854 156.131 156.924 157.717 157.940 158.000 158.000 158.000 158.000 158.000 157.824 157.680 157.543 157.005 156.714 156.024 155.363 155.130 155.599 155.927 156.000 156.000 156.246 157.000 157.000 157.000 156.759 156.198 155.460 155.447 155.134 155.000 155.124 155.396 155.383 154.915 153.658 152.458 152.000 152.000 151.478 151.129 151.000 151.000 151.000 150.407 150.228 150.215 150.202 150.188 150.033 150.000 149.641 149.137 149.128 149.205 149.197 149.171 149.127 148.996 148.177 148.034 148.021 148.293 148.996 148.998 148.978 148.956 149.242 149.870 149.912 149.905 149.950 150.304 150.846 150.712 150.039 149.258 148.439 147.801 147.789 147.161 147.000 147.000 147.000 146.995 146.762 146.260 146.000 146.000 145.954 145.148 145.000 144.536 144.000 143.894 142.750 141.195 140.063 139.108 137.956 137.124 135.931 135.235 134.829 134.332 133.513 133.023 132.619 131.847 130.672 130.024 129.225 129.000 129.000 129.000 129.000 128.446 128.116 127.404 126.322 125.491 124.659 124.318 124.122 124.000 124.000 124.000 124.000 124.000 123.759 123.043 122.225 121.406 120.082 118.433 116.883 116.077 114.572 112.439 111.025 111.002 111.000 111.740 112.527 113.339 114.176 114.982 115.718 115.365 116.243 118.127 118.140 118.153 118.166 118.102 118.000 118.000 118.000 118.502 118.757 118.812 119.000 119.000 119.682 120.488 121.493 122.700 122.967 123.456 123.821 123.876 123.525 123.039 123.000 123.308 123.709 124.085 124.507 124.513 124.788 125.000 125.000 125.000 125.000 125.000 125.000 125.000 125.000 125.000 125.000 125.000 125.000 124.965 124.416 123.642 122.962 122.484 122.246 122.029 122.000 122.000 121.695 121.111 121.917 122.000 122.000 121.665 121.000 121.000 121.000 121.000 121.000 121.000 121.000 121.000 121.000 120.616 120.009 119.993 119.174 118.355 117.536 116.730 116.033 116.774 116.849
 187.768 188.074 188.484 188.492 189.272 189.406 189.380 189.611 190.328 190.302 190.276 189.768 189.224 189.142 188.645 188.169 188.000 188.000 188.000 188.000 188.000 188.000 188.000 188.071 188.437 188.868 189.245 189.417 189.585 190.378 190.678 191.329 191.704 191.678 191.669 192.449 192.412 191.978 191.548 191.523 191.497 191.471 191.805 191.996 191.378 191.205 191.170 191.157 190.889 190.249 190.129 189.389 189.044 188.671 187.874 187.110 187.010 186.448 185.289 183.674 182.027 180.395 178.784 177.950 178.130 178.923 179.644 180.407 181.235 182.095 182.859 182.846 182.833 182.820 182.759 182.588 182.563 182.177 181.884 182.024 182.729 182.716 182.703 183.039 183.144 182.625 182.330 182.277 182.251 182.225 182.053 181.221 181.148 180.558 180.096 179.894 179.062 179.032 178.685 177.823 176.470 174.818 173.960 173.457 172.397 170.842 169.635 170.890 171.513 171.545 170.896 169.509 167.657 165.556 164.364 164.000 164.026 164.226 164.068 164.116 164.466 164.896 164.238 164.172 164.159 163.845 163.087 162.160 162.108 161.518 160.731 160.137 160.112 159.320 157.273 156.037 156.003 155.991 155.996 156.000 156.420 156.939 156.821 155.196 152.907 150.999 150.242 150.955 151.871 152.694 153.911 155.116 155.909 156.702 157.495 157.758 157.745 157.732 157.719 157.706 157.306 156.883 156.611 156.317 155.501 154.888 154.767 155.000 155.003 155.468 155.564 155.741 156.124 156.525 156.512 156.499 156.034 155.351 154.965 154.519 154.435 154.701 155.000 154.943 154.445 153.664 152.662 152.000 151.917 151.367 151.081 151.000 151.000 150.888 150.284 150.057 149.559 149.511 150.000 150.000 149.346 149.163 149.089 148.817 148.125 148.112 148.666 149.000 148.776 148.057 148.007 148.000 148.000 148.002 148.076 148.867 148.302 148.000 148.000 148.099 148.837 148.973 149.411 149.759 149.597 148.765 148.681 148.197 147.522 147.000 147.000 147.000 147.000 147.000 146.949 146.724 146.138 146.000 146.000 146.000 145.970 145.164 144.765 144.343 143.901 143.477 141.852 140.227 138.868 137.651 136.442 135.623 135.151 134.743 134.167 133.348 132.529 131.711 131.428 130.931 129.912 129.417 129.090 129.000 129.000 128.883 128.336 128.066 127.583 126.484 125.066 124.248 123.429 123.234 123.221 123.395 124.000 124.000 123.457 122.770 122.023 121.191 120.359 119.528 118.651 117.490 116.060 116.005 114.575 112.444 111.000 111.000 110.990 110.994 111.528 112.658 114.098 114.891 114.980 115.000 116.533 119.000 119.000 119.000 119.000 118.661 118.149 118.000 118.000 118.000 118.000 118.185 118.761 119.202 120.155 121.085 121.828 122.388 122.928 123.000 123.315 123.427 122.955 122.624 122.577 122.564 122.888 123.604 123.975 124.000 124.280 124.487 124.474 124.462 124.449 124.436 124.423 124.410 124.397 124.384 124.371 124.359 124.346 124.321 124.050 123.352 122.546 122.000 122.000 122.000 122.000 121.628 121.154 121.095 121.901 122.000 122.000 121.681 121.000 121.000 120.348 120.101 120.088 120.076 120.063 120.050 120.037 119.646 119.011 118.999 118.179 117.361 116.569 116.000 116.000 116.000 115.369
 187.000 187.000 187.000 187.013 187.590 187.703 187.690 187.841 188.329 188.303 188.515 188.334 188.000 188.000 188.000 188.000 188.000 188.000 188.000 188.000 188.000 188.000 188.000 188.000 188.000 188.748 189.000 189.000 189.067 189.380 189.379 189.949 190.353 190.340 190.327 190.567 191.030 191.167 191.000 191.000 191.000 191.000 191.100 191.157 191.000 191.000 191.000 190.598 190.104 189.923 189.212 188.405 188.093 187.768 186.949 186.130 185.341 184.520 183.346 181.561 179.106 178.187 177.382 176.969 177.166 177.909 177.981 178.535 179.641 180.952 181.719 181.693 181.667 181.641 181.379 180.589 180.563 181.191 181.164 180.940 181.460 181.434 181.408 181.382 181.356 181.263 180.713 180.382 180.252 180.226 180.070 179.238 179.149 178.575 178.097 177.985 177.540 176.359 175.125 174.265 173.563 171.925 170.643 170.295 169.671 168.504 167.412 168.011 168.738 169.348 169.598 169.256 168.184 166.002 164.193 163.276 163.263 163.250 163.768 164.000 164.065 164.176 164.015 163.400 162.714 162.244 162.115 162.006 161.327 160.028 158.798 157.978 157.190 156.346 155.466 155.017 155.004 155.007 155.796 155.966 155.973 155.986 155.856 154.301 152.054 150.495 149.875 149.995 151.593 152.514 153.307 154.155 155.096 155.902 156.546 156.759 156.746 156.733 156.720 156.707 156.694 156.332 155.513 154.695 153.876 153.841 154.233 154.603 154.590 154.914 155.000 155.408 156.000 155.991 155.598 155.500 155.050 154.474 154.439 154.065 154.000 154.197 154.409 154.318 153.499 152.681 151.862 151.345 151.296 151.028 151.000 151.000 150.762 150.130 149.311 149.241 149.102 149.078 149.203 149.190 148.398 148.164 148.151 148.111 148.000 148.000 148.061 148.086 148.057 148.000 148.000 148.000 148.000 148.000 148.000 148.000 148.000 148.000 148.000 148.000 148.000 148.636 148.385 147.880 147.763 147.064 147.000 147.000 147.000 146.971 146.799 146.777 146.764 146.751 146.606 146.011 146.000 146.000 145.748 145.415 145.646 144.828 144.238 144.000 143.670 142.509 140.884 139.260 137.635 136.277 135.493 135.063 134.662 134.002 133.183 132.365 131.546 130.727 130.428 130.089 129.349 129.024 129.000 128.650 128.351 128.177 127.358 126.780 126.020 125.078 124.083 123.264 123.049 123.000 123.000 123.220 124.000 124.000 122.833 121.340 120.040 119.160 117.617 117.247 116.713 116.116 116.000 116.000 114.607 112.492 111.000 110.886 110.079 110.709 110.983 111.676 113.144 113.950 114.756 115.000 116.303 118.583 118.988 119.000 119.000 119.000 118.836 118.203 118.216 118.087 118.000 118.000 118.066 119.451 121.006 122.149 122.764 123.000 123.000 123.000 123.000 122.888 122.545 122.057 122.000 122.000 122.177 122.666 123.459 123.513 123.772 124.000 124.000 124.000 124.000 124.000 124.000 124.000 124.000 124.000 124.000 124.000 124.000 124.000 124.000 122.930 122.166 122.000 122.000 122.000 122.000 121.532 121.000 121.079 121.885 122.000 122.000 121.697 121.000 121.000 120.279 120.000 120.000 120.000 120.000 119.288 119.038 119.016 118.834 118.024 116.435 116.000 116.000 116.000 116.000 116.000 115.385
 186.769 186.756 186.793 187.000 187.000 187.000 187.000 187.000 187.000 187.000 187.411 187.794 188.000 188.000 188.000 188.000 188.000 188.000 188.000 188.000 188.000 188.000 188.000 188.000 188.000 188.325 188.737 189.000 189.000 189.000 189.000 189.207 189.594 190.000 190.000 189.458 189.897 190.288 190.275 190.262 190.249 189.758 189.446 189.608 190.162 189.492 188.800 188.402 188.063 187.324 186.479 186.246 185.742 184.945 184.196 184.114 183.369 182.032 180.074 177.747 176.114 175.977 175.984 176.338 176.938 176.925 177.617 177.798 178.113 178.785 179.437 179.511 179.502 179.463 179.246 178.590 178.564 179.029 179.269 179.230 179.191 179.152 179.310 179.383 179.357 179.331 179.305 178.834 178.439 178.227 178.133 177.635 177.266 176.825 176.396 176.072 176.046 174.879 173.374 172.294 171.687 170.488 168.875 168.432 168.022 167.324 167.000 167.000 167.228 167.506 167.683 167.594 166.210 164.412 163.315 163.000 163.000 163.000 163.162 163.601 164.229 164.723 164.079 163.877 163.325 162.579 161.891 161.181 159.712 158.103 156.494 155.198 155.116 154.320 154.044 154.391 155.000 155.000 155.000 155.000 155.390 155.738 154.976 154.032 151.968 150.012 148.875 148.956 150.433 151.443 152.374 153.496 154.877 155.670 155.930 156.000 156.000 156.000 156.000 156.000 155.839 155.243 154.244 153.692 153.160 153.350 153.756 154.000 154.000 154.780 155.000 155.216 155.539 155.523 154.704 154.500 154.066 153.475 153.462 153.449 153.799 154.000 153.697 152.732 151.900 151.492 151.186 151.000 151.000 151.000 151.000 150.640 150.192 149.879 149.073 149.000 148.585 148.486 148.880 148.225 148.042 148.000 148.000 148.000 148.000 148.000 148.000 148.000 148.000 148.000 148.000 148.000 148.000 148.000 148.000 148.000 147.981 147.958 147.945 147.932 147.919 147.906 147.454 147.000 147.000 147.000 147.000 147.000 147.000 146.893 146.258 146.057 146.000 146.000 146.000 146.000 146.000 145.826 145.035 144.129 144.659 144.127 144.000 143.843 143.166 141.530 139.570 138.137 136.864 135.749 135.000 135.000 134.001 133.019 132.200 131.381 130.562 130.133 129.712 129.287 129.000 129.000 128.547 128.170 127.560 126.532 125.700 124.868 124.037 123.468 123.226 123.005 123.000 123.000 123.000 123.204 123.992 123.334 121.412 119.460 117.857 116.386 116.156 116.106 116.051 116.242 116.932 116.945 115.597 113.039 110.712 110.003 110.000 110.000 110.516 111.628 113.074 113.929 114.740 115.000 115.000 115.629 118.852 119.000 119.000 119.000 119.000 119.000 119.000 118.534 118.241 118.254 118.277 118.644 119.789 120.828 121.608 122.354 122.606 122.880 123.000 122.725 121.968 121.637 121.578 121.565 121.553 121.650 122.443 122.865 123.265 123.488 123.475 123.462 123.450 123.751 124.000 124.000 124.000 124.000 124.000 124.000 123.870 123.334 123.321 122.502 122.000 122.000 122.000 122.000 122.000 121.548 121.000 121.013 121.167 121.734 122.000 121.956 121.779 121.088 120.295 120.000 120.000 119.887 119.131 119.014 119.000 118.663 117.710 116.085 116.000 116.000 116.000 116.000 116.000 116.000 115.401
 185.439 185.603 185.923 186.716 186.717 186.704 186.691 186.678 186.665 186.652 186.639 187.059 187.613 187.600 187.587 187.574 187.561 187.548 187.535 187.522 187.509 187.496 187.483 187.525 187.951 188.000 188.225 188.418 188.405 188.392 188.379 188.366 188.480 188.574 188.004 187.169 187.485 187.866 187.827 187.788 187.146 186.802 186.671 186.854 187.566 186.721 185.876 185.102 184.547 184.342 183.497 183.321 182.807 182.220 182.136 182.110 181.386 180.050 178.103 175.890 175.068 174.994 175.514 175.951 175.938 175.925 175.912 175.843 175.773 175.747 175.721 176.361 176.503 176.465 176.426 176.385 176.171 176.079 176.131 176.231 176.203 176.392 177.061 177.384 177.358 177.332 177.306 177.280 176.949 176.501 176.163 175.804 175.317 174.899 174.471 174.073 174.047 173.281 172.178 170.952 169.786 168.954 168.206 168.000 167.840 167.482 167.005 167.000 166.618 166.355 166.058 164.943 163.292 162.525 162.290 162.277 162.302 162.893 163.000 163.469 164.058 164.119 163.300 163.174 162.662 161.843 160.929 159.401 157.773 156.136 154.498 153.270 154.006 154.011 154.000 154.007 154.174 154.968 154.979 154.986 155.000 154.988 154.914 152.483 150.669 149.044 147.876 147.897 148.690 150.129 151.728 153.069 153.862 154.655 155.448 155.759 155.747 155.734 155.721 155.708 155.028 153.831 152.669 152.656 152.643 152.830 153.214 153.664 153.983 154.442 154.813 154.832 154.540 154.527 153.721 153.501 153.290 153.000 153.000 153.000 153.274 153.173 152.482 151.379 151.057 151.000 151.000 151.000 150.950 150.400 150.307 150.149 149.785 149.240 149.023 148.457 148.109 148.071 148.176 148.011 147.386 147.165 147.152 147.139 147.126 147.113 147.100 147.087 147.074 147.062 147.815 148.000 148.000 148.000 147.997 147.984 147.349 147.000 147.000 147.000 147.000 147.000 147.000 147.034 147.132 147.145 147.158 147.171 147.127 147.000 147.000 146.271 145.874 145.752 145.739 145.726 145.713 145.305 144.514 143.732 143.994 144.000 143.784 143.072 141.808 140.164 138.056 136.948 136.319 135.765 134.981 134.593 133.523 132.309 131.216 130.435 130.056 130.000 129.512 128.828 128.403 128.390 127.666 127.036 126.266 125.124 123.761 123.394 123.136 123.000 123.000 123.000 122.421 121.355 120.965 121.459 121.590 120.100 118.370 116.998 116.228 116.000 116.000 116.000 116.000 116.247 117.049 117.811 116.628 114.088 111.435 110.000 110.000 110.000 110.483 111.273 112.217 113.768 114.700 115.000 115.000 115.583 118.919 119.037 119.092 119.177 119.190 119.202 119.215 119.362 119.482 119.457 119.259 118.241 118.437 118.989 119.520 120.065 121.388 122.521 123.000 122.741 121.935 121.129 120.715 120.566 120.682 121.051 121.475 122.221 122.757 123.000 123.000 123.000 123.000 123.237 123.424 123.411 123.399 123.386 123.373 123.360 123.284 123.004 123.000 122.400 122.000 122.000 122.000 122.000 122.000 121.564 121.000 121.000 121.000 121.659 122.000 122.000 121.923 121.117 120.311 120.000 119.726 119.069 119.006 119.000 117.992 116.721 116.022 116.000 116.000 116.000 116.000 116.000 116.000 115.760 115.267
 183.322 184.114 184.865 185.439 185.435 185.409 185.383 185.357 185.331 185.305 185.279 185.670 186.227 186.201 186.175 186.422 186.366 186.097 186.071 186.045 186.020 185.994 185.968 185.983 186.325 186.334 186.296 186.257 186.218 186.179 186.140 186.101 186.062 185.876 185.032 184.706 184.774 184.867 184.828 184.789 184.553 184.474 184.448 184.466 184.583 183.738 182.894 182.049 181.439 181.394 181.259 180.632 180.240 179.920 179.205 179.166 178.445 177.113 175.457 174.007 173.999 174.695 174.965 174.952 174.931 174.856 174.826 174.253 173.734 173.622 173.583 173.544 173.505 173.466 173.427 173.388 172.723 172.679 173.169 173.744 173.748 174.314 175.046 175.385 175.359 175.333 175.307 175.281 175.080 174.674 174.121 173.289 173.151 172.625 172.100 172.074 172.048 171.298 170.466 169.299 167.877 167.483 167.446 167.433 167.209 166.745 166.404 166.381 165.780 165.101 164.285 162.651 161.564 161.304 161.591 162.000 162.009 162.212 162.731 163.102 163.009 162.335 161.503 160.789 160.001 159.156 158.217 156.566 154.916 153.728 153.114 153.009 153.054 153.045 153.556 154.000 154.001 154.000 154.000 154.552 154.954 154.758 153.940 151.599 149.741 148.077 146.876 146.884 147.798 149.260 150.795 152.099 153.048 153.853 154.510 154.872 155.000 154.980 154.754 154.507 153.552 152.382 151.669 151.656 151.900 152.331 152.744 153.082 153.557 153.894 154.313 154.194 153.540 153.527 152.737 152.501 152.488 152.475 152.463 152.894 152.655 152.005 151.187 150.398 150.385 150.372 150.359 150.346 150.274 149.455 149.307 149.294 149.202 148.935 148.334 148.073 148.000 148.000 147.906 147.252 147.048 147.000 147.000 147.000 147.000 147.000 147.000 147.339 147.761 147.016 147.039 147.036 147.023 147.010 147.000 147.000 147.000 147.000 147.000 147.003 147.068 147.093 147.106 147.353 148.000 148.000 148.000 147.917 147.576 146.980 146.810 146.065 145.368 145.000 145.000 145.000 145.000 144.836 143.979 142.835 143.628 143.649 143.058 141.856 140.231 138.606 136.982 136.224 135.818 135.327 134.508 133.689 132.870 131.833 130.880 130.503 130.076 129.629 128.688 127.718 127.354 126.849 126.060 125.229 124.596 124.188 123.107 123.000 123.000 123.000 122.897 122.300 120.928 119.780 118.736 117.841 117.790 116.810 115.824 115.255 115.146 115.127 114.404 114.767 115.479 116.443 117.934 117.991 116.082 113.653 111.479 110.000 109.992 109.978 109.982 110.580 112.096 112.902 114.354 114.952 115.000 115.564 119.143 119.216 119.618 120.000 120.000 120.000 120.165 120.670 120.909 120.562 119.744 118.351 118.000 118.000 118.000 118.046 119.909 121.775 122.792 122.850 122.327 121.204 120.339 120.000 120.151 120.541 120.528 121.205 121.998 122.489 122.476 122.463 122.846 123.000 123.000 123.000 123.000 123.000 123.000 123.000 122.891 122.353 122.322 122.128 122.000 122.000 122.000 122.000 122.000 121.580 121.000 121.000 121.000 121.116 121.167 121.155 121.081 120.262 120.038 119.571 119.065 118.917 118.162 117.386 116.550 116.018 116.000 116.000 116.000 115.986 115.975 116.000 116.000 112.955 113.549
 182.199 183.099 183.744 183.731 183.718 183.705 183.692 183.679 183.666 183.653 183.640 183.729 183.842 183.803 183.764 184.084 184.007 183.541 183.145 183.093 183.041 182.989 182.937 182.885 182.833 182.781 182.729 182.506 182.032 181.967 182.343 182.798 183.063 182.980 182.678 182.123 181.907 182.120 182.553 182.527 182.501 182.475 182.152 181.635 181.596 180.756 179.911 179.413 179.107 178.401 178.362 177.687 176.884 176.307 176.156 175.356 175.143 174.604 173.752 173.087 173.881 173.978 173.965 173.937 173.772 173.001 172.850 172.323 171.551 170.874 170.861 170.848 170.835 170.757 170.652 170.792 170.953 171.590 172.300 172.745 172.732 172.719 173.325 173.693 173.606 173.334 173.308 173.282 172.802 172.130 171.766 171.254 170.865 170.206 169.651 169.612 169.573 168.827 167.982 166.982 165.945 165.919 165.893 165.560 164.913 164.223 164.184 164.145 163.534 162.689 161.903 161.337 161.065 161.000 161.119 161.124 160.530 160.504 160.630 160.679 160.397 159.553 158.708 157.863 157.018 156.174 155.318 154.376 153.454 152.601 152.084 152.171 152.919 153.000 153.017 153.344 154.000 153.993 153.995 154.000 154.000 153.833 153.027 151.377 149.150 147.109 145.877 145.868 147.467 149.066 150.245 151.263 152.831 153.624 153.919 154.342 154.747 154.657 153.613 152.745 151.913 151.171 150.700 150.964 151.452 151.819 152.194 152.653 152.970 153.424 153.566 153.210 152.541 152.528 152.123 152.000 152.000 152.000 152.000 152.356 151.841 151.022 150.203 149.398 149.385 149.372 149.360 149.347 149.319 149.048 149.000 149.000 148.808 148.249 148.031 148.000 147.622 147.217 147.184 147.018 147.000 147.000 147.000 147.000 147.000 147.000 147.494 147.619 147.063 147.002 147.000 147.000 147.000 147.000 147.000 147.000 147.000 147.000 147.012 147.091 147.845 148.000 148.000 147.970 147.869 147.856 147.633 147.258 146.898 146.523 145.692 145.014 144.765 144.753 144.740 144.727 144.714 144.328 143.324 142.097 142.629 142.649 142.075 140.888 139.264 137.639 136.340 135.747 135.162 134.343 133.524 132.706 131.887 131.284 131.000 130.941 129.696 128.793 127.518 126.264 125.741 124.909 124.077 123.554 123.353 123.307 123.032 123.000 123.000 122.772 122.057 120.642 118.468 117.165 116.243 115.422 115.396 115.228 115.073 115.000 114.842 114.141 112.622 112.280 113.434 115.512 117.069 117.056 115.145 112.715 110.769 109.950 109.143 109.000 109.468 110.535 112.020 112.813 113.665 114.498 115.034 115.220 115.927 118.884 120.000 120.000 120.000 120.000 120.751 121.000 120.725 120.042 119.033 118.437 118.292 118.185 118.000 118.002 118.532 120.271 121.839 122.705 122.947 121.664 120.505 119.805 119.554 119.570 119.938 120.347 120.983 121.490 121.525 121.945 122.317 122.438 122.425 122.341 121.843 121.773 122.085 122.361 122.296 122.015 122.000 122.000 122.000 122.000 122.000 122.000 122.000 121.596 121.000 121.000 121.000 121.000 121.000 120.798 120.136 120.019 120.000 119.537 119.000 118.857 117.296 116.366 116.020 116.000 116.000 116.000 115.991 115.466 115.315 115.956 115.996 112.962 111.911
 180.810 182.083 182.744 182.731 182.719 182.867 183.000 183.000 183.000 182.732 182.433 181.871 181.229 181.203 181.177 180.893 180.507 180.078 179.610 179.571 179.532 179.493 179.454 179.415 179.376 179.337 179.030 178.562 178.220 178.181 178.408 178.974 179.419 179.367 179.316 179.034 179.280 179.678 179.831 179.792 179.753 179.714 179.592 179.288 178.614 177.773 177.417 176.987 176.412 176.261 175.527 174.704 173.860 173.247 173.205 173.121 173.087 173.047 173.013 173.000 172.999 173.000 172.983 172.662 171.940 171.927 171.205 170.901 170.603 170.000 170.000 169.888 169.836 169.535 169.126 169.766 170.552 171.476 171.908 171.745 171.732 171.495 171.838 172.080 171.826 170.995 170.677 170.566 170.075 169.312 168.788 168.417 167.925 167.223 166.652 166.576 166.153 165.693 164.999 164.310 163.946 163.920 163.894 163.639 162.896 161.816 161.790 161.764 161.533 161.227 161.000 161.000 160.468 160.305 160.014 159.502 159.263 158.648 158.012 157.680 157.415 156.570 155.725 154.880 154.413 154.042 153.210 152.378 152.146 152.051 152.000 152.007 152.052 152.717 153.000 153.006 153.007 153.000 153.719 153.968 153.970 153.849 153.043 150.713 148.295 146.252 144.978 144.866 146.435 148.034 149.300 150.419 152.015 152.821 153.485 153.761 153.688 153.380 151.743 150.762 150.070 149.768 150.050 150.579 150.888 151.311 151.732 152.104 152.910 152.699 152.567 152.373 151.939 151.557 151.515 151.502 151.672 152.000 152.000 151.574 150.857 150.038 149.333 149.001 149.000 149.000 148.734 148.347 148.334 148.321 148.308 148.295 148.212 147.958 147.359 147.244 147.121 147.000 147.000 147.000 147.000 147.000 147.000 147.000 147.000 147.000 147.054 147.059 147.000 147.000 147.000 147.000 147.000 147.000 147.000 147.000 147.016 147.040 147.247 148.000 148.000 148.000 147.955 147.676 146.990 146.757 145.588 145.760 146.205 144.931 144.125 144.000 144.000 144.000 144.000 144.000 144.000 143.846 143.245 142.283 142.022 141.741 141.289 140.165 138.296 136.671 135.816 134.997 134.178 133.360 132.541 131.722 131.201 131.000 130.776 129.906 128.706 127.456 126.232 125.172 124.353 123.534 123.127 122.702 122.353 122.340 122.327 122.790 123.000 122.262 120.250 118.017 116.124 115.349 115.149 114.889 114.242 113.573 113.345 113.319 113.124 112.292 110.679 110.216 111.014 112.645 114.208 114.170 112.871 111.203 109.789 109.005 109.000 109.000 109.437 110.211 111.008 111.860 113.294 114.431 115.287 116.012 116.123 118.759 119.921 120.000 120.000 120.000 120.735 121.000 121.000 120.772 119.592 119.344 119.291 118.928 118.259 118.004 117.728 118.630 119.924 121.148 122.201 121.698 120.322 119.321 119.000 119.025 119.451 119.835 120.233 120.490 120.513 120.874 120.903 120.877 120.851 120.782 120.435 120.387 120.570 120.933 121.436 121.961 122.000 122.000 122.000 122.000 122.000 122.000 122.000 121.612 121.000 121.000 120.351 120.181 120.168 120.121 119.975 119.273 119.117 118.657 117.862 117.094 116.210 116.017 116.000 116.000 116.000 116.000 115.297 115.000 115.000 115.112 115.865 112.278 110.911
 179.663 180.825 181.490 181.464 181.642 182.082 182.386 182.360 182.334 181.551 180.719 180.025 179.548 179.212 179.178 178.560 177.728 177.100 177.074 177.048 176.718 176.494 176.576 176.944 176.918 176.892 176.668 176.420 176.407 176.394 175.960 175.608 175.610 176.027 175.988 176.434 177.123 177.581 177.555 177.529 177.503 177.477 177.451 177.268 176.436 175.604 174.872 174.421 174.295 174.269 173.445 173.152 172.686 172.281 173.000 173.000 172.394 172.031 172.018 172.056 172.842 172.958 172.463 171.631 170.880 170.854 170.136 169.852 169.888 169.875 169.862 169.236 168.914 168.823 168.784 168.606 169.320 170.530 170.912 170.237 170.198 169.378 169.120 168.961 168.588 168.000 167.434 167.284 166.835 166.232 166.185 165.684 165.304 164.873 164.551 164.475 163.656 163.512 163.259 162.853 162.473 162.460 162.447 162.434 161.972 161.000 161.000 161.000 160.660 160.357 160.344 160.331 160.075 160.000 159.625 158.869 158.275 158.052 157.401 156.687 156.169 155.983 155.177 154.372 153.636 152.909 152.090 151.272 151.111 151.098 151.085 151.142 151.889 152.032 152.033 152.313 153.000 152.994 152.995 153.000 153.329 153.865 153.060 150.761 148.343 146.245 144.734 144.026 145.437 147.002 148.669 150.387 151.999 152.805 153.000 152.900 152.469 151.413 149.776 149.151 149.000 149.173 149.690 149.954 150.432 150.807 151.282 152.053 152.530 152.174 151.781 151.554 151.478 151.041 151.000 151.000 151.167 151.477 151.464 150.276 149.629 149.268 149.000 149.000 148.516 148.373 148.216 148.000 148.000 148.000 148.000 147.698 147.283 147.259 147.039 147.000 147.000 147.000 147.000 147.000 147.000 147.000 147.000 147.000 147.000 147.000 147.000 147.000 147.000 147.000 147.000 147.000 147.000 147.000 147.001 147.014 147.588 148.000 148.000 148.000 148.000 148.000 147.588 146.974 146.825 145.316 145.000 144.925 144.863 144.947 144.141 143.853 143.766 143.753 143.741 143.728 143.715 143.351 142.905 142.564 141.745 141.180 140.808 139.744 137.717 136.105 135.247 134.441 133.474 132.376 131.557 131.113 131.000 130.602 129.668 128.463 127.645 126.208 125.007 124.188 123.391 123.062 122.598 121.626 120.707 120.638 120.070 120.622 120.569 119.290 116.958 115.678 114.617 114.237 114.225 114.088 113.269 112.450 112.173 111.868 111.141 110.309 109.385 109.109 109.850 111.281 112.128 110.615 109.549 109.068 109.014 109.000 108.999 109.000 109.000 109.242 110.093 111.646 112.575 113.834 115.221 116.191 116.899 118.276 119.413 120.000 120.000 120.000 120.719 121.000 121.000 121.034 121.250 120.738 120.743 120.551 119.679 118.376 117.565 117.524 117.878 118.554 119.820 120.436 119.612 118.819 118.555 118.542 118.529 119.158 119.726 120.000 119.969 119.536 119.452 119.439 119.426 119.413 119.400 119.387 119.375 119.875 121.041 121.311 121.323 121.310 121.297 121.285 121.272 121.822 122.000 121.628 121.000 121.000 120.210 120.000 120.000 119.825 119.141 119.024 118.448 117.674 116.855 116.075 116.010 115.380 115.040 115.286 115.929 115.123 115.000 115.000 115.000 115.000 115.000 111.702 110.212
 178.370 179.223 179.720 179.490 179.950 180.119 180.179 180.361 180.335 179.824 179.095 178.498 178.134 177.624 177.273 176.821 176.182 175.551 175.538 175.144 174.418 173.997 174.188 174.957 175.367 175.447 175.683 176.000 175.969 175.480 175.128 174.530 174.098 174.343 174.330 175.011 175.456 175.582 175.556 175.530 174.963 174.717 174.678 174.609 174.411 173.621 173.251 173.161 173.148 173.135 172.340 171.585 171.154 171.100 171.146 171.880 171.427 171.031 171.018 171.006 170.985 170.945 170.462 169.660 168.937 168.864 168.210 168.337 168.777 168.751 168.725 168.699 168.245 167.768 167.521 166.854 167.362 167.962 168.013 167.492 167.466 166.675 166.414 166.127 165.681 165.668 165.655 165.642 165.374 165.000 164.993 164.663 164.214 164.000 164.000 163.953 163.147 163.000 163.000 162.868 162.486 162.063 162.000 162.000 161.700 161.000 161.000 160.557 160.176 160.000 160.000 160.000 159.490 159.305 159.187 158.835 158.029 158.000 157.417 156.911 156.632 155.999 155.193 154.388 153.232 151.926 151.107 150.288 150.111 150.502 151.000 151.060 151.865 152.000 152.000 152.006 152.008 152.000 152.701 153.000 153.299 153.824 153.006 150.726 148.296 145.865 143.878 143.865 144.612 146.062 148.050 150.168 151.767 152.577 152.775 152.265 151.084 149.453 148.262 148.443 148.697 148.759 149.028 149.558 149.877 150.460 151.266 151.972 151.643 151.581 151.078 150.555 150.542 150.529 150.516 150.761 150.834 150.477 150.464 149.374 148.692 148.426 148.413 148.400 148.088 148.000 148.000 147.876 147.338 147.322 147.309 147.174 147.000 147.000 147.000 147.000 147.000 147.000 147.000 147.000 147.000 147.000 147.000 147.000 147.000 147.000 147.000 147.000 147.000 147.000 147.000 147.511 147.975 147.988 148.000 148.000 148.000 148.000 148.000 148.000 147.939 147.909 147.500 146.681 145.863 145.160 144.904 144.478 144.189 144.776 144.124 143.351 143.000 143.000 143.000 143.000 143.000 142.856 142.489 141.904 141.098 141.000 140.300 138.986 137.361 135.736 134.849 134.030 133.016 131.845 131.039 131.000 130.719 129.739 128.299 127.480 126.661 125.240 124.023 123.329 123.000 123.000 121.977 120.492 119.040 118.006 117.704 117.386 116.417 115.211 114.531 114.294 114.078 114.000 113.766 113.104 112.285 111.466 110.739 110.268 110.127 110.008 109.251 108.505 108.492 109.180 109.209 108.349 108.063 108.032 108.019 108.008 108.803 108.980 108.981 109.236 110.088 110.849 111.644 112.899 114.766 117.000 117.000 117.673 118.881 119.925 120.187 120.200 120.766 121.115 121.239 121.372 122.191 122.480 122.962 122.959 121.867 119.462 118.320 117.433 117.000 117.111 117.598 118.855 118.815 118.339 118.000 118.000 118.000 118.324 118.936 119.491 119.457 119.070 119.000 119.000 119.000 119.000 119.000 119.000 119.000 119.405 120.416 120.940 121.000 121.000 121.000 121.000 121.000 121.193 121.246 120.878 120.221 120.208 120.044 120.000 119.680 119.126 119.000 118.302 116.972 116.166 116.072 115.975 115.223 115.019 115.000 115.007 115.014 115.000 115.000 115.000 115.000 115.000 115.000 115.000 112.660
 177.835 178.692 178.430 177.814 177.525 177.561 178.095 179.000 179.000 178.750 177.922 176.922 176.232 176.206 175.426 175.154 174.922 174.474 174.086 173.267 172.435 171.998 172.173 172.953 173.733 174.236 174.859 175.555 175.964 175.158 174.600 173.915 173.356 173.343 173.330 173.532 173.609 173.583 173.488 172.869 172.579 172.479 172.453 172.427 172.401 172.237 172.622 172.708 172.149 172.136 171.356 170.538 170.097 170.084 170.071 170.104 170.063 170.032 169.810 169.012 168.993 168.362 167.986 167.954 167.895 167.135 166.944 166.902 166.889 166.876 166.863 166.850 166.837 166.576 166.000 166.000 166.000 166.000 166.000 166.000 166.000 165.251 165.000 165.000 165.000 165.000 165.000 165.000 165.000 165.000 164.999 164.523 164.422 164.253 164.000 163.969 163.163 163.000 163.000 163.000 162.939 162.133 162.000 161.730 161.302 160.947 160.459 159.682 159.371 159.358 159.345 159.332 159.086 159.000 158.757 158.238 158.012 158.000 157.863 157.484 156.821 156.015 155.210 153.912 152.695 151.615 150.136 150.022 150.000 150.043 150.303 151.044 151.849 152.000 152.000 152.000 152.000 151.999 152.685 153.000 153.000 152.898 152.092 149.857 147.390 144.949 142.984 142.874 143.596 145.489 147.599 149.323 150.935 151.773 151.740 150.754 149.165 147.742 147.723 147.710 147.823 148.151 148.680 148.943 149.638 150.444 151.155 151.573 151.082 150.720 150.299 149.876 149.581 149.949 150.000 150.253 150.182 149.478 149.465 148.725 148.205 148.000 148.000 148.000 148.000 148.000 147.765 147.288 147.007 147.000 147.000 147.000 147.000 147.000 147.000 147.000 147.000 147.000 147.000 147.000 147.000 147.000 147.000 147.000 147.000 147.000 147.000 147.000 147.000 147.000 147.000 147.515 148.000 148.000 148.000 147.990 147.974 147.975 148.000 148.000 147.172 146.857 146.452 145.698 144.879 144.858 144.241 143.832 143.819 143.806 143.793 143.147 142.767 142.754 142.741 142.729 142.716 142.374 142.000 141.920 141.114 140.759 139.643 138.018 136.436 135.135 133.981 133.047 132.228 131.472 131.030 131.000 130.170 128.771 127.315 126.496 125.677 124.273 123.263 123.000 122.996 122.017 120.529 118.892 117.254 115.661 115.094 114.744 114.018 113.472 113.955 113.361 113.251 113.238 112.939 112.120 111.302 110.483 110.085 110.000 109.896 109.198 108.389 107.570 107.130 107.167 107.142 107.072 107.588 108.000 108.000 108.000 107.999 108.000 108.404 109.420 111.001 111.058 111.659 112.867 114.692 116.883 116.980 117.560 118.377 119.491 120.827 120.976 121.000 121.493 122.142 122.581 123.198 123.795 123.849 123.369 122.368 120.470 118.596 117.449 117.000 117.000 117.000 117.461 117.581 117.569 117.556 117.543 117.530 117.517 117.920 118.491 118.493 118.911 119.000 119.000 119.000 119.000 119.000 119.000 119.000 119.281 120.030 120.301 120.324 120.311 120.298 120.285 120.273 120.260 120.247 120.154 119.886 119.246 119.195 119.183 118.800 118.009 117.304 116.475 116.096 115.643 115.093 115.079 115.012 115.000 115.000 115.000 115.000 115.000 115.000 115.000 115.000 115.000 115.000 114.949 114.383
 176.772 177.142 176.746 176.733 176.231 176.343 177.187 178.393 178.636 177.703 176.256 175.057 174.568 174.234 173.745 173.348 172.977 172.569 172.098 171.648 170.939 170.499 170.576 170.943 171.718 172.165 172.943 173.934 174.205 173.361 172.516 171.947 171.713 171.687 171.661 171.635 171.609 171.390 170.814 170.562 170.506 170.480 170.454 170.428 170.402 170.376 170.876 170.992 170.298 170.272 170.154 169.554 169.097 169.238 169.975 170.000 169.441 169.032 168.822 168.006 168.000 168.000 167.579 167.000 167.000 167.000 166.356 166.000 166.000 166.000 166.000 166.000 166.000 166.000 165.983 165.819 165.786 165.773 165.760 165.747 165.734 165.193 165.000 165.000 165.000 165.000 165.000 165.000 164.862 164.617 164.604 164.591 164.578 164.162 163.459 163.071 162.621 162.819 162.784 162.365 161.928 161.531 161.087 160.670 160.268 159.746 158.914 158.505 158.371 158.549 159.000 159.000 158.513 158.306 158.197 158.000 158.000 158.000 157.582 156.872 156.053 155.234 154.415 153.016 151.455 150.081 149.140 149.125 149.654 150.374 150.933 151.002 151.050 151.047 151.034 151.021 151.065 151.863 152.669 153.000 153.000 152.914 152.108 149.905 147.032 144.455 142.870 141.955 142.688 144.515 146.846 149.105 150.704 151.386 150.425 148.787 147.368 146.751 146.724 146.882 147.278 147.749 148.014 149.094 149.976 150.638 151.000 150.984 150.657 149.930 149.569 149.409 149.038 149.464 149.517 149.504 149.198 148.478 148.465 148.131 148.000 148.000 148.000 148.000 147.547 147.375 147.235 147.000 147.000 147.000 147.000 147.000 147.000 147.000 147.000 147.000 147.000 147.000 147.000 147.000 147.000 147.000 147.000 147.044 147.747 147.884 147.897 147.910 147.922 147.935 147.948 147.981 148.000 148.000 148.000 147.265 146.974 147.283 147.897 147.871 146.399 145.352 144.897 144.714 143.895 143.858 143.258 142.832 142.819 142.806 142.794 142.299 142.000 142.000 142.000 142.000 142.000 142.000 142.000 141.936 141.130 140.089 138.675 137.051 135.519 134.701 133.468 132.489 131.683 131.000 131.000 130.649 129.428 127.804 126.331 125.513 124.694 123.621 123.000 122.789 121.827 120.681 119.182 117.557 115.932 114.336 114.058 113.570 113.171 113.070 113.231 112.412 111.759 111.478 111.182 110.410 110.224 110.058 110.408 110.587 109.804 108.301 107.405 107.052 107.000 107.000 107.000 107.000 107.025 107.033 107.020 107.007 107.772 107.981 108.369 109.397 111.057 111.933 112.116 112.851 114.338 115.907 116.700 116.947 117.894 119.253 120.048 120.692 120.930 121.369 122.327 123.749 123.736 123.724 123.205 122.386 121.567 120.748 118.719 117.465 117.000 117.000 117.000 117.000 117.000 117.000 117.000 117.000 117.000 117.000 117.202 117.597 118.012 118.818 119.000 119.000 119.000 119.000 119.000 119.000 119.000 119.265 120.000 120.000 120.000 120.000 120.000 120.000 120.000 120.000 119.610 119.234 119.193 119.013 119.000 118.553 117.817 116.998 116.179 116.030 115.491 115.065 115.000 115.000 115.000 115.000 115.000 115.000 115.000 115.000 115.000 115.000 115.000 115.000 115.000 114.334 113.057
 173.857 174.823 175.747 175.734 175.721 175.571 175.580 176.100 176.599 175.477 173.932 172.889 172.783 172.259 171.886 171.429 170.796 170.166 170.514 170.170 169.740 169.500 169.487 169.474 169.821 169.896 170.433 171.266 171.223 170.378 169.913 170.006 170.211 169.688 169.662 169.636 169.610 169.509 169.279 169.266 169.253 169.240 169.227 169.214 169.201 169.188 169.265 169.273 169.149 169.136 169.123 169.051 169.000 169.013 169.069 169.059 169.020 169.000 168.819 168.013 168.000 168.000 167.608 167.036 167.000 167.000 166.372 166.000 165.974 165.877 165.864 165.851 165.838 165.825 165.751 165.095 165.000 165.000 165.000 164.973 164.758 164.721 164.708 164.695 164.683 164.670 164.657 164.447 164.036 163.618 163.605 163.592 163.579 163.178 162.360 161.541 161.527 161.828 161.793 161.265 160.460 160.013 159.611 159.185 158.594 157.797 157.451 157.797 158.000 158.101 158.346 158.333 158.096 158.000 157.780 157.281 157.268 156.169 156.002 155.626 154.286 153.454 152.622 151.226 149.898 149.125 149.003 149.000 149.594 150.400 151.000 151.000 151.000 151.000 151.000 151.000 151.041 151.850 152.659 153.000 153.000 152.930 152.124 150.009 147.584 145.087 142.692 141.176 142.319 143.876 145.798 148.050 149.487 149.578 148.336 146.751 145.790 145.991 146.000 146.410 146.814 147.247 148.320 149.668 150.606 151.151 151.297 150.976 150.170 149.099 148.569 148.666 149.000 149.000 149.000 148.767 148.356 148.000 148.000 148.000 148.000 147.825 147.414 147.401 147.107 147.000 147.000 147.000 147.000 147.000 147.000 147.000 147.000 147.000 147.000 147.000 147.000 147.000 147.000 147.000 147.000 147.000 147.000 147.036 147.842 148.000 148.000 148.236 148.862 148.120 148.000 148.000 148.000 147.907 147.100 146.281 145.962 145.924 145.891 145.812 145.090 144.327 143.897 143.748 143.035 142.892 142.362 142.000 142.000 142.000 141.836 141.781 141.768 141.807 142.000 142.000 142.000 142.000 141.925 141.630 140.811 139.332 137.708 136.185 134.893 133.764 132.898 132.079 131.393 131.000 131.000 130.281 128.694 127.002 125.793 124.560 123.710 123.199 122.796 122.088 120.463 119.145 117.595 116.204 115.091 114.000 114.000 113.387 112.708 112.131 111.547 111.308 110.610 109.898 109.199 108.427 108.401 108.921 109.258 109.040 108.195 107.255 107.037 107.000 107.000 107.000 107.000 106.312 106.046 106.033 106.166 106.955 106.999 107.000 107.733 109.490 111.895 113.620 113.487 113.057 113.393 114.894 115.795 116.625 117.862 119.237 120.000 120.000 120.516 120.879 121.406 122.499 122.474 122.448 121.791 120.799 119.986 119.407 118.135 117.311 117.000 117.000 117.000 116.699 116.582 116.569 116.557 116.544 116.893 117.000 117.000 117.190 117.996 118.374 118.786 119.000 119.000 119.000 119.000 119.000 119.000 119.249 120.000 120.000 120.000 120.000 120.000 119.940 119.353 119.261 119.123 119.000 118.911 118.273 118.196 117.652 117.113 116.857 116.051 115.344 115.052 115.000 115.000 115.000 115.000 115.000 115.000 115.000 115.000 115.000 115.000 115.000 115.000 115.000 115.000 114.350 113.050
 171.392 172.923 174.250 174.426 174.262 173.672 173.086 173.047 173.008 172.293 171.138 170.261 170.235 170.209 169.765 169.578 169.386 169.068 169.501 169.139 168.737 168.500 168.566 168.978 169.000 169.000 169.164 169.422 169.409 169.082 169.000 169.150 169.282 169.000 169.000 169.000 169.000 169.000 169.000 169.000 169.000 169.000 169.000 169.000 169.000 169.000 169.000 169.000 169.000 169.000 169.000 169.000 169.000 169.000 169.000 169.000 168.472 168.033 168.017 168.000 167.994 167.981 167.968 167.770 167.000 167.000 166.388 165.960 165.691 164.996 164.887 164.852 164.839 164.826 164.813 164.800 164.787 164.774 164.761 164.659 163.840 163.722 163.856 163.905 163.683 163.670 163.407 162.943 162.631 162.618 162.605 162.592 162.579 162.195 161.455 161.009 160.627 160.226 160.003 159.876 159.463 158.644 158.106 157.443 156.747 156.436 156.908 157.252 157.372 157.359 157.346 157.333 157.320 157.307 157.207 156.855 155.673 154.616 153.975 153.289 152.200 150.725 149.830 148.888 148.271 148.152 148.139 148.801 149.578 150.384 151.000 151.000 150.248 150.048 150.035 150.236 151.049 152.662 153.000 153.000 153.000 152.946 152.140 150.668 148.112 144.888 141.916 141.110 141.696 143.003 144.869 146.929 147.722 147.637 146.079 144.843 145.107 145.700 145.725 145.873 146.366 147.344 148.956 149.784 150.590 151.396 151.798 150.989 149.857 148.602 148.000 148.129 148.544 148.531 148.518 148.275 148.000 147.965 147.534 147.453 147.440 147.303 147.000 147.000 147.000 147.000 147.000 147.000 147.000 147.000 147.000 147.000 147.000 147.000 147.000 147.000 147.000 147.000 147.000 147.000 147.000 147.000 147.181 147.860 147.977 147.442 147.496 148.022 148.075 148.009 148.000 148.000 148.000 147.844 146.232 145.286 144.466 143.951 143.796 143.017 142.868 142.868 142.898 142.869 142.751 142.180 142.000 141.940 141.820 141.807 141.176 141.000 141.000 141.149 141.743 141.730 141.717 141.704 141.465 140.646 139.827 138.365 136.740 135.371 134.515 133.212 132.327 131.521 130.875 130.549 130.536 129.486 127.744 126.183 125.306 124.108 123.268 123.000 122.461 121.120 119.496 117.871 116.246 114.995 114.292 114.005 113.470 112.720 111.901 111.082 110.268 109.663 108.879 108.047 107.215 106.428 106.402 106.500 106.526 106.444 106.288 106.153 106.124 106.111 106.098 106.085 106.072 106.017 106.000 106.000 106.003 106.007 106.744 107.000 107.345 108.443 110.847 113.972 114.351 113.614 113.192 113.997 115.607 116.699 117.924 119.221 120.000 120.000 120.000 120.345 120.763 120.750 120.737 120.540 119.612 118.419 117.686 117.673 117.200 117.000 117.000 117.000 117.000 116.273 116.000 116.000 116.000 116.000 116.402 116.518 116.506 116.667 117.460 117.886 118.269 118.664 119.000 119.000 119.000 119.000 119.000 119.085 119.377 119.897 120.000 119.686 119.300 119.267 119.034 119.000 119.000 118.777 118.201 118.020 117.430 117.089 117.000 116.872 116.067 115.261 115.000 115.000 115.000 115.000 115.000 115.000 115.000 115.000 115.000 115.000 115.000 115.000 115.000 114.998 114.900 114.220 112.547
 169.403 170.495 171.262 172.029 171.534 170.817 170.391 170.365 170.339 169.880 169.344 169.000 169.000 169.000 169.000 169.000 168.869 168.553 168.540 168.527 168.244 168.000 168.137 168.943 169.000 169.000 169.000 169.000 169.000 169.000 169.000 169.000 169.000 169.000 169.000 169.000 169.000 169.000 169.000 169.000 169.000 169.000 169.000 168.953 168.309 168.734 168.606 167.926 167.377 168.048 168.124 168.111 168.098 168.085 168.072 168.060 168.022 168.000 167.854 167.052 166.991 166.963 166.961 167.000 167.000 166.945 166.370 165.598 164.977 164.864 164.045 163.852 163.839 163.826 163.813 163.800 163.787 163.774 163.697 163.442 162.825 162.722 163.200 163.400 162.683 162.670 161.944 161.645 161.632 161.669 161.975 162.000 161.769 161.212 160.482 160.097 159.283 158.732 158.502 158.392 157.954 157.124 156.292 155.693 155.551 156.011 156.331 156.777 157.000 157.000 157.000 157.000 157.000 156.672 156.295 156.173 155.138 154.303 153.497 152.454 150.898 148.631 147.656 147.262 147.447 148.000 148.000 148.756 150.060 150.606 150.088 150.075 150.013 150.000 150.383 151.180 151.999 152.812 152.994 153.000 153.000 152.962 152.156 150.647 148.125 144.981 142.044 141.143 141.581 142.812 144.411 145.895 146.528 145.871 144.754 144.245 144.751 144.738 144.928 145.544 146.456 147.577 148.937 149.507 150.221 150.876 151.128 150.614 149.323 148.397 148.000 148.000 148.000 148.000 148.000 148.000 147.876 147.455 147.067 147.000 147.000 147.000 147.000 147.000 147.000 147.000 147.000 147.000 147.000 147.000 147.000 147.000 147.000 147.000 147.000 147.000 147.278 147.779 147.792 147.805 147.818 147.831 147.875 147.997 147.296 147.045 146.667 146.184 146.189 146.916 147.053 146.607 145.805 144.979 144.134 143.310 142.964 142.650 141.950 141.937 141.274 141.465 141.898 141.778 141.063 141.630 141.929 141.655 141.000 141.000 141.000 141.000 141.000 141.000 141.000 141.000 140.831 140.705 140.482 139.663 138.844 137.397 135.929 134.760 133.955 133.149 132.072 131.112 130.411 129.933 129.184 128.001 126.767 125.701 124.842 123.609 123.130 122.711 121.778 120.153 118.528 116.452 115.002 114.237 113.895 113.364 112.555 111.737 110.918 110.099 109.280 108.461 107.643 106.507 105.404 105.214 105.202 105.189 105.176 105.163 105.150 105.137 105.711 105.578 105.098 105.165 105.901 106.000 105.519 105.334 106.000 106.000 106.724 106.982 106.980 107.426 109.749 112.136 113.446 113.571 113.157 113.863 115.546 117.273 118.495 119.170 119.817 119.964 120.000 119.904 119.763 119.741 119.516 118.977 118.254 117.515 117.000 117.000 117.000 117.000 117.000 117.000 117.000 116.289 116.000 116.000 116.000 116.000 116.000 116.000 116.000 116.078 116.463 117.238 117.769 118.382 119.000 119.000 119.000 119.000 119.000 119.000 119.023 119.829 119.572 119.175 119.000 119.000 119.000 119.000 118.647 118.171 117.936 117.299 117.060 117.000 116.747 116.141 116.012 115.277 115.000 115.000 115.000 115.000 115.000 115.000 115.000 115.000 115.000 115.000 115.000 115.000 114.986 114.894 113.257 112.237 111.018
 168.000 168.150 168.751 169.544 169.278 169.000 169.000 169.000 169.000 169.000 169.000 169.000 169.000 169.000 169.000 169.000 168.715 168.000 168.000 168.000 168.000 168.157 168.571 168.965 169.000 168.704 168.436 168.423 168.410 168.397 168.384 168.371 168.358 168.345 168.332 168.320 168.307 168.441 169.000 169.000 169.000 169.000 168.816 168.171 167.352 167.314 167.272 166.896 166.225 167.018 167.125 167.112 167.099 167.086 167.073 167.060 167.047 166.718 166.039 166.009 165.254 164.990 165.671 166.912 166.886 166.140 165.917 165.518 164.700 163.881 163.170 162.910 162.839 162.826 162.814 162.801 162.788 162.775 162.571 161.986 161.772 161.908 162.337 162.502 161.973 161.706 160.960 160.645 160.632 160.647 160.802 160.779 160.431 159.795 158.963 158.132 157.657 157.788 157.817 157.315 156.496 155.677 155.184 155.000 155.087 155.418 155.889 156.240 156.373 156.509 157.000 157.000 156.558 156.167 155.815 155.263 155.034 153.813 152.389 150.651 148.511 147.339 147.056 147.000 147.053 147.261 147.943 148.740 149.124 149.166 149.088 149.075 149.062 149.596 150.381 151.187 151.993 152.000 152.595 152.983 152.991 152.923 152.105 150.018 147.587 145.156 142.778 141.153 140.855 141.781 143.380 144.816 144.803 144.097 143.777 143.764 143.779 143.978 144.722 145.528 146.568 147.827 148.620 148.916 149.361 149.635 149.622 149.609 148.815 148.241 147.831 147.558 147.545 147.532 147.519 147.506 147.380 147.000 147.000 147.000 147.000 147.000 147.000 147.000 147.000 147.000 147.000 147.000 147.000 147.000 147.000 147.000 147.088 147.675 147.196 147.407 147.582 147.340 147.967 148.000 148.000 148.000 148.000 148.000 147.206 146.471 145.337 144.185 144.160 144.188 144.161 143.687 142.842 142.044 142.004 141.989 141.523 141.000 141.000 141.000 140.948 140.912 140.929 141.000 141.000 141.000 141.443 141.559 140.976 140.820 140.795 140.782 140.770 140.757 140.744 140.731 140.300 139.885 139.558 139.000 137.925 136.642 135.582 134.776 133.959 132.832 131.570 130.553 129.889 129.459 128.208 127.010 126.268 125.717 124.823 123.211 122.622 121.661 120.244 118.607 116.969 115.484 114.464 113.785 113.209 112.391 111.572 111.138 110.887 110.406 109.030 107.633 106.659 105.744 104.841 104.215 104.202 104.189 104.530 105.000 105.000 105.000 105.081 105.060 105.000 105.006 105.064 105.060 105.024 105.010 105.022 105.009 105.709 105.992 106.315 107.087 107.880 110.106 111.977 112.906 112.910 112.996 115.109 117.440 118.682 118.689 118.815 119.603 119.790 119.456 118.948 118.727 117.908 117.725 117.397 117.000 117.000 117.000 117.000 117.000 117.000 117.000 117.000 116.305 116.000 116.000 116.000 116.000 116.000 116.000 116.000 116.000 116.000 116.353 117.015 118.012 119.000 119.000 119.000 119.000 119.000 119.000 119.007 119.813 119.381 119.000 119.000 119.000 119.000 118.521 118.136 117.801 117.209 117.027 117.000 116.606 116.122 116.000 116.000 115.906 115.428 115.000 115.000 115.000 115.000 115.000 115.000 115.000 115.000 115.000 114.995 114.971 114.564 112.927 111.337 110.326 109.542
 168.000 168.043 168.248 168.847 169.000 169.000 169.000 169.000 169.000 169.000 169.000 169.000 169.000 169.000 169.000 169.000 168.731 168.000 168.000 168.000 168.000 168.150 168.489 168.476 168.463 167.928 167.437 167.424 167.411 167.398 167.046 166.968 167.359 167.346 167.333 167.320 167.575 168.193 168.999 169.000 169.000 168.684 168.007 167.188 166.369 165.672 165.721 166.123 166.009 166.119 166.125 166.112 166.099 166.086 166.073 166.060 165.566 165.058 165.021 165.009 164.997 164.457 164.330 164.957 164.944 164.878 164.835 164.440 163.627 162.895 162.866 162.347 162.000 161.964 161.814 161.801 161.788 161.775 161.762 161.719 161.113 161.472 161.710 161.697 161.614 160.795 159.977 159.645 159.525 159.140 158.308 157.898 157.742 157.659 157.483 157.035 157.000 157.017 156.653 155.821 154.990 154.571 154.451 154.653 155.000 155.000 155.800 156.000 156.000 156.078 156.347 156.334 155.686 155.309 155.049 154.245 153.643 152.184 150.191 148.076 146.418 146.228 146.192 146.590 147.000 147.112 147.918 148.092 148.114 148.101 148.217 148.951 149.000 149.559 150.716 151.980 152.000 152.000 152.000 152.383 152.767 151.994 151.134 149.066 146.636 144.229 141.929 140.317 140.000 140.835 142.304 143.633 143.607 143.046 142.885 143.000 143.071 143.666 144.626 145.512 146.318 147.085 147.627 148.397 148.649 148.636 148.623 148.610 147.831 147.584 147.356 147.000 147.000 147.000 147.000 147.000 147.000 147.000 147.000 147.000 147.000 147.000 147.000 147.000 147.000 147.000 147.000 147.000 147.000 147.000 147.340 147.701 147.744 147.976 147.813 147.488 147.157 147.030 147.197 147.798 148.000 148.000 147.860 147.169 146.354 145.535 144.327 142.916 142.160 142.134 142.108 141.663 141.050 141.015 141.002 141.000 141.000 141.000 140.997 140.946 140.303 140.000 140.255 140.886 140.873 140.860 140.847 140.835 140.724 140.061 140.000 140.000 140.000 140.000 140.000 140.000 140.000 139.628 138.945 138.685 137.087 136.058 135.383 134.792 133.973 132.361 131.118 130.145 129.430 128.938 127.759 126.526 126.000 125.600 124.378 123.179 122.316 121.020 119.408 117.796 116.184 114.855 114.184 113.675 112.869 112.063 111.257 111.000 110.754 109.971 108.346 106.722 105.675 104.857 104.185 104.001 104.000 104.000 104.073 104.164 104.151 104.138 104.125 104.112 104.099 104.137 104.871 105.000 105.000 105.000 105.000 105.000 104.999 105.494 105.980 106.109 106.869 108.384 110.428 111.750 111.930 112.710 113.490 115.393 116.741 117.002 117.795 118.588 118.790 118.777 118.562 117.745 117.137 117.000 117.000 117.000 117.000 117.000 117.000 117.000 117.000 116.975 116.659 116.192 116.000 116.000 116.000 116.000 115.669 115.520 115.507 115.558 115.965 116.000 116.544 117.310 117.859 117.834 118.723 119.000 119.000 119.000 119.000 119.271 119.130 119.000 119.000 118.985 118.401 118.096 118.000 117.756 117.000 117.000 117.000 116.532 116.000 116.000 116.000 116.000 115.940 115.621 115.000 115.000 115.000 115.000 115.000 115.000 115.000 115.000 114.432 113.590 112.570 110.959 110.148 109.384 109.000
 168.000 168.164 168.970 169.000 168.839 168.823 169.000 169.000 169.000 169.000 169.000 169.000 169.000 169.000 168.739 168.580 168.314 167.554 167.541 167.528 167.515 167.502 167.444 167.008 166.926 166.673 166.437 166.424 166.411 165.959 165.564 165.499 165.813 166.316 166.333 166.320 166.678 167.347 167.558 168.114 167.813 167.085 166.412 166.204 165.386 164.567 164.254 164.526 165.152 165.139 165.697 166.000 165.761 165.087 165.074 165.061 165.024 165.000 165.000 165.000 164.282 163.983 163.970 163.952 163.892 163.120 162.836 162.457 161.784 161.759 161.836 161.853 161.840 161.638 160.819 160.801 160.788 160.776 160.763 160.750 160.737 160.548 160.166 159.716 159.404 159.064 158.765 158.479 158.090 157.537 156.718 156.181 155.790 155.743 156.161 156.505 156.188 155.502 154.670 153.911 153.502 153.868 154.000 154.161 154.524 154.987 155.313 155.748 155.752 155.361 155.348 155.335 154.703 154.015 153.361 152.503 151.083 148.993 146.957 145.574 145.218 145.205 145.740 146.087 146.408 147.096 147.902 148.000 148.000 148.000 148.125 148.931 149.691 150.493 151.325 152.000 152.000 151.998 151.985 151.972 151.959 151.947 150.342 148.163 145.777 143.573 141.963 140.457 140.144 140.526 141.243 142.000 142.000 142.000 142.363 142.765 142.772 142.970 144.381 145.496 146.212 146.688 146.675 147.382 147.649 147.636 147.623 147.610 147.150 147.000 147.000 147.000 147.000 146.636 146.520 146.507 146.494 146.482 146.898 147.000 147.000 147.000 147.000 147.000 147.000 147.000 147.000 147.000 147.000 147.000 147.479 148.000 148.000 148.000 148.000 147.491 146.760 146.222 146.209 146.340 146.367 146.056 145.324 144.479 143.634 142.790 142.239 142.077 142.001 142.000 142.000 141.597 141.000 141.000 141.000 141.000 141.000 141.000 140.956 140.150 140.000 140.000 140.000 140.000 140.000 140.000 140.000 139.951 139.822 139.809 139.796 139.783 139.770 139.790 139.984 140.000 139.845 139.454 138.788 137.722 136.377 135.420 134.862 134.437 133.618 132.315 130.781 129.585 129.000 128.946 127.334 126.361 125.783 125.124 123.944 123.138 122.332 121.052 119.440 117.779 115.689 114.422 114.000 113.691 112.810 111.475 110.605 110.319 109.967 109.003 107.379 105.754 104.692 104.153 104.000 104.000 104.000 103.520 103.177 103.164 103.160 103.841 104.000 104.000 104.000 104.003 104.063 104.672 104.565 104.035 104.022 104.010 104.680 105.008 105.313 106.000 106.000 107.372 108.435 109.228 110.035 110.926 111.739 113.557 115.193 115.986 116.779 117.572 117.911 118.000 117.813 117.007 117.000 117.000 117.000 117.000 117.000 117.000 117.000 117.000 117.000 116.949 116.143 116.000 116.000 115.882 115.559 115.546 115.164 115.000 115.000 115.110 115.916 115.616 116.271 117.000 117.080 117.551 118.651 119.000 119.000 119.000 119.000 119.000 119.000 119.000 118.861 118.287 118.052 118.000 118.000 117.772 117.000 117.000 116.482 116.102 116.000 116.000 116.000 115.415 115.121 115.077 115.000 115.000 115.000 115.000 115.000 115.000 115.000 114.270 112.905 111.274 109.820 109.040 109.000 109.000 109.000
 167.775 167.876 168.465 168.473 168.037 167.975 168.395 168.369 168.343 168.317 168.291 168.265 168.244 168.535 167.969 167.400 167.001 166.574 166.931 166.691 166.293 166.005 165.944 165.535 165.464 165.451 165.438 165.425 165.412 164.685 164.386 164.373 164.491 165.284 165.334 165.321 165.417 165.590 165.564 166.310 165.934 165.393 165.230 165.217 164.402 163.583 163.178 163.385 164.174 164.855 165.080 165.113 165.075 164.950 164.203 164.061 164.048 164.035 163.940 163.127 162.996 162.975 162.941 162.801 161.969 161.137 160.837 160.506 159.908 159.994 160.655 160.854 160.841 160.685 160.017 159.845 159.789 159.776 159.763 159.750 159.737 158.762 157.281 155.863 155.117 156.414 157.530 157.544 156.904 156.553 155.734 155.595 155.096 154.443 154.208 154.988 154.351 153.768 153.342 153.000 153.000 153.738 154.000 154.000 154.066 154.397 154.400 154.609 154.606 154.361 154.348 153.806 153.450 152.901 151.779 149.794 147.556 146.072 144.944 144.419 145.000 145.000 145.662 146.000 146.274 147.012 147.125 147.128 147.115 147.375 148.109 148.915 149.721 150.527 151.012 151.025 151.012 150.999 150.986 150.973 150.960 150.947 149.426 147.828 145.825 143.605 141.996 141.191 141.000 141.000 141.189 141.818 141.805 141.792 141.779 141.826 142.047 142.643 144.076 145.194 145.701 145.688 145.675 146.366 146.649 146.522 146.293 146.582 146.893 147.000 147.000 146.933 146.566 146.126 146.000 146.000 146.000 146.000 146.792 147.000 147.000 147.000 147.000 147.000 147.000 147.000 146.848 146.352 146.339 146.769 147.145 147.300 147.287 147.275 147.262 146.756 145.709 144.365 143.701 143.591 143.552 143.186 142.454 142.299 141.519 141.659 142.000 142.000 142.000 142.000 141.451 141.026 141.000 141.000 141.000 141.000 140.991 140.965 140.925 140.156 140.000 140.000 140.000 140.000 140.000 140.000 140.000 139.719 139.000 139.000 139.000 139.000 139.000 139.088 139.687 139.732 139.335 138.900 138.446 137.081 136.242 135.436 134.630 133.824 133.019 131.900 130.647 129.601 128.911 128.535 127.282 126.377 125.571 124.765 123.960 123.154 122.348 121.084 119.323 117.253 115.299 114.318 114.000 113.522 112.159 110.535 109.621 108.967 108.066 106.714 105.645 104.597 103.708 103.242 103.229 103.216 103.203 103.081 103.000 103.000 103.000 103.111 103.126 103.113 103.296 104.000 104.000 104.039 104.027 104.000 104.000 104.000 104.665 105.470 106.000 106.000 106.000 106.647 107.420 108.213 109.117 110.716 111.687 112.982 114.125 114.825 115.754 116.705 117.559 118.000 117.829 117.023 117.000 117.000 117.000 117.000 117.000 117.000 116.791 116.649 116.637 116.602 116.097 115.740 115.585 115.424 115.000 115.000 115.000 115.000 115.000 115.047 115.434 115.138 115.746 116.443 116.555 117.348 118.141 118.721 119.000 119.000 119.000 118.495 118.328 118.315 118.247 118.003 118.000 118.000 117.695 117.187 116.986 116.350 116.074 116.000 116.000 115.960 115.272 115.046 115.000 115.000 115.000 115.000 115.000 115.000 115.000 114.793 113.210 112.294 110.941 109.657 109.000 109.000 109.000 109.000 109.000
 166.776 166.763 166.750 166.737 166.724 166.711 166.698 166.685 166.672 166.659 166.646 166.633 166.620 167.094 166.579 165.921 165.568 165.570 165.993 165.720 165.072 164.503 164.519 164.928 165.000 165.000 164.843 164.425 164.412 163.702 163.386 163.373 163.475 164.268 164.818 165.000 165.000 164.898 164.318 164.473 164.787 165.000 165.000 165.000 164.214 163.408 163.000 163.034 163.154 163.253 163.796 164.114 163.891 163.136 162.305 161.513 161.146 161.361 162.044 162.011 161.994 161.482 160.933 160.780 159.981 159.154 158.838 158.812 158.914 159.694 159.734 159.708 159.683 159.657 159.631 158.988 158.789 158.776 158.763 158.751 158.528 156.803 154.892 153.548 153.059 155.212 156.927 157.207 156.478 155.949 155.143 154.731 154.113 153.294 152.601 153.025 152.693 152.758 153.000 153.000 153.000 153.336 153.452 153.439 153.427 153.414 153.401 153.388 153.375 153.362 153.349 152.555 151.528 149.995 148.028 146.129 144.834 144.357 144.142 144.228 145.000 145.000 145.125 145.551 146.043 146.155 146.142 146.129 146.541 147.030 147.268 148.806 149.705 150.026 150.038 150.025 150.012 149.999 149.986 149.973 149.960 149.947 149.171 147.782 145.816 143.637 142.025 141.207 141.000 141.000 141.000 141.000 141.000 141.000 141.000 141.184 141.753 141.740 143.044 144.046 144.484 144.689 144.676 145.119 145.300 144.974 144.393 145.488 146.315 146.585 146.572 146.484 146.032 146.000 146.000 146.000 146.000 146.000 146.776 147.000 146.784 146.430 146.417 146.884 147.000 146.740 146.284 146.000 146.000 146.209 146.314 146.124 145.576 145.550 145.524 145.022 143.908 142.358 141.527 141.395 141.369 141.290 141.159 141.146 141.036 141.064 141.107 141.094 141.081 141.068 141.024 141.000 141.000 141.000 141.000 140.991 140.586 140.000 140.000 140.000 140.000 140.000 140.000 140.000 140.000 140.000 139.931 139.614 138.987 138.833 138.797 138.784 138.839 139.000 139.000 139.000 138.855 138.478 137.870 137.064 136.258 135.263 134.289 133.470 132.651 131.367 130.186 129.195 128.458 128.003 127.199 126.393 125.587 124.672 123.476 123.081 122.364 121.116 119.256 116.892 115.280 114.334 114.000 113.445 111.780 109.639 108.638 107.819 106.906 105.887 105.081 104.275 103.469 103.000 103.000 103.000 102.400 102.191 102.178 102.165 102.152 102.139 102.641 103.000 103.020 103.088 103.075 103.062 103.453 103.778 103.059 103.844 104.646 105.439 105.972 105.962 105.993 106.000 106.484 107.263 108.076 109.578 111.060 112.081 112.479 112.592 114.301 116.175 117.334 117.779 117.647 117.030 117.000 117.000 117.000 116.945 116.692 116.676 116.264 115.857 115.637 115.624 115.611 115.221 114.819 114.573 114.581 114.934 115.000 115.000 115.000 115.000 115.000 115.000 115.496 116.000 116.047 116.382 117.125 117.918 118.380 118.367 118.354 117.592 117.701 118.000 118.000 118.000 117.437 117.264 117.153 117.000 116.998 116.192 116.000 116.000 116.000 115.968 115.162 115.000 115.000 115.000 115.000 115.000 115.000 115.000 114.456 112.883 111.246 110.311 109.488 109.000 109.000 109.000 109.000 109.000 109.000
 165.776 165.763 165.750 165.737 165.872 165.902 165.654 165.386 165.345 165.319 165.293 165.267 165.241 165.215 164.837 164.581 164.568 164.555 164.543 164.530 164.295 164.000 164.040 164.846 165.000 164.749 164.175 163.426 163.413 163.127 162.701 162.374 162.460 163.253 163.573 163.644 163.618 163.554 163.301 162.729 163.060 163.488 163.462 163.436 163.252 162.616 162.179 162.166 162.153 162.140 162.732 162.750 161.985 161.153 160.322 160.085 160.049 159.808 159.121 159.880 159.995 159.499 158.675 157.958 157.945 157.286 156.960 156.907 156.993 157.688 157.735 157.632 157.578 157.658 157.632 157.606 157.580 157.554 157.528 157.502 156.899 155.872 154.500 153.241 153.010 154.358 155.895 156.224 155.550 155.221 154.705 153.948 153.130 152.422 152.000 152.000 152.000 152.482 153.000 153.000 153.000 153.000 153.000 152.822 152.356 151.869 151.802 151.776 151.750 151.627 151.074 149.736 147.765 145.681 144.081 143.575 143.327 143.259 143.552 144.049 144.234 144.860 145.000 145.079 145.369 146.000 146.000 146.000 146.054 146.103 146.174 147.029 147.818 148.572 149.038 149.026 149.013 149.000 148.987 148.974 148.961 148.948 148.138 146.780 145.190 143.565 141.940 141.194 140.917 140.844 140.864 141.000 141.157 141.207 141.128 140.948 140.761 140.958 142.110 142.843 143.178 143.689 143.676 143.437 143.301 143.197 143.145 144.443 145.300 145.796 146.000 146.000 146.000 146.000 145.743 145.508 145.495 145.482 146.230 146.149 145.722 145.431 145.418 146.194 146.392 146.227 145.868 145.353 145.340 145.327 145.019 144.531 144.288 144.275 143.780 143.039 142.144 141.208 141.026 141.000 141.000 141.000 141.000 141.000 141.000 141.000 141.000 141.000 141.000 141.000 141.000 141.000 141.000 141.000 140.231 140.000 140.000 140.000 140.000 140.000 140.000 140.000 140.000 140.000 140.000 139.912 139.473 138.959 138.778 138.113 138.000 138.000 138.215 138.779 138.972 138.814 138.358 137.910 137.580 136.761 135.943 134.775 133.662 132.856 132.051 130.946 129.698 128.633 127.925 127.562 127.116 126.409 125.410 124.197 123.000 123.000 122.380 121.148 119.435 117.479 115.404 114.350 113.720 112.685 110.516 108.072 107.440 107.165 106.709 105.903 105.097 104.291 103.485 102.757 102.230 102.217 102.053 102.000 102.000 102.000 102.000 102.000 102.574 103.000 102.833 102.096 102.812 103.000 103.020 103.029 103.000 103.009 103.631 104.424 104.979 105.048 105.810 105.978 106.431 106.908 106.966 107.663 108.430 109.139 109.275 109.007 111.548 114.689 116.428 117.000 116.968 116.767 116.740 116.879 117.000 116.832 116.026 116.000 115.803 115.396 114.928 114.625 114.612 114.599 114.339 114.000 114.019 114.459 114.835 115.000 115.000 115.000 115.000 114.643 115.198 116.000 116.000 116.000 116.286 116.903 117.380 117.290 116.756 116.433 116.868 117.316 117.303 117.290 117.066 117.000 116.720 116.239 116.226 116.044 116.000 116.000 116.000 115.984 115.178 115.000 115.000 115.000 115.000 115.000 114.390 113.623 112.553 110.988 110.142 109.320 109.000 109.000 109.000 109.000 109.000 109.000 109.000
 164.554 164.528 164.502 164.476 164.825 164.905 164.268 163.436 163.346 163.320 163.294 163.326 163.608 163.608 163.595 163.582 163.488 163.114 163.086 163.060 163.034 163.008 162.994 163.353 163.395 162.915 162.070 161.309 161.744 161.800 161.592 161.374 161.391 161.658 161.670 161.305 160.928 160.889 160.850 160.615 161.045 161.489 161.463 161.437 161.411 161.729 161.700 161.024 160.326 160.281 160.330 159.949 159.284 159.177 159.090 159.063 158.646 158.065 158.025 158.020 158.000 157.546 157.000 156.997 156.953 156.933 156.475 156.000 156.000 156.000 155.907 155.416 155.269 155.829 155.816 155.803 155.790 155.777 155.764 155.751 155.738 155.725 155.065 153.816 153.010 153.536 154.659 154.888 154.134 153.615 153.286 152.816 152.328 152.000 152.000 152.000 152.000 152.466 153.000 153.000 153.000 153.000 153.000 152.698 151.831 150.552 149.540 149.166 148.920 148.313 147.456 145.849 144.381 143.149 142.415 142.980 143.000 143.000 143.390 144.000 144.002 144.808 145.000 145.000 145.226 146.000 146.000 146.000 146.000 146.000 146.006 146.067 146.108 146.582 147.078 147.140 147.911 148.000 147.961 147.923 147.884 147.845 146.390 145.307 144.163 142.613 141.084 140.902 140.371 140.000 140.149 140.807 141.597 141.793 141.466 140.792 140.011 140.608 141.355 142.148 142.773 142.986 142.725 142.229 142.000 142.171 142.698 143.491 144.559 145.491 145.873 145.605 145.959 145.667 145.250 145.000 145.000 145.000 145.350 144.907 144.444 144.431 144.418 145.179 145.392 145.379 145.296 145.001 145.000 144.590 143.900 143.302 143.270 142.673 142.358 141.806 141.178 141.000 141.000 141.000 141.000 141.000 141.000 141.000 141.000 141.000 141.000 141.000 141.000 140.323 140.056 140.043 140.030 140.018 140.001 140.000 140.000 140.000 140.000 140.000 140.000 140.000 139.980 139.888 139.876 139.241 138.850 138.604 137.824 137.811 137.798 137.883 138.000 138.069 138.874 138.501 138.144 137.708 136.872 135.809 134.959 134.318 133.564 132.503 131.684 130.418 129.455 128.501 127.477 127.020 126.646 125.952 124.938 123.813 123.008 123.000 122.396 121.180 119.446 117.371 115.415 114.366 113.290 111.790 109.879 107.988 107.224 107.000 106.915 106.567 105.194 104.307 103.501 102.695 102.000 102.000 102.000 102.000 102.000 102.000 102.000 102.646 102.457 102.114 102.084 102.002 102.059 102.063 102.050 102.037 102.024 102.011 102.616 103.408 104.201 104.960 104.947 105.580 105.957 106.000 106.000 106.000 106.676 107.069 107.201 107.695 110.797 114.015 116.017 116.780 116.673 116.054 116.000 116.393 116.814 116.848 116.042 115.753 115.094 114.651 114.522 114.008 114.000 114.000 114.000 114.000 114.000 114.000 114.336 114.522 114.509 114.496 114.483 114.161 114.425 115.040 115.432 115.419 115.815 116.194 116.381 116.329 116.031 116.000 116.523 117.000 117.000 117.000 117.000 116.594 116.162 116.000 116.000 116.000 116.000 116.000 115.840 115.162 115.029 115.000 115.000 115.000 114.973 114.235 112.835 111.671 110.586 109.065 109.023 109.002 109.000 109.000 109.000 109.000 109.000 109.000 109.000
 162.332 162.293 162.254 162.397 162.451 162.425 162.319 161.742 161.910 162.000 162.000 162.091 162.590 162.608 162.369 162.165 161.966 161.134 161.445 161.253 161.035 160.909 160.474 160.435 160.396 159.932 159.217 158.890 159.670 159.801 159.775 159.912 160.362 160.349 160.336 159.838 159.109 158.593 158.567 158.542 159.030 159.731 160.232 160.219 160.206 160.298 160.297 160.012 159.193 158.482 158.756 159.071 158.834 158.098 158.076 158.063 158.030 158.000 158.000 158.000 157.999 157.554 156.993 156.912 156.137 156.000 155.963 155.882 155.789 155.763 155.137 154.927 154.952 154.811 154.649 154.749 154.791 154.778 154.765 154.752 154.739 154.726 154.351 153.532 152.713 152.674 153.048 153.043 152.635 152.620 152.116 152.000 152.000 152.000 152.000 152.000 152.000 152.233 152.506 152.493 152.480 152.826 153.000 152.714 151.764 149.680 147.575 146.156 145.189 144.331 143.474 142.855 142.474 142.204 142.045 142.273 142.827 143.000 143.374 144.000 144.000 144.164 144.676 145.000 145.210 146.000 146.000 146.000 146.000 146.000 146.000 146.000 145.386 145.077 145.079 145.055 145.039 145.002 144.982 144.949 144.919 144.851 144.138 143.324 142.522 141.764 140.945 140.222 139.922 139.845 139.832 139.819 140.581 140.794 140.781 140.575 139.756 139.742 140.339 141.014 141.628 142.361 141.790 141.664 141.807 142.000 142.057 142.863 144.070 144.865 144.986 144.648 145.441 145.161 145.000 145.000 145.000 145.000 145.000 144.466 144.000 144.000 144.000 144.307 144.393 144.380 144.367 144.354 144.341 143.735 142.916 142.302 142.286 142.051 142.000 141.572 140.821 140.225 140.212 140.721 141.000 141.000 141.000 141.000 141.000 141.000 140.738 140.095 140.083 140.020 140.000 140.000 140.000 140.000 140.000 140.000 140.000 140.000 140.000 139.954 139.886 139.862 139.714 138.895 138.777 138.204 137.850 137.655 137.000 137.000 137.000 137.441 138.000 138.053 138.858 139.177 138.677 137.724 136.836 135.224 134.306 133.828 133.141 131.888 131.083 130.277 129.471 128.330 126.939 126.577 125.788 125.233 124.635 123.829 123.024 123.000 122.412 120.995 118.950 116.988 115.376 114.382 113.153 111.541 109.929 108.317 107.353 107.000 107.000 106.916 105.883 104.559 103.517 102.711 102.000 102.000 102.000 102.414 103.082 103.667 103.693 103.190 102.458 102.000 102.000 102.000 102.000 102.000 102.000 102.000 102.000 102.000 102.000 102.401 103.180 103.921 103.938 104.523 105.313 105.931 106.000 106.000 106.745 107.741 108.738 109.724 112.033 114.877 116.000 115.934 115.767 115.754 115.741 115.728 115.952 116.310 115.730 114.929 114.296 114.000 114.000 114.000 114.000 114.000 114.000 114.000 114.000 114.000 114.000 114.000 114.000 114.000 114.000 114.000 114.000 114.254 115.000 115.000 115.273 115.683 116.000 116.000 116.000 116.000 116.167 116.531 117.000 117.000 116.472 116.123 116.000 116.000 116.000 116.000 115.547 115.188 115.144 115.003 115.000 115.000 115.000 114.815 114.072 112.516 110.894 109.688 109.071 109.000 109.000 109.000 109.000 109.000 109.000 109.000 109.000 109.000 109.000
 159.836 160.000 160.000 160.680 161.000 161.000 161.000 161.000 161.478 161.661 161.648 161.635 161.622 161.031 160.243 159.895 160.051 159.578 160.312 160.226 159.817 159.319 158.500 158.479 158.466 158.268 158.000 158.021 158.827 159.000 159.000 159.092 159.362 159.349 159.336 158.855 158.036 157.297 157.284 157.271 157.756 158.549 159.232 159.219 159.779 159.575 159.180 159.028 158.209 158.035 158.557 159.000 158.831 158.025 157.279 157.064 157.051 157.228 158.000 158.000 157.383 156.986 156.745 155.960 155.947 155.934 155.470 154.651 153.895 153.882 153.869 154.268 154.444 153.738 152.919 153.371 153.582 153.556 153.531 153.505 153.670 153.726 153.368 152.594 152.029 152.000 152.000 152.000 152.000 152.000 152.000 152.000 152.000 152.000 152.000 152.000 152.000 152.000 152.000 151.977 151.557 152.125 152.454 152.021 150.587 147.671 145.556 143.792 142.454 141.689 141.382 141.338 141.678 142.000 142.000 142.000 142.746 143.000 143.088 143.234 143.221 143.822 144.114 144.182 144.363 145.156 145.143 145.662 146.000 146.000 146.000 146.000 145.359 145.000 145.000 144.943 144.148 144.001 143.524 143.000 142.915 142.152 142.019 141.533 141.062 140.883 140.077 140.000 139.465 138.947 138.833 138.820 139.419 139.588 139.562 139.442 139.009 139.000 139.433 139.716 139.848 140.385 140.619 140.874 141.429 142.000 142.026 142.519 142.992 143.174 143.261 143.632 144.425 144.853 145.000 144.856 144.497 144.484 144.471 144.221 144.000 144.000 144.000 143.560 143.725 144.000 144.000 144.000 143.492 142.752 142.195 142.000 142.000 142.000 141.554 140.839 140.020 139.244 139.866 140.127 140.546 141.000 140.955 140.267 140.135 140.122 140.079 140.000 140.000 140.000 140.000 140.000 140.000 140.000 140.000 139.993 139.966 139.910 139.949 139.187 138.368 138.250 138.650 137.909 137.093 136.864 136.851 136.838 136.825 136.812 136.923 137.334 137.825 138.045 139.055 139.914 139.370 137.955 136.868 135.256 134.322 133.516 132.710 131.904 131.099 130.293 129.487 128.362 126.875 126.069 125.263 124.744 124.336 123.845 123.040 123.000 122.121 120.524 118.528 116.451 115.288 114.398 113.435 112.066 109.961 108.349 107.369 107.000 106.832 106.281 106.041 104.679 103.533 102.727 101.940 101.309 101.754 102.496 103.302 104.000 104.000 103.898 103.346 102.591 101.877 101.141 101.077 101.584 102.000 102.000 102.000 102.000 102.000 101.995 101.974 101.963 102.714 102.910 103.762 105.176 106.107 106.214 107.463 109.491 111.450 112.448 113.939 115.410 115.901 115.496 114.768 114.755 114.742 114.729 114.716 114.703 114.690 114.181 114.000 114.000 114.000 114.000 114.000 114.000 114.000 114.000 114.000 114.000 114.000 114.000 114.000 114.000 114.000 114.000 114.000 114.106 114.433 114.420 114.796 115.182 115.381 115.369 115.356 115.343 115.659 116.094 116.304 116.291 116.079 116.000 116.000 116.000 116.000 115.415 115.091 115.000 115.000 115.000 115.000 114.500 113.786 112.861 111.300 110.385 109.492 109.035 109.000 109.000 109.000 109.000 109.000 109.000 109.000 109.000 109.000 109.000 109.000
 159.246 160.000 160.000 160.490 160.726 160.713 160.700 160.687 160.674 160.492 160.296 160.230 159.898 158.665 157.877 157.918 158.631 158.976 159.409 159.531 159.155 158.420 158.012 158.000 158.000 158.000 158.000 158.002 158.336 158.771 159.000 159.000 159.000 159.000 158.571 157.871 157.230 157.000 157.000 157.000 157.482 158.071 158.305 158.922 159.146 158.682 158.181 158.147 158.011 158.000 158.070 158.116 157.950 157.131 157.018 157.000 157.000 157.007 157.025 157.012 156.399 155.972 155.740 154.960 154.904 154.869 154.407 153.598 152.895 152.882 152.869 152.856 152.844 152.767 152.096 152.000 152.000 152.000 152.000 152.000 152.531 152.727 152.479 152.000 152.000 152.000 152.000 152.000 152.000 152.000 152.000 151.765 151.584 151.571 151.558 151.545 151.532 151.118 150.630 150.927 149.257 149.512 149.819 149.118 146.974 144.629 142.866 141.798 141.270 141.000 141.000 141.000 141.165 141.527 142.000 142.000 142.730 143.000 143.000 142.887 142.257 141.766 141.587 141.548 141.687 142.454 143.783 144.726 145.118 145.105 145.092 145.079 145.025 145.000 145.000 144.958 144.152 144.000 143.545 143.018 143.000 143.000 142.316 142.000 141.705 140.888 139.988 139.781 139.199 138.467 137.978 137.832 137.807 137.794 137.859 138.123 138.730 138.941 139.000 139.000 139.000 139.000 139.544 140.273 141.066 141.718 142.000 142.000 142.000 141.817 141.718 142.178 142.958 144.048 144.523 144.368 144.000 144.000 144.000 144.000 144.000 143.935 143.466 143.112 143.209 143.381 143.368 143.355 142.587 142.144 142.000 141.880 141.305 141.277 141.108 140.900 140.559 139.776 139.960 140.000 140.080 140.174 140.155 140.023 140.000 140.000 140.000 140.000 140.000 140.000 140.000 140.000 139.906 139.115 139.006 138.986 138.333 137.240 138.736 138.130 137.352 136.916 136.903 136.890 136.204 136.000 136.000 136.000 136.000 136.000 136.482 136.874 137.215 138.041 139.653 140.632 140.245 138.661 136.596 134.971 134.009 133.190 132.468 131.920 131.115 130.309 129.503 128.394 126.891 126.085 125.279 124.473 123.839 123.433 123.027 122.607 121.351 119.727 118.028 116.063 115.220 114.766 113.982 112.531 110.630 108.506 107.385 107.000 106.773 106.000 106.000 105.181 104.292 103.305 101.938 101.132 101.139 102.061 103.052 103.167 103.155 103.142 103.063 102.684 101.879 101.073 101.000 101.035 101.051 101.184 101.958 102.000 102.000 101.617 101.000 101.000 101.000 101.560 102.762 104.649 107.119 107.938 108.595 110.159 112.324 113.878 114.671 115.337 115.125 114.352 113.785 113.971 113.823 113.729 113.801 114.000 114.000 114.000 114.000 114.000 114.000 114.000 114.000 114.000 114.000 114.000 114.000 114.000 114.000 114.000 114.000 114.000 113.585 113.472 113.459 113.569 114.000 114.000 114.261 114.665 115.000 115.000 115.000 115.000 115.157 115.510 116.000 116.000 116.000 116.000 115.768 115.240 115.228 115.058 115.000 115.000 115.000 115.000 114.356 113.574 112.431 111.028 110.119 109.299 109.030 109.000 109.000 109.000 109.000 109.000 109.000 109.000 109.000 109.000 109.000 109.000 109.000
 159.008 159.766 159.753 159.740 159.603 159.427 159.401 159.375 159.349 159.004 158.547 158.177 157.345 157.064 157.000 157.186 157.642 158.076 158.425 158.532 158.338 158.000 158.000 158.000 158.000 157.794 157.441 157.428 157.415 158.003 158.389 158.509 158.988 158.464 158.125 157.564 157.000 157.000 157.000 157.000 157.121 157.451 158.018 158.195 158.207 157.699 157.181 157.168 157.155 157.142 157.129 156.824 156.193 156.096 156.077 155.546 155.103 155.077 155.051 155.025 154.416 153.987 153.969 153.920 153.130 152.935 152.535 152.000 152.000 152.000 152.000 152.000 152.000 152.000 152.000 152.000 152.000 152.000 152.000 152.000 152.000 152.000 152.000 152.000 152.000 152.000 152.000 151.880 151.637 151.624 151.611 151.031 150.585 150.572 150.559 149.828 149.877 149.236 147.914 147.442 145.797 145.697 145.350 144.206 142.655 141.462 140.681 140.390 140.544 141.000 141.000 141.000 141.331 141.780 142.072 142.648 142.922 143.000 142.755 142.002 140.555 139.674 138.950 138.840 139.502 140.282 141.835 143.345 144.118 144.276 144.997 145.000 145.000 145.000 145.000 144.974 144.168 144.000 143.995 143.732 142.998 142.957 142.312 141.964 141.632 140.728 139.103 137.998 137.146 137.002 137.591 137.051 137.000 137.000 137.338 138.033 138.232 138.819 139.000 139.000 139.000 139.000 139.000 139.394 140.050 140.843 141.627 141.614 141.601 141.337 141.000 141.022 141.464 142.536 143.264 143.639 144.000 144.000 144.000 144.000 144.000 143.902 143.096 143.000 143.000 142.801 142.368 142.355 142.089 142.000 141.760 141.256 141.011 141.000 141.000 141.000 140.814 140.008 140.000 140.000 140.000 140.000 140.000 140.000 140.000 140.000 140.000 140.000 140.000 140.000 139.558 138.783 137.984 137.152 137.013 136.994 136.981 136.858 136.039 135.942 135.929 135.916 135.903 135.890 135.877 135.864 135.852 135.839 135.826 135.959 136.000 136.309 136.973 137.769 139.165 140.087 140.023 138.573 135.629 134.004 133.238 132.548 131.909 131.592 131.081 130.325 129.519 128.426 126.907 126.101 125.295 124.489 123.683 123.000 123.000 122.266 120.920 119.308 117.696 116.084 115.236 115.000 114.479 113.263 111.664 109.272 107.667 107.000 106.935 106.691 106.127 105.371 104.888 104.274 102.686 101.263 101.000 101.554 102.623 103.769 103.100 102.410 101.699 101.198 101.093 101.008 101.000 101.000 100.688 100.174 100.967 101.013 101.000 100.987 100.975 100.962 100.949 100.973 102.134 104.703 107.999 108.806 108.310 109.052 111.138 112.695 113.475 113.738 113.439 113.000 113.045 113.653 113.245 112.871 112.999 113.730 113.967 114.000 114.000 114.000 114.000 114.000 114.000 114.000 114.000 114.000 114.000 114.000 113.738 113.524 113.511 113.498 113.103 113.000 113.000 113.092 113.441 113.895 114.000 114.430 115.000 115.000 115.000 115.000 115.000 115.084 115.355 115.913 115.508 115.267 115.179 115.000 115.000 115.000 115.000 115.000 114.893 114.217 112.779 111.256 109.977 109.207 109.103 109.020 109.000 109.000 109.000 109.000 109.000 109.000 109.000 109.000 109.000 109.000 109.000 109.000 109.000
 157.945 158.532 158.506 158.480 158.136 157.714 157.686 157.421 157.136 157.144 157.121 156.586 156.072 156.690 157.000 156.874 156.525 156.154 156.810 157.064 156.879 156.519 156.480 156.830 157.230 157.290 157.000 157.000 156.545 156.638 157.017 157.573 158.363 158.067 157.593 156.904 156.311 156.299 156.286 156.273 156.592 156.871 156.467 156.441 156.415 156.296 155.948 155.337 155.312 155.286 155.260 155.197 154.996 154.249 154.156 153.592 153.104 153.078 153.052 153.026 153.000 153.000 152.821 152.015 152.000 152.000 152.000 152.000 152.000 152.000 152.000 152.000 152.000 152.000 152.000 152.000 152.000 152.000 151.983 151.783 151.741 151.728 151.715 151.702 151.689 151.908 151.824 151.323 150.589 150.271 150.222 149.867 149.585 149.503 149.132 147.895 147.301 146.495 145.233 143.992 143.159 142.613 141.762 140.787 140.418 140.070 140.000 140.000 140.095 140.401 140.911 141.442 141.829 142.193 142.726 142.969 143.000 142.628 141.705 140.328 139.318 137.907 136.860 136.430 136.778 138.226 139.156 140.521 141.682 142.387 143.167 143.884 144.067 144.054 144.041 144.028 144.003 144.000 143.555 142.976 142.924 142.105 141.897 141.426 140.648 139.760 138.136 135.830 134.860 135.140 135.933 136.726 136.808 136.795 137.175 138.158 139.162 139.256 139.269 139.282 139.249 139.011 139.000 139.000 139.249 139.760 140.250 140.537 140.843 141.000 141.000 141.000 141.000 141.047 141.488 142.388 143.498 143.485 143.823 144.508 145.260 145.572 144.337 143.363 143.000 142.695 142.000 142.000 142.000 141.646 141.211 141.000 141.000 141.000 141.000 140.728 140.199 140.005 140.000 140.000 140.000 140.000 140.000 140.000 140.000 139.629 139.110 139.097 139.084 138.471 138.091 137.787 136.968 136.149 136.007 135.994 135.981 135.877 135.096 135.000 135.000 135.000 135.000 135.000 135.000 135.000 135.000 135.000 135.000 135.622 135.914 136.000 136.141 136.753 137.343 137.913 137.875 136.845 134.666 133.297 132.793 132.223 131.489 131.000 131.000 130.341 129.535 128.458 126.923 126.117 125.311 124.505 123.699 123.000 123.000 122.282 120.951 119.340 117.728 116.116 115.252 115.000 115.081 115.023 113.954 111.115 108.774 107.414 107.000 106.999 106.193 105.834 105.431 104.720 103.683 101.455 100.491 100.642 101.481 102.327 102.176 100.895 100.197 100.117 100.104 100.091 100.078 100.065 100.036 100.005 100.025 100.014 100.001 100.000 100.000 100.000 100.000 100.566 101.773 103.963 107.921 108.790 107.809 107.690 109.075 110.516 111.428 112.361 112.795 112.782 112.769 112.756 112.743 112.394 112.266 113.072 113.878 114.000 114.000 114.000 113.963 113.662 113.614 113.602 113.589 113.576 113.563 113.550 113.242 113.000 113.000 113.000 113.000 113.000 113.208 113.448 113.002 113.338 113.768 114.164 114.519 115.000 115.000 115.000 115.000 115.000 115.017 115.252 115.093 115.000 115.000 115.000 115.000 115.000 114.599 113.940 113.240 112.408 110.850 109.671 109.083 109.000 109.000 109.000 109.000 109.000 109.000 109.000 109.000 109.000 109.000 109.000 109.000 109.000 109.000 109.000 109.000
 156.603 156.767 156.754 156.581 156.455 156.429 156.380 155.800 154.822 154.624 154.949 154.910 154.871 155.768 156.388 156.299 155.440 154.265 154.475 154.598 154.244 153.580 153.951 154.695 155.475 155.910 155.884 155.858 155.514 155.403 155.536 155.934 156.714 156.702 156.474 156.194 156.000 156.000 156.000 156.000 156.113 156.188 155.965 155.337 155.208 155.195 155.133 155.000 155.000 154.412 154.130 154.117 154.093 154.008 154.000 153.478 153.000 153.000 153.000 153.000 153.000 152.988 152.820 152.067 152.051 152.064 152.077 152.073 152.000 152.000 152.000 152.000 152.000 152.000 152.000 152.000 151.908 151.725 151.490 150.857 150.741 150.728 150.715 150.702 150.689 151.375 151.328 150.689 149.926 149.424 149.105 149.000 148.859 148.364 147.188 145.992 144.999 144.151 143.246 142.017 141.176 140.660 140.057 139.557 140.000 140.000 140.000 140.000 140.000 140.041 140.847 141.653 142.309 142.769 142.951 142.376 142.275 141.774 140.661 139.060 137.613 135.997 134.877 134.368 134.494 135.399 136.177 137.016 138.141 139.478 140.245 141.012 141.740 142.109 142.083 142.057 142.032 142.006 141.980 141.954 141.905 141.113 140.303 139.925 139.665 138.793 137.168 134.878 133.926 134.277 135.069 135.730 135.809 135.898 136.679 138.429 139.856 140.000 140.000 140.000 139.900 139.344 139.079 139.000 139.000 139.000 139.000 139.481 139.956 140.340 140.661 140.997 140.634 140.205 140.222 140.859 142.015 142.404 143.462 144.908 146.404 147.398 145.331 143.645 142.708 142.271 142.000 142.000 142.000 141.487 141.000 141.000 141.000 141.000 141.000 140.652 140.000 140.000 140.000 140.000 140.000 140.000 140.000 139.323 139.137 138.716 137.921 137.196 137.170 137.098 136.648 136.081 136.032 136.003 135.344 134.994 134.982 134.969 134.956 134.943 134.930 134.917 134.904 134.891 134.878 134.865 134.852 134.862 134.990 135.000 135.444 135.788 135.775 135.762 135.749 135.736 135.615 135.085 133.695 132.877 132.058 131.382 131.000 130.988 130.682 130.217 129.551 128.597 127.370 126.577 125.477 124.521 123.715 122.955 122.544 122.142 120.983 119.372 117.760 116.148 115.268 115.000 115.554 116.569 116.292 113.752 110.913 108.475 107.000 107.000 106.209 106.000 105.896 105.388 103.957 101.539 100.374 100.084 100.225 100.338 100.312 100.098 100.000 100.000 99.934 99.201 99.079 99.066 99.053 99.139 99.911 100.000 100.000 100.004 100.025 100.037 100.013 100.585 102.144 104.723 107.875 108.685 107.787 106.946 107.038 107.831 108.996 110.334 111.061 111.273 111.769 111.757 111.744 111.731 111.898 112.466 113.247 113.144 112.999 113.058 113.226 112.696 112.884 113.000 113.000 113.000 113.000 113.000 113.000 113.000 113.000 113.000 113.000 113.000 113.170 113.370 113.009 113.000 113.242 113.636 114.078 114.370 114.358 114.345 114.332 114.319 114.306 114.293 114.280 114.602 114.804 114.242 114.229 114.216 113.717 112.661 111.257 110.425 109.486 109.067 109.000 109.000 109.000 109.000 109.000 109.000 109.000 109.000 109.000 109.000 109.000 109.000 109.000 109.000 109.000 109.000 109.000
 154.741 155.521 155.313 154.624 154.184 154.145 154.106 154.067 153.178 152.663 152.566 152.291 152.568 153.927 155.248 155.842 155.244 153.289 152.376 152.297 152.364 152.053 152.450 153.198 153.713 154.090 154.442 154.429 154.852 155.000 155.000 155.062 155.353 155.855 156.000 156.000 156.000 156.000 156.000 156.000 156.000 155.832 155.228 155.037 155.000 154.640 154.389 155.000 155.000 154.329 154.000 153.751 153.105 153.092 153.079 153.033 153.000 152.887 152.101 152.014 152.001 152.000 152.144 152.917 152.988 153.000 153.000 152.823 152.017 152.000 152.077 152.085 152.000 151.998 151.852 151.686 151.246 150.545 149.768 149.755 149.742 149.729 149.716 149.703 149.690 150.360 150.664 150.459 149.964 149.660 149.176 148.792 148.262 147.257 145.276 143.946 143.279 142.689 141.776 140.547 139.711 139.469 139.281 139.189 139.995 140.000 140.000 140.000 140.000 140.025 140.831 141.636 142.442 142.830 142.285 142.040 141.517 140.790 139.694 138.069 136.444 134.819 133.696 133.184 133.285 134.078 134.871 135.664 136.497 137.356 138.136 138.223 138.764 139.165 139.126 139.087 139.049 139.598 139.975 139.955 139.929 139.942 139.319 138.926 138.681 137.825 136.201 134.009 133.392 134.109 134.846 134.977 135.000 135.583 137.025 139.096 139.902 140.000 140.000 140.000 140.000 140.000 139.499 139.152 139.000 138.944 138.643 138.615 138.602 138.968 139.683 140.122 140.021 140.000 140.000 140.110 140.509 140.887 141.877 143.019 144.141 145.106 144.025 142.885 142.211 142.000 142.000 142.000 142.000 141.503 141.000 141.000 141.000 141.000 140.614 140.169 140.000 140.000 140.000 139.556 139.189 139.038 138.348 138.183 137.632 136.857 136.025 135.196 135.171 135.145 135.094 135.047 135.034 135.021 134.363 134.000 134.000 134.000 134.000 134.000 134.000 134.000 134.000 134.000 134.000 134.000 134.000 134.102 134.767 134.814 134.908 134.927 134.775 134.763 134.750 134.737 134.350 133.531 132.712 131.893 131.270 130.862 130.646 130.624 130.111 130.000 129.567 128.761 127.955 127.149 125.986 124.790 123.731 122.925 122.120 122.000 121.015 119.404 117.850 116.701 115.870 115.599 116.067 117.083 117.599 115.899 113.852 111.150 108.041 106.363 106.064 106.000 106.000 105.760 104.768 102.366 100.698 99.665 99.182 99.169 99.156 99.691 100.000 100.000 99.943 99.137 99.000 99.000 99.000 99.004 99.025 99.703 100.000 100.318 101.000 101.000 100.272 101.035 102.945 105.337 107.658 107.858 107.309 106.542 106.149 106.819 106.315 106.785 107.604 108.743 110.770 110.757 110.744 110.731 110.652 110.428 110.711 110.067 109.667 109.971 110.973 111.536 112.297 112.796 113.000 113.000 113.000 113.000 113.000 113.000 112.937 112.532 112.487 112.474 112.651 113.000 113.000 113.000 113.000 113.152 113.500 113.996 113.487 113.345 113.332 113.319 113.290 112.708 113.018 113.709 114.192 114.000 114.000 114.000 113.155 111.638 110.096 109.277 109.047 109.000 109.000 109.000 109.000 109.000 109.000 109.000 109.000 109.000 109.000 109.000 109.000 109.000 109.000 109.000 109.000 109.000 109.000
 152.506 153.273 152.677 151.900 151.457 151.431 151.405 151.379 151.353 151.468 151.505 151.030 151.836 153.034 154.314 155.171 154.992 152.904 151.508 151.255 151.656 152.000 152.000 152.701 153.000 153.313 154.000 154.000 154.730 155.000 155.000 155.000 155.000 155.267 155.339 155.576 156.000 156.000 156.000 155.568 155.261 155.041 154.225 153.585 153.418 153.308 153.420 154.170 154.157 154.050 153.600 152.852 152.105 152.092 152.079 152.066 152.053 152.036 152.003 152.000 152.000 152.000 152.000 152.000 152.705 152.971 153.000 152.825 151.934 151.885 152.450 152.474 151.846 151.833 151.018 150.199 149.794 149.609 149.000 149.000 149.000 149.000 149.000 149.000 149.000 149.452 149.506 149.303 149.192 148.360 147.955 147.296 146.324 145.000 142.886 141.917 141.320 140.706 139.944 139.521 139.118 139.000 139.000 139.173 139.979 140.000 140.000 140.000 140.000 140.009 140.815 141.211 141.754 142.082 141.301 141.289 140.626 139.807 138.726 137.101 135.477 133.852 133.102 133.000 133.017 133.144 133.855 134.648 135.441 136.121 136.182 136.163 136.174 136.166 136.128 136.089 136.050 136.585 137.343 137.915 137.894 138.615 138.189 137.808 137.630 136.860 135.326 133.734 133.000 133.245 134.042 134.705 134.810 135.829 137.608 139.291 139.914 140.000 140.000 140.000 140.000 140.000 140.000 139.648 139.230 138.911 138.406 138.096 138.000 138.214 138.577 138.564 138.981 139.347 139.711 140.000 139.998 139.584 139.765 140.115 140.570 141.304 141.265 140.962 141.064 141.383 141.370 141.357 141.344 141.172 141.000 140.936 140.364 140.280 140.131 139.764 139.241 139.228 138.063 137.928 137.909 137.201 136.369 136.301 135.705 135.202 134.930 134.112 133.361 133.146 133.120 133.295 134.034 134.021 134.003 133.997 134.000 134.000 134.000 134.000 134.000 134.000 133.993 133.905 133.879 133.866 133.897 134.000 134.000 134.000 134.419 134.529 133.970 133.777 133.750 133.592 133.189 132.547 131.728 131.154 130.810 130.404 130.000 130.000 130.000 129.760 129.178 128.359 127.553 127.092 126.067 124.847 123.747 122.941 122.136 121.651 120.768 119.436 117.912 117.106 116.300 116.303 116.923 117.668 117.972 117.489 116.610 114.321 110.321 106.240 106.000 106.000 106.000 105.690 104.265 101.856 100.490 99.600 99.000 99.000 99.000 99.090 99.504 100.000 99.958 99.153 99.000 99.000 99.000 99.068 99.852 99.995 100.488 101.000 100.998 100.967 100.273 100.518 101.924 104.084 105.670 106.514 106.338 106.000 106.000 106.000 106.771 107.577 108.383 109.148 109.766 109.757 109.745 109.732 109.500 108.681 107.863 107.247 106.853 107.065 108.333 109.019 110.768 112.075 112.704 113.000 113.000 113.000 113.000 113.000 112.887 112.081 112.000 112.000 112.155 112.448 112.436 112.423 112.410 112.618 112.960 112.748 112.436 112.346 112.333 112.320 112.305 112.055 112.619 113.425 114.000 113.972 113.351 113.217 112.657 111.479 109.934 109.128 109.000 109.000 109.000 109.000 109.000 109.000 109.000 109.000 109.000 109.000 109.000 109.000 109.000 109.000 109.000 109.000 109.000 109.000 109.000
 149.897 150.501 150.510 150.063 149.729 149.665 149.410 149.380 149.354 149.730 150.375 150.647 151.137 151.607 152.229 152.660 152.242 151.289 151.032 151.000 151.139 151.544 151.939 152.685 153.261 153.679 154.000 154.000 154.714 155.000 155.199 155.622 155.635 155.166 154.637 154.442 154.738 155.278 155.287 154.695 153.977 153.306 152.474 152.266 152.209 152.196 152.404 153.171 153.158 153.145 152.687 152.089 152.000 152.000 152.000 152.000 152.000 152.000 152.000 152.000 152.000 152.000 152.000 152.000 151.964 152.403 152.772 152.470 150.987 150.885 151.363 151.402 150.846 150.833 150.034 149.330 149.000 149.000 149.000 149.000 149.000 149.000 149.000 148.988 148.739 148.468 147.873 147.212 146.823 145.676 144.771 143.913 142.884 141.568 140.272 139.707 139.535 139.354 139.000 139.000 139.000 139.000 139.000 139.070 139.416 138.971 138.811 139.016 139.495 139.995 140.282 140.341 140.738 141.247 141.000 141.000 140.366 139.236 137.759 136.134 134.509 132.885 132.198 132.185 132.172 132.160 132.839 133.200 133.546 134.314 135.019 135.082 134.577 134.112 134.086 134.060 133.295 133.015 133.343 134.104 134.872 134.857 134.818 135.173 135.758 135.797 135.056 133.796 133.080 133.194 133.842 133.972 134.123 135.560 137.935 140.000 140.000 140.000 140.000 140.000 140.000 140.000 140.000 140.000 139.792 139.314 139.026 138.547 138.182 138.000 138.000 138.000 137.657 138.109 138.723 139.114 139.494 139.100 139.000 138.781 138.543 138.880 139.320 139.409 139.569 139.915 140.370 140.358 140.776 141.000 140.816 140.229 139.410 139.280 138.905 138.208 137.482 137.457 136.558 135.891 135.506 135.329 135.173 135.151 135.062 134.686 133.947 133.128 133.019 132.460 132.426 133.009 133.035 133.811 133.393 133.417 133.983 133.970 133.957 133.944 133.962 133.979 133.851 133.120 133.000 133.000 133.242 133.841 133.828 133.815 133.802 133.789 133.658 132.839 132.751 132.342 131.906 131.606 131.032 130.761 130.292 130.000 130.000 130.000 129.701 129.013 128.194 127.462 126.994 126.637 125.579 124.569 123.763 122.957 122.152 121.346 120.540 119.613 118.447 117.192 116.316 116.490 117.296 118.000 118.000 118.000 117.825 116.269 112.590 107.780 106.367 106.000 105.738 104.926 103.302 101.506 100.422 99.616 98.845 98.173 98.157 98.144 98.186 98.431 99.103 99.016 98.414 98.481 99.000 99.055 99.861 100.000 100.473 100.990 100.894 100.106 100.000 100.471 101.233 102.131 103.647 104.581 105.406 105.861 105.870 105.992 106.755 107.561 108.367 109.000 109.000 108.620 108.641 108.838 108.797 107.992 107.186 106.802 106.383 106.152 106.631 106.411 108.885 110.843 111.959 113.000 113.000 112.696 112.539 112.526 112.463 112.049 112.000 112.000 112.000 112.000 112.000 112.000 112.000 112.139 112.325 112.014 112.000 112.000 112.000 112.000 112.000 112.000 112.170 112.678 113.256 113.238 113.040 113.000 112.212 110.900 109.950 109.144 109.000 109.000 109.000 109.000 109.000 109.000 109.000 109.000 109.000 109.000 109.000 109.000 109.000 109.000 109.000 109.000 109.000 109.000 109.000
 148.563 148.537 148.511 148.485 148.459 148.316 147.726 147.690 147.677 147.921 148.495 149.275 149.251 149.225 149.614 150.043 149.585 149.927 150.350 150.742 151.000 151.057 151.863 153.015 153.753 154.000 154.000 154.000 154.698 155.000 155.121 155.379 155.366 154.625 153.454 152.653 152.773 153.553 153.576 152.986 152.427 152.205 152.005 152.000 152.000 152.000 152.038 152.171 152.158 152.145 151.704 151.119 151.106 151.093 151.080 151.067 151.054 151.041 151.028 151.015 151.488 151.992 151.998 151.967 151.240 150.421 149.924 149.912 149.899 149.886 149.873 149.860 149.847 149.834 149.189 149.000 148.922 148.782 148.769 148.756 148.587 148.460 148.373 148.089 147.244 146.400 145.407 144.362 143.490 142.430 141.562 140.731 140.013 139.527 139.063 139.000 139.000 139.000 139.000 139.000 139.000 139.000 138.818 138.367 137.894 137.085 136.812 137.151 137.931 138.711 139.214 139.729 140.129 140.315 140.302 140.289 139.659 138.728 137.369 135.167 133.542 131.917 131.199 131.186 131.173 131.160 131.824 132.134 132.410 133.118 133.181 133.165 133.103 132.756 132.087 132.061 131.299 131.009 130.992 131.132 131.925 131.953 131.940 132.304 133.081 133.792 133.865 133.875 133.512 133.000 133.015 133.679 134.441 136.106 138.269 139.783 139.965 140.000 140.000 140.000 140.000 140.000 140.000 140.000 140.000 139.931 139.425 139.108 138.475 138.000 137.942 137.590 137.139 137.299 137.526 137.598 137.986 138.373 138.474 138.282 138.000 138.001 138.341 138.048 138.046 138.470 138.761 139.253 139.567 139.664 139.384 138.594 138.333 137.797 137.057 136.437 136.173 135.538 134.730 134.303 134.190 134.177 134.164 134.151 134.138 134.082 133.851 133.045 133.000 132.958 132.962 133.000 133.000 133.017 133.004 133.000 133.000 133.000 133.000 133.000 133.402 133.700 133.000 133.000 133.000 133.000 133.000 133.000 133.000 133.000 133.000 132.938 132.697 132.070 131.822 131.738 131.489 130.962 130.718 130.176 130.000 130.000 129.943 129.647 128.848 128.030 127.211 126.504 126.142 125.667 125.213 124.585 123.779 122.973 122.168 121.362 120.556 119.750 118.919 117.769 116.917 116.788 117.280 118.000 118.000 118.000 118.333 118.064 115.981 110.631 107.131 106.000 105.661 104.711 103.099 102.076 101.228 100.139 98.826 98.020 98.000 98.000 98.000 98.024 98.106 98.093 98.030 98.029 98.055 98.081 98.874 99.656 100.001 99.990 99.977 99.964 99.985 100.000 100.292 101.107 101.994 103.453 104.516 105.000 105.128 105.934 106.739 107.545 108.351 108.932 108.559 106.979 107.066 107.846 108.305 107.712 106.896 106.269 105.864 105.730 106.014 106.521 107.641 109.087 110.673 112.156 112.130 111.738 111.756 112.000 112.000 112.000 112.000 111.738 111.462 111.449 111.437 111.424 111.722 112.000 112.000 112.000 112.000 112.000 112.000 111.885 111.325 111.295 111.704 112.393 113.000 113.000 113.000 113.000 112.155 110.587 109.173 109.027 109.000 109.000 109.000 109.000 109.000 109.000 109.000 109.000 109.000 109.000 109.000 109.000 109.000 109.000 109.000 109.000 109.000 109.000 109.000
 146.756 146.555 146.512 146.486 146.460 146.475 146.690 146.691 146.678 146.789 147.115 147.627 147.921 148.000 148.399 149.000 149.011 149.817 150.000 150.229 150.522 150.550 151.343 152.788 153.713 154.000 154.000 154.000 154.285 154.405 154.571 154.938 154.426 153.641 152.647 152.000 152.041 152.282 152.288 152.125 152.000 152.000 152.000 152.000 152.000 152.000 151.846 151.176 151.158 151.145 150.720 150.120 150.107 150.094 150.081 150.068 150.055 150.042 150.029 150.670 151.001 151.267 151.894 151.075 150.256 149.468 149.000 148.990 148.907 148.886 148.873 148.860 148.847 148.834 148.686 148.616 148.225 147.565 147.539 147.322 146.641 146.085 145.669 144.813 144.204 143.417 142.290 141.075 140.279 140.254 139.830 139.328 139.000 139.000 139.000 139.000 139.000 138.862 138.510 138.497 138.119 137.943 137.598 136.766 135.934 135.102 134.813 135.136 135.916 136.696 137.970 138.914 139.329 139.316 139.303 139.290 138.675 137.856 136.610 134.199 132.574 131.447 131.000 131.000 131.000 131.000 131.097 131.538 132.033 132.109 132.096 132.083 132.070 131.755 130.941 130.145 130.023 130.005 129.992 130.117 130.910 130.953 130.973 131.361 132.000 132.000 132.692 132.876 132.863 132.850 132.837 132.966 133.498 134.889 136.808 138.356 139.317 139.819 140.000 140.000 140.000 140.000 140.000 140.000 140.000 139.967 139.668 138.645 137.699 137.311 137.508 137.042 137.000 136.752 136.526 136.514 136.501 136.859 137.248 137.462 137.548 137.992 137.543 137.165 137.160 137.384 137.377 137.653 137.691 137.665 137.563 137.276 136.693 135.905 135.074 134.510 134.466 134.257 134.068 134.000 134.000 134.000 134.000 134.000 134.000 134.000 133.985 133.906 133.233 133.000 133.000 133.000 133.000 133.000 133.000 133.000 133.000 133.000 133.000 133.000 133.000 133.000 132.997 132.911 132.957 133.000 133.000 133.000 133.000 132.877 132.803 132.568 131.981 131.790 131.227 131.000 130.915 130.630 130.055 130.000 130.000 129.885 129.554 129.031 128.243 127.217 126.227 125.481 125.011 125.000 125.000 124.601 123.795 122.989 122.184 121.378 120.572 119.766 118.960 118.154 117.348 117.273 117.713 118.043 118.556 118.648 118.504 117.835 116.000 110.898 106.732 105.274 105.177 104.839 103.845 102.461 101.885 101.099 99.529 98.066 97.352 97.145 97.132 97.285 97.994 98.000 98.000 97.617 97.260 98.001 98.024 98.651 99.004 98.991 98.979 98.995 99.664 100.000 100.276 101.157 102.688 103.660 104.437 104.904 105.112 105.918 106.596 107.340 108.065 108.317 106.865 105.253 105.163 105.831 106.488 106.700 106.151 105.813 105.405 105.131 105.645 105.930 106.381 107.116 108.327 110.172 110.497 110.842 111.245 111.650 111.968 111.566 111.488 111.246 111.000 111.000 111.000 111.000 111.211 111.590 111.924 111.417 111.360 111.347 111.334 111.272 111.012 111.000 111.571 112.102 112.257 112.244 112.231 112.218 111.715 110.575 109.000 109.000 109.000 109.000 109.000 109.000 109.000 109.000 109.000 109.000 109.000 109.000 109.000 109.000 109.000 109.000 109.000 109.000 109.000 109.000 109.000
 145.486 144.841 144.756 144.743 144.818 145.093 145.659 145.920 146.000 146.354 147.000 147.000 147.772 148.000 148.383 149.000 149.000 149.801 150.000 149.808 149.522 149.534 150.327 151.428 152.618 153.592 154.000 154.000 154.000 154.000 154.109 154.348 154.040 153.304 152.499 152.000 152.000 152.000 152.000 152.000 152.000 151.893 151.276 151.224 151.211 151.198 151.013 150.194 150.159 150.146 150.080 149.822 149.107 149.094 149.081 149.068 149.055 149.042 149.029 149.665 150.003 150.249 150.888 150.056 149.257 148.909 148.851 148.729 147.897 147.773 147.682 147.582 147.543 147.504 146.727 146.426 146.038 145.315 145.088 144.447 143.659 142.814 142.021 141.416 141.384 140.949 140.258 139.513 139.000 139.000 139.000 139.000 139.000 138.979 138.626 138.549 138.320 137.904 137.472 137.053 136.278 135.943 135.614 134.783 133.951 133.119 132.814 133.120 133.986 135.277 136.856 137.898 138.572 139.000 139.000 138.447 137.692 136.873 135.659 133.234 132.234 131.385 131.000 131.000 131.000 131.000 131.000 131.451 132.000 131.944 131.215 131.083 130.624 130.098 129.952 129.134 129.018 129.006 128.995 129.119 129.897 129.954 130.480 131.273 131.915 131.902 131.974 132.000 132.000 132.000 132.000 132.653 132.811 133.121 133.901 135.122 136.682 138.560 139.699 140.000 140.000 140.000 140.000 140.000 140.000 139.871 138.468 136.336 135.120 135.073 135.780 136.092 136.426 136.258 136.000 136.000 136.000 135.618 135.737 136.117 136.613 137.406 137.095 137.000 137.000 137.000 137.000 137.000 136.601 136.333 136.169 135.606 135.343 134.641 133.822 133.255 133.243 133.230 133.741 134.000 133.772 133.178 133.165 133.152 133.139 133.126 133.113 133.100 133.024 133.000 133.000 133.000 133.000 133.000 133.000 133.000 133.000 133.000 132.967 132.946 132.933 132.920 132.896 132.163 132.549 132.868 132.855 132.842 132.829 132.283 131.910 131.735 131.516 131.065 131.000 130.873 130.512 129.971 129.728 129.687 129.674 129.447 128.954 128.659 127.881 126.515 125.244 124.584 124.571 124.558 124.545 124.329 123.902 123.496 122.301 121.394 120.588 119.782 118.976 118.170 117.735 117.775 118.000 118.020 118.314 117.490 116.234 114.564 112.239 109.034 106.091 105.000 105.000 104.887 104.081 102.551 102.419 102.670 101.931 99.018 97.453 97.000 97.000 97.172 97.978 98.000 97.459 97.041 97.011 97.043 97.030 97.636 98.004 97.993 98.037 98.843 99.648 100.027 100.314 101.066 101.872 103.280 103.936 104.290 105.081 105.754 105.824 106.227 106.596 106.472 105.825 104.463 104.000 104.256 104.875 105.668 105.695 105.292 105.000 105.000 105.000 105.796 106.000 106.000 106.554 108.599 109.392 109.338 109.966 111.128 111.489 111.073 111.000 111.000 111.000 111.000 111.000 111.000 111.000 111.121 111.344 111.032 111.000 111.000 111.000 111.000 111.000 111.000 111.157 111.270 111.382 111.980 112.000 112.000 111.299 109.958 109.000 109.000 109.000 109.000 109.000 109.000 109.000 109.000 109.000 109.000 109.000 109.000 109.000 109.000 109.000 109.000 109.000 109.000 109.000 109.000 109.000
 143.783 143.770 143.926 144.000 144.308 145.000 145.000 145.502 145.850 146.338 147.000 147.000 147.755 148.000 148.221 148.659 148.991 149.441 149.549 149.139 148.620 149.009 149.815 150.620 151.853 153.106 153.445 153.432 153.419 153.406 153.552 154.000 154.000 153.321 152.515 151.804 151.315 151.302 151.289 151.276 151.263 151.219 151.016 151.000 151.000 150.719 150.029 149.210 149.159 149.636 149.671 149.098 149.001 148.278 148.082 148.069 148.056 148.043 148.030 148.027 148.445 148.963 148.861 148.033 147.855 147.348 146.778 146.665 145.902 145.696 145.124 144.583 144.544 144.505 143.873 143.518 143.123 142.457 141.812 141.575 141.074 140.466 140.000 140.000 140.000 140.000 139.608 139.000 139.000 139.000 139.000 138.832 138.589 138.528 137.356 136.809 136.368 135.925 135.501 135.061 134.295 133.690 133.246 132.800 131.968 131.136 131.117 131.711 132.626 134.225 135.824 136.883 137.676 138.213 137.637 137.360 136.708 135.613 134.095 132.267 131.433 131.085 131.000 131.000 131.000 131.000 129.929 130.081 130.700 129.324 129.207 129.770 129.607 128.803 128.086 128.036 128.019 128.006 128.297 128.982 128.997 129.000 129.523 130.329 131.000 131.000 131.664 131.877 131.913 132.000 132.000 132.000 132.000 132.000 132.000 132.000 133.225 135.632 137.883 139.289 139.717 139.950 140.000 140.000 139.826 139.090 136.348 133.683 132.605 132.875 133.668 134.461 135.254 135.540 135.675 135.943 135.539 135.132 135.000 135.158 135.516 135.853 136.285 136.744 137.000 136.891 136.383 136.359 136.140 135.733 135.114 134.308 134.295 133.658 133.153 133.000 133.000 133.000 133.142 133.570 133.734 133.000 133.000 133.000 133.000 133.000 133.000 133.000 133.000 133.000 133.000 133.000 133.000 133.000 133.000 133.000 133.000 133.000 132.228 132.000 132.000 132.015 132.092 132.106 132.047 132.000 132.000 132.000 132.000 131.883 131.361 130.594 130.042 130.658 130.752 130.267 129.803 129.916 129.110 129.000 129.000 128.896 128.535 127.717 126.898 125.755 124.799 124.356 124.022 124.000 124.000 124.000 124.000 124.000 122.431 121.410 120.604 119.798 118.996 118.650 118.222 118.000 117.859 117.355 116.830 114.985 112.807 110.875 109.518 108.203 106.447 105.373 105.000 104.903 104.097 102.583 102.920 104.059 104.331 102.471 99.647 97.779 97.000 97.156 97.962 97.305 96.508 96.069 96.231 96.992 97.000 97.010 97.004 97.221 98.020 98.798 99.615 100.438 100.982 100.964 101.757 102.624 103.526 104.373 105.000 105.000 105.000 105.000 105.000 104.977 104.792 104.212 104.000 104.000 104.139 104.945 105.000 104.823 104.670 104.714 104.991 105.780 106.000 106.000 106.315 107.582 108.025 107.426 107.912 109.434 110.531 110.920 111.000 110.764 110.464 110.451 110.438 110.813 111.000 111.000 111.000 111.000 111.000 111.000 111.000 110.917 110.359 110.296 110.284 110.271 110.409 111.202 111.232 111.219 111.052 110.626 109.833 109.173 109.000 109.000 109.000 109.000 109.000 109.000 109.000 109.000 109.000 109.000 109.000 109.000 109.000 109.000 109.000 109.000 109.000 109.000 109.000
 142.798 142.971 143.515 143.869 144.214 144.718 144.705 144.911 145.516 146.214 146.697 146.976 147.464 147.614 147.741 148.092 148.554 148.562 148.549 148.332 148.098 148.507 149.296 150.089 151.075 151.917 151.891 151.865 152.207 152.406 152.490 152.761 152.735 152.474 152.181 151.725 150.944 150.381 150.290 150.277 150.264 150.168 149.539 149.449 149.423 149.063 148.346 148.182 147.528 147.376 147.353 147.242 147.216 146.408 145.625 145.207 145.168 145.129 145.090 145.051 145.014 144.973 144.935 144.896 144.857 144.393 143.853 143.827 143.801 143.099 142.327 141.861 141.848 141.836 141.697 141.205 140.797 140.784 140.771 140.201 140.000 140.000 140.000 140.000 140.000 140.000 139.624 138.937 138.645 138.628 138.384 137.798 137.091 136.701 135.402 134.754 134.336 133.808 133.023 132.997 132.651 132.008 131.313 130.817 129.985 129.552 129.902 130.695 131.595 133.193 134.792 135.523 135.990 136.591 136.322 135.761 135.403 134.546 132.922 131.297 131.050 130.541 130.201 130.188 130.174 129.486 128.594 128.250 128.117 127.220 127.194 128.398 128.623 128.043 128.000 128.000 128.000 128.000 128.000 128.089 128.895 129.000 129.507 130.291 130.916 130.903 130.970 131.000 131.296 131.851 131.838 131.825 131.812 131.799 131.824 131.996 132.000 132.740 134.196 136.082 137.857 139.101 139.762 139.858 139.021 136.776 133.811 132.427 132.000 132.158 132.622 133.064 133.792 134.307 134.824 135.462 135.046 135.000 134.728 134.463 134.450 134.437 134.740 135.372 136.011 136.324 136.012 135.505 135.347 134.949 134.130 133.312 133.295 133.111 133.000 133.000 133.000 133.000 133.000 133.091 133.144 133.000 133.000 133.000 133.000 133.000 133.000 133.000 133.000 133.000 133.000 133.000 133.000 133.000 133.000 133.000 133.000 133.000 132.244 132.000 132.000 132.174 132.980 132.917 132.360 132.000 131.971 131.843 131.830 131.310 130.573 130.000 130.000 130.000 130.000 129.662 129.392 129.665 129.088 129.212 129.167 128.708 127.902 127.096 126.291 125.485 125.000 124.873 124.067 124.000 123.753 123.533 123.521 123.508 122.346 121.426 120.822 120.358 119.565 119.115 118.396 118.000 117.784 116.965 115.648 113.863 111.972 110.593 110.356 110.139 108.337 106.301 105.000 104.919 104.113 103.690 104.181 104.862 104.959 104.684 101.793 98.299 96.423 97.017 97.102 97.024 96.443 96.000 96.010 96.042 97.545 98.559 98.599 98.000 98.000 98.027 99.280 100.432 100.716 100.034 100.840 102.220 103.780 104.898 105.000 105.000 104.881 104.812 104.799 104.693 103.874 103.760 103.876 104.000 104.089 104.658 104.696 104.314 104.000 104.152 104.958 105.482 105.836 106.000 106.108 106.573 106.911 107.000 107.000 107.634 110.009 110.414 110.490 110.270 110.000 110.000 110.000 110.280 110.413 110.562 110.953 110.448 110.361 110.348 110.335 110.288 110.027 110.000 110.000 110.000 110.135 110.941 111.000 111.000 111.000 110.835 110.029 109.223 109.000 109.000 109.000 109.000 109.000 109.000 109.000 109.000 109.000 109.000 109.000 109.000 109.000 109.000 109.000 109.000 109.000 109.000 109.000
 142.052 142.858 143.000 143.350 143.583 143.156 143.117 143.772 144.699 145.537 146.073 146.588 146.897 147.000 147.202 147.589 147.576 147.563 147.550 147.537 147.524 147.511 148.280 149.073 149.866 150.459 150.446 150.433 150.679 151.065 151.394 151.359 150.836 150.710 150.684 150.399 149.567 148.735 148.580 148.205 147.792 147.659 146.814 146.675 146.233 145.479 144.745 144.693 144.523 144.442 144.403 144.229 143.470 143.309 142.676 142.208 142.169 142.131 142.092 142.053 142.014 141.992 141.979 141.966 141.953 141.940 141.927 141.914 141.901 141.302 141.000 141.000 141.000 141.000 140.311 140.000 140.000 140.000 140.000 140.000 140.000 140.000 139.962 139.723 139.693 139.503 138.975 138.143 137.311 136.968 136.263 135.418 134.573 133.729 133.236 133.102 132.656 131.825 131.024 130.998 131.303 131.024 130.068 128.867 128.492 128.421 128.604 129.247 130.563 132.162 133.309 134.021 134.434 134.635 134.609 134.370 134.279 133.579 131.954 130.329 129.639 129.307 128.903 128.376 128.350 128.196 128.060 127.652 127.098 127.000 127.000 127.679 128.041 128.000 128.000 128.000 128.000 128.000 128.000 128.072 128.851 128.986 129.463 129.950 130.000 130.000 130.636 130.941 131.000 131.000 131.000 131.000 131.000 131.000 131.127 131.749 131.761 131.314 131.283 132.137 133.832 135.951 137.828 138.267 136.822 133.882 132.317 132.000 132.000 132.000 132.000 132.000 132.370 133.015 133.676 134.072 134.449 134.489 134.237 134.000 134.000 134.000 133.582 133.945 134.738 135.386 135.373 135.088 134.633 133.966 133.147 132.328 132.850 133.000 133.000 133.000 133.000 133.000 133.000 133.000 133.000 133.000 133.000 133.000 133.000 133.000 133.000 133.000 133.000 133.000 133.000 133.000 133.000 133.000 133.000 132.999 132.986 132.973 132.250 132.000 132.000 132.145 132.875 132.206 132.000 131.950 131.696 131.006 131.000 131.000 130.589 130.000 130.000 130.000 130.000 130.000 129.754 128.985 128.744 129.146 129.034 128.480 127.918 127.112 126.307 125.501 125.000 124.935 124.475 124.122 123.471 123.000 122.933 122.534 122.123 121.442 121.000 120.830 120.024 119.218 118.412 118.000 117.800 116.992 115.891 114.811 113.472 112.345 112.395 112.984 110.732 107.762 105.356 104.234 104.031 104.000 104.482 105.231 105.738 105.083 102.176 98.440 96.043 96.121 96.108 96.096 96.038 96.646 98.031 98.829 100.437 100.395 99.243 97.985 97.959 98.728 100.081 100.440 99.887 100.017 100.744 101.519 102.695 103.969 104.709 104.814 104.281 104.000 103.946 103.726 103.090 102.835 103.243 103.735 103.722 103.709 103.915 104.000 104.000 104.090 104.607 104.907 105.554 106.000 106.067 106.408 106.874 107.000 107.000 107.586 110.000 110.000 110.000 110.000 110.000 110.000 110.000 109.631 109.676 110.102 110.364 110.050 110.000 110.000 110.000 110.000 110.000 110.000 110.000 110.000 110.031 110.227 110.794 110.581 110.207 110.165 110.008 109.239 109.000 109.000 109.000 109.000 109.000 109.000 109.000 109.000 109.000 109.000 109.000 109.000 109.000 109.000 109.000 109.000 109.000 109.000 109.000
 142.021 142.456 142.516 142.374 141.676 140.157 140.118 140.549 141.997 144.009 145.687 145.965 146.444 146.615 146.602 146.589 146.576 146.563 146.306 146.074 146.122 146.492 146.880 147.837 148.850 149.559 149.994 150.000 150.000 150.166 150.265 149.743 148.912 148.711 148.397 147.582 146.217 145.359 145.162 144.981 144.593 143.987 143.743 143.142 142.745 142.539 142.286 141.592 141.482 141.443 141.404 141.349 141.224 141.192 141.629 142.000 142.000 142.000 142.000 142.000 141.611 141.000 141.000 141.000 141.000 141.000 141.000 141.000 141.000 141.000 141.000 141.000 141.000 141.000 140.327 140.000 140.000 139.980 139.795 139.759 139.616 139.465 139.319 138.487 138.163 137.504 136.659 135.815 134.970 134.125 133.280 132.584 132.074 131.585 131.564 131.283 130.860 130.316 129.520 129.910 130.305 130.041 128.983 127.448 127.435 127.422 127.409 127.770 128.914 130.500 131.841 132.836 133.331 133.318 133.305 133.292 133.279 132.612 130.987 129.362 128.482 127.782 127.331 127.189 127.176 127.163 127.150 127.084 127.000 127.000 127.000 127.052 127.458 128.000 128.000 128.000 128.000 128.000 128.000 128.000 128.000 128.669 129.000 129.261 129.917 129.904 129.967 130.443 130.865 130.852 130.839 130.826 130.813 130.800 130.787 130.774 130.942 131.000 130.902 130.771 130.995 132.097 133.772 134.416 133.570 132.000 132.000 131.763 131.606 131.593 131.580 131.568 131.555 131.790 132.182 132.552 132.943 133.328 133.477 133.621 133.945 133.491 133.123 133.213 133.529 133.852 134.333 134.361 133.801 133.217 132.842 132.036 132.770 133.000 133.000 133.000 133.000 133.000 133.000 133.000 133.000 133.000 133.000 133.000 133.000 133.000 133.000 133.000 132.395 132.076 132.064 131.972 131.183 131.050 131.518 131.997 131.974 131.971 131.989 132.000 132.000 132.000 132.000 132.000 131.934 131.552 131.000 131.000 131.000 130.893 130.487 130.000 130.000 130.000 130.000 129.890 129.498 128.689 128.111 128.000 127.853 127.751 127.957 127.444 126.698 125.342 124.198 124.172 124.146 123.724 123.267 122.852 122.456 122.035 121.629 121.221 121.000 120.846 120.040 119.234 118.428 118.000 117.816 117.010 116.204 115.787 114.576 112.427 110.253 109.882 107.660 105.583 104.399 104.000 104.000 103.488 102.943 102.433 101.789 100.251 98.361 96.802 95.739 95.122 95.109 95.096 95.083 95.425 96.122 96.131 96.867 96.520 96.019 96.000 96.000 96.779 97.558 97.964 98.393 100.000 100.000 100.614 101.368 102.029 102.595 103.623 103.825 103.813 103.595 102.987 102.804 102.249 102.358 102.735 102.748 102.970 103.703 104.000 104.000 104.000 104.000 104.732 105.333 105.742 106.089 106.555 106.897 107.000 106.829 107.152 109.949 110.000 110.000 110.000 109.888 109.452 109.439 109.159 109.179 109.544 110.000 110.000 110.000 110.000 110.000 110.000 110.000 110.000 110.000 110.000 110.000 110.000 110.167 110.106 110.000 109.893 109.232 109.043 109.000 109.000 109.000 109.000 109.000 109.000 109.000 109.000 109.000 109.000 109.000 109.000 109.000 109.000 109.000 109.000 109.000 109.000 109.000
 141.549 140.717 140.364 139.910 139.108 138.000 138.000 138.000 139.571 142.155 144.416 145.485 145.629 145.616 145.603 145.590 145.577 145.249 144.811 144.691 145.073 145.483 145.499 146.312 147.498 148.628 149.420 148.992 148.842 148.816 148.473 147.142 146.297 145.671 144.951 144.018 142.918 142.073 141.416 141.437 141.727 141.504 141.478 141.300 141.213 141.200 141.170 141.018 141.000 141.000 141.000 141.000 141.000 141.000 141.045 141.070 141.057 141.044 141.031 141.018 141.003 141.000 141.000 141.000 141.000 141.000 140.985 140.915 140.902 140.889 140.876 140.863 140.843 140.698 140.106 139.723 139.596 139.495 138.663 138.353 137.746 137.200 137.056 136.211 135.585 134.840 134.009 133.223 132.681 131.884 131.276 130.858 130.591 130.578 130.565 129.970 129.539 129.424 129.000 129.402 129.487 129.276 128.555 127.000 127.000 126.630 126.409 126.801 128.116 129.728 130.909 131.508 131.851 132.259 131.685 131.585 131.559 131.139 130.107 129.095 128.271 127.465 127.000 127.000 127.000 127.000 127.000 127.000 127.000 127.000 127.000 127.000 127.029 127.060 127.047 127.034 127.631 128.000 128.000 128.000 128.000 128.653 129.000 129.000 129.000 129.000 129.608 129.878 129.865 129.853 129.840 129.827 129.814 129.865 130.000 130.000 130.565 130.749 130.569 130.392 130.975 131.000 131.395 131.671 131.658 131.646 131.633 131.244 131.000 131.000 131.000 131.000 131.000 131.000 131.131 131.516 131.503 131.817 132.201 132.742 133.414 133.049 133.000 133.000 133.000 132.974 132.769 132.722 132.512 132.335 132.276 132.016 132.224 132.284 132.538 133.000 133.000 133.000 133.000 133.000 133.000 133.000 133.000 132.476 132.141 132.129 132.083 131.346 131.121 130.657 130.128 130.099 130.043 129.364 129.031 129.289 130.069 130.849 131.629 131.896 131.891 131.922 131.909 131.896 131.403 131.000 131.000 131.000 131.000 130.427 130.000 130.000 130.000 129.814 129.754 129.439 128.786 128.000 128.000 127.804 127.380 127.162 127.634 127.328 126.589 125.080 123.692 123.381 123.049 123.000 123.000 122.697 122.000 122.000 121.280 121.000 120.824 120.394 120.025 119.250 118.767 118.379 117.832 117.026 116.220 115.622 114.425 112.343 109.679 108.324 106.592 104.998 104.000 103.976 103.361 103.080 102.550 101.744 100.926 99.981 98.491 96.963 95.714 95.000 95.000 95.000 95.000 95.022 95.172 95.930 96.023 96.009 96.000 96.000 96.000 96.763 97.026 97.433 98.419 99.974 100.077 100.577 100.877 100.712 100.191 102.361 102.826 102.813 102.800 102.752 102.115 102.000 102.000 102.000 102.075 102.881 103.687 104.000 104.000 104.000 104.000 104.716 105.000 105.199 105.648 105.975 106.424 106.556 106.349 106.577 109.409 109.889 109.704 109.478 109.376 109.001 109.000 109.000 109.000 109.222 110.000 110.000 110.000 110.000 110.000 110.000 110.000 110.000 110.000 110.000 110.000 110.000 110.000 110.000 109.754 109.172 109.014 109.000 109.000 109.000 109.000 109.000 109.000 109.000 109.000 109.000 109.000 109.000 109.000 109.000 109.000 109.000 109.000 109.000 109.000 108.985 108.922
 139.567 138.919 138.292 138.000 138.000 138.000 138.000 138.000 138.615 140.193 142.781 144.380 144.629 144.616 144.603 144.590 144.577 144.167 144.000 144.316 145.000 145.000 145.000 145.540 146.327 146.990 147.323 146.539 145.934 145.411 144.723 143.547 142.684 141.826 141.234 140.921 140.629 140.358 140.108 140.121 140.265 140.287 140.888 141.000 141.000 141.000 141.000 141.000 141.000 141.000 141.000 141.000 141.000 141.000 141.000 141.000 141.000 141.000 141.000 141.000 141.000 140.992 140.961 140.934 140.908 140.859 140.604 139.830 139.804 139.711 139.629 139.559 139.376 138.650 138.361 137.883 137.395 137.298 136.453 135.608 134.884 134.467 134.378 133.782 133.695 133.176 132.460 132.000 132.000 131.270 130.795 130.398 130.000 130.000 129.670 129.240 128.829 128.526 128.513 128.500 128.487 128.264 127.732 127.000 127.000 126.376 126.000 126.330 127.442 128.533 129.789 130.646 131.088 131.296 131.037 130.517 130.280 129.972 129.229 129.022 128.287 127.481 127.000 127.000 127.000 127.000 127.000 127.000 127.000 127.000 127.000 127.000 127.000 127.000 127.000 127.000 127.013 127.418 127.996 128.000 128.000 128.609 128.944 128.931 128.918 128.905 128.892 128.879 128.866 128.865 128.982 129.000 129.000 129.247 129.812 129.982 130.000 130.000 130.337 131.000 131.000 131.000 131.000 131.000 131.000 131.000 131.000 131.000 131.000 131.000 131.000 131.000 131.000 131.000 131.000 130.982 130.581 130.491 130.933 131.587 131.941 132.368 132.426 132.413 132.400 132.350 132.036 132.000 132.000 132.000 132.000 132.000 132.000 132.390 132.824 133.000 133.000 133.000 132.552 132.207 132.194 132.181 131.504 131.216 130.791 130.258 130.211 129.380 129.181 129.121 128.836 128.103 128.077 127.389 127.026 127.274 128.041 128.808 129.575 129.845 130.110 130.776 130.811 130.868 130.884 130.914 131.000 131.000 131.000 130.443 130.000 129.965 129.786 129.169 129.000 128.899 128.584 128.000 128.000 127.384 127.000 126.924 126.618 125.799 125.222 124.825 124.445 123.937 123.131 123.000 123.000 122.713 122.000 122.000 121.296 120.736 120.322 120.000 120.000 119.266 119.000 118.654 117.848 117.042 116.236 115.431 114.249 112.578 110.714 109.111 107.512 105.620 103.845 103.247 103.042 103.000 102.566 101.760 100.954 100.148 98.132 96.221 94.866 94.123 94.110 94.097 94.536 95.000 95.006 95.041 95.032 95.020 95.333 96.000 96.000 96.747 97.553 98.358 99.164 99.970 100.776 100.482 100.075 100.168 100.852 101.515 101.865 102.000 101.955 101.788 101.775 101.762 101.749 101.803 102.059 102.865 103.671 104.000 104.000 104.000 104.000 104.700 105.000 105.000 105.070 105.537 105.883 106.000 105.844 105.765 106.997 108.906 109.214 109.000 109.000 109.000 109.000 109.000 109.000 109.083 109.396 109.887 110.000 110.000 110.000 110.000 110.000 110.000 110.000 110.000 110.000 110.000 109.477 109.221 109.147 109.000 109.000 109.000 109.000 109.000 109.000 109.000 109.000 109.000 109.000 109.000 109.000 109.000 109.000 109.000 109.000 109.000 109.000 109.000 108.960 108.658 107.828
 138.010 138.000 138.000 138.000 138.000 138.000 138.000 138.000 138.000 138.804 141.421 143.296 143.629 143.795 144.000 144.000 144.000 144.000 144.000 144.162 144.526 144.513 144.500 144.473 144.421 144.309 143.823 142.991 142.133 141.276 140.518 140.159 139.822 139.506 139.344 139.461 140.000 140.000 140.000 140.000 140.000 140.008 140.201 140.723 141.000 140.797 140.188 140.175 140.162 140.149 139.891 139.246 139.220 139.827 140.084 140.071 140.058 140.045 140.032 140.019 140.006 139.839 139.007 138.935 138.883 138.453 137.786 137.747 137.708 137.139 136.704 136.412 135.702 135.676 135.134 134.812 134.799 134.743 133.924 133.262 133.000 133.000 133.000 133.000 133.000 132.510 132.000 132.000 132.000 131.286 130.480 129.871 129.645 129.974 129.257 129.000 128.645 128.000 128.000 127.614 127.488 127.292 127.000 127.000 126.547 126.166 126.000 126.220 127.026 127.832 128.866 129.789 130.332 130.319 130.306 129.626 129.281 128.988 128.255 128.242 127.532 127.107 127.000 127.000 127.000 127.000 127.000 127.000 127.000 127.000 127.000 127.000 127.000 127.000 127.000 127.000 127.000 127.003 127.203 128.000 128.000 128.000 128.000 127.984 127.921 127.985 128.000 128.000 128.000 128.058 128.735 128.828 128.815 128.860 129.077 129.701 129.931 130.000 130.321 131.000 131.000 131.000 131.000 131.000 131.000 131.000 131.000 131.000 131.000 131.000 131.000 130.656 130.556 130.543 130.530 130.506 130.087 130.000 130.210 130.465 130.476 130.816 130.853 131.102 131.401 131.437 131.929 132.000 132.000 132.000 132.000 132.000 132.000 132.150 132.272 132.259 132.246 132.233 131.662 131.207 131.057 130.382 130.205 129.659 129.229 128.956 128.233 128.123 127.530 127.156 127.115 127.019 126.232 126.035 125.567 125.001 125.038 125.797 126.561 126.871 127.141 127.862 128.629 129.396 129.652 129.972 130.734 130.834 130.832 130.376 130.000 129.847 129.041 129.000 128.860 128.463 128.000 128.000 127.765 127.276 127.000 126.788 125.989 125.474 125.139 124.565 124.000 123.953 123.147 123.000 123.000 122.729 122.000 122.000 121.312 120.506 120.000 120.000 120.000 119.282 118.696 118.273 117.864 117.058 116.252 115.090 113.860 112.780 111.721 109.601 107.834 106.114 104.397 103.000 103.000 102.526 102.124 101.776 100.945 99.474 97.774 96.104 94.746 94.000 94.000 94.000 94.040 94.072 94.143 94.900 95.000 95.000 95.313 96.000 96.000 96.731 97.537 98.323 99.078 99.871 100.664 100.891 100.552 100.000 100.000 100.000 101.088 101.814 101.635 101.000 101.000 101.000 101.000 101.237 102.043 102.849 103.655 104.000 104.000 104.000 104.000 104.684 105.000 105.000 104.959 104.621 105.283 105.556 105.367 104.938 104.548 107.478 108.771 109.000 109.000 109.000 108.568 108.428 108.415 108.516 108.998 109.802 110.000 110.000 110.000 110.000 110.000 109.553 109.286 109.273 109.261 109.248 108.567 108.222 108.209 108.196 108.183 108.170 108.581 109.000 109.000 109.000 109.000 109.000 109.000 109.000 109.000 109.000 109.000 109.000 109.000 109.000 109.000 108.958 108.128 106.736 105.927
 137.786 137.773 137.900 138.000 137.948 137.721 137.708 137.695 137.815 138.450 140.082 142.212 142.868 143.277 143.705 144.000 144.000 144.000 143.786 143.539 143.483 143.077 142.649 141.953 141.257 140.789 140.378 139.574 139.040 138.678 138.486 138.972 139.000 139.000 139.000 139.059 139.313 139.854 140.000 140.000 140.000 140.000 140.000 139.659 139.429 139.355 139.153 138.475 137.776 137.056 136.510 136.371 136.332 136.360 136.788 137.491 138.117 138.092 138.066 138.040 138.014 137.856 137.024 136.936 136.360 135.549 134.929 134.916 134.903 134.890 134.539 134.000 134.000 134.000 134.000 134.000 134.000 133.979 133.356 133.240 133.253 133.265 133.263 133.040 133.000 132.526 132.000 132.000 132.000 131.302 130.496 129.813 129.476 129.954 129.273 129.000 128.661 128.000 128.000 127.243 127.000 127.000 127.000 127.000 126.214 126.000 126.000 126.204 127.004 127.303 127.980 128.494 128.666 128.640 128.614 128.396 127.952 127.466 127.255 127.242 127.073 127.000 127.000 127.000 127.000 127.000 127.000 127.000 127.000 127.000 127.000 127.498 127.926 127.791 127.035 127.000 127.000 127.000 127.190 127.993 128.000 128.000 128.000 127.783 127.021 127.750 127.893 127.880 127.867 127.846 127.704 127.656 127.804 128.221 128.789 128.776 129.457 129.875 130.305 131.000 131.000 131.000 131.000 131.000 131.000 131.000 130.725 130.621 130.608 130.595 130.582 130.124 130.000 130.000 130.000 130.000 130.000 130.000 130.000 129.877 129.453 129.440 129.056 129.016 129.204 129.230 129.997 130.519 130.699 130.673 130.647 130.622 130.596 130.570 130.544 130.518 130.492 130.467 129.899 129.415 129.359 129.189 128.532 128.223 127.820 127.236 127.118 126.392 126.128 125.703 125.131 125.104 125.046 124.413 123.591 123.002 122.976 122.950 123.559 124.313 124.826 124.918 125.625 126.382 126.711 127.346 128.825 129.605 129.786 129.914 130.000 129.863 129.057 129.000 128.446 128.000 128.000 128.000 127.222 127.000 126.875 126.535 125.999 125.709 125.242 124.581 124.000 123.969 123.163 123.000 122.798 122.400 121.971 121.576 121.163 120.768 120.378 119.951 119.503 119.129 118.492 118.000 117.880 117.074 116.268 114.925 113.657 112.851 112.045 109.717 107.866 106.254 104.642 103.031 102.399 102.091 102.000 101.625 100.171 99.211 97.748 96.503 95.420 94.000 94.000 94.000 94.000 94.000 94.004 94.041 94.696 95.000 95.297 95.995 95.998 96.715 97.498 97.962 98.123 98.861 99.649 99.892 99.922 99.978 99.858 99.840 100.407 100.814 100.801 100.789 100.776 100.763 100.854 101.163 101.759 102.785 103.639 104.000 104.000 104.000 104.000 104.668 105.000 104.890 104.544 104.063 104.398 104.557 104.544 104.470 104.041 105.470 107.315 108.480 108.467 108.454 108.107 108.000 108.000 108.070 108.382 109.163 109.364 109.351 109.338 109.325 109.312 108.678 108.287 108.274 108.261 108.248 108.082 108.000 108.000 108.000 108.000 108.000 108.077 108.395 109.000 109.000 109.000 109.000 109.000 109.000 109.000 109.000 109.000 109.000 109.000 108.991 108.961 107.800 106.571 105.775 105.079
 136.786 136.946 137.431 137.842 137.821 137.015 137.000 137.000 137.403 138.349 139.686 141.285 142.257 142.617 142.748 143.183 143.157 142.846 141.989 141.158 141.032 140.174 139.659 138.971 138.282 137.923 137.897 137.963 138.000 138.000 138.053 138.360 138.839 139.000 139.000 139.000 139.000 139.237 139.293 139.002 138.534 138.508 138.482 137.846 137.103 136.606 136.562 136.381 135.152 134.005 133.411 133.372 133.333 133.898 134.645 135.425 136.118 136.092 136.742 136.526 136.015 135.868 135.039 134.914 134.356 133.885 133.869 133.912 133.904 133.891 133.878 133.865 133.852 133.966 134.000 134.000 134.000 134.000 134.000 134.000 134.000 134.000 133.960 133.154 133.000 132.542 132.000 132.000 132.000 131.318 130.513 130.000 130.000 130.000 129.289 129.000 128.677 128.000 128.000 127.259 127.000 127.000 127.000 127.000 126.230 126.000 126.000 125.962 125.772 126.246 126.965 127.346 127.188 126.641 126.615 126.589 126.756 127.000 127.000 127.000 127.000 127.000 127.000 127.000 127.000 127.000 127.000 127.000 127.000 127.000 127.000 127.046 127.074 127.053 127.003 127.000 127.547 127.990 127.996 127.968 127.987 128.000 128.000 127.799 127.000 127.000 126.934 126.931 126.969 126.813 125.866 125.657 126.622 127.854 128.000 128.000 128.517 129.355 130.289 131.000 131.000 131.000 130.839 130.673 130.660 130.647 130.167 130.000 130.000 130.000 130.000 130.000 130.000 130.000 130.000 130.000 130.000 130.000 130.000 129.787 128.979 128.077 126.863 125.988 125.607 125.604 126.358 127.112 127.400 127.348 127.297 127.245 127.193 127.142 127.310 127.779 127.740 127.701 127.546 127.416 127.390 127.364 126.589 126.312 125.926 125.261 125.235 124.430 124.183 123.767 123.132 123.106 123.080 122.440 121.608 121.002 120.977 120.951 120.925 121.349 122.129 122.848 122.822 123.469 124.249 125.315 126.809 127.590 128.487 129.329 129.808 129.699 129.057 129.000 128.462 128.000 127.959 127.730 127.168 127.000 126.626 126.000 126.000 125.209 125.000 124.597 124.000 123.985 123.179 123.000 122.567 122.000 121.977 121.566 121.172 121.000 120.732 119.926 119.120 119.000 118.793 118.416 117.896 117.090 116.284 115.293 114.329 113.447 112.102 110.283 108.216 106.286 104.794 103.786 102.397 102.000 101.696 100.970 100.002 99.196 98.291 97.081 95.556 94.000 94.000 93.423 93.085 93.306 94.000 94.000 94.669 95.000 95.002 95.087 95.893 96.677 96.978 97.293 97.939 97.994 98.659 98.950 99.299 99.740 99.041 99.000 99.467 99.883 100.000 100.000 100.000 100.000 100.399 101.000 101.022 102.634 103.623 104.000 104.000 104.014 104.298 104.779 105.000 104.736 104.000 104.000 104.000 104.000 104.000 104.000 104.000 103.648 105.562 107.648 108.000 108.000 108.000 108.000 107.794 107.498 107.978 108.291 108.364 108.351 108.339 108.326 108.313 108.118 108.000 107.842 107.261 107.249 107.236 107.223 107.210 107.197 107.184 107.171 107.159 107.422 108.133 108.120 108.107 108.094 108.363 109.000 109.000 109.000 109.000 109.000 108.859 108.044 107.225 106.406 105.622 105.221 105.979
 135.787 136.519 136.893 137.267 137.572 136.753 136.709 136.873 137.387 138.193 138.999 140.323 141.016 141.236 141.034 140.367 140.315 139.624 138.320 137.276 137.550 137.098 137.002 136.987 137.000 137.000 137.000 137.305 137.714 138.000 138.000 138.000 138.270 138.358 138.345 138.332 138.319 138.306 137.895 137.190 136.406 135.776 136.322 135.863 135.031 134.733 135.991 135.327 133.917 132.721 132.137 132.125 132.112 132.163 132.630 133.164 133.245 133.976 134.090 134.052 133.724 132.990 132.964 132.248 131.956 131.943 132.050 132.775 132.879 132.891 132.835 132.752 132.847 133.610 133.826 133.813 133.838 133.999 134.000 134.000 134.000 134.000 133.983 133.411 133.110 132.558 132.000 131.982 131.695 131.211 130.529 130.000 129.966 129.626 129.173 128.777 128.375 128.000 128.000 127.275 127.000 126.824 126.463 126.450 126.108 125.678 125.411 125.227 124.408 125.156 125.572 125.693 125.600 125.321 125.308 125.731 126.120 126.438 127.000 127.000 127.000 127.000 127.000 127.000 127.000 127.000 127.000 127.000 127.000 127.000 126.363 126.088 125.779 125.124 125.098 126.494 127.012 127.010 126.842 126.038 127.490 127.940 127.945 127.748 126.929 126.907 126.355 126.360 126.654 125.812 124.059 123.658 124.945 126.898 127.790 127.777 127.920 128.702 129.750 130.473 130.679 130.700 130.345 130.000 130.000 130.000 130.000 130.000 130.000 130.000 130.000 130.000 130.000 130.000 130.000 130.000 130.000 129.703 129.480 129.164 127.901 126.264 124.274 123.071 122.804 122.791 123.068 123.324 123.402 123.350 123.299 123.247 123.195 123.143 123.170 123.368 123.911 123.937 124.282 124.625 124.586 124.548 124.384 123.859 123.382 123.130 122.392 121.552 121.276 120.863 120.030 119.226 119.162 119.094 119.038 119.003 118.989 118.976 118.963 119.384 120.162 120.848 120.823 121.454 122.234 123.283 124.794 125.574 127.041 128.135 128.616 128.612 128.763 128.769 128.361 128.000 127.866 127.060 127.000 126.830 126.436 126.000 126.000 125.225 125.000 124.613 124.000 124.000 123.195 123.000 122.771 122.360 122.000 122.000 121.360 121.000 120.748 119.942 119.136 119.000 119.000 118.718 117.912 117.106 116.300 115.495 114.689 113.765 112.154 110.542 108.774 107.039 105.587 104.794 103.242 101.900 101.135 100.824 100.018 99.212 97.909 96.690 95.588 93.990 93.273 93.037 93.000 93.235 94.000 94.000 94.022 94.471 95.000 95.071 95.877 96.000 96.489 97.000 97.100 97.906 98.000 98.518 99.000 99.000 99.000 99.000 99.000 99.354 100.032 100.203 100.223 100.236 100.441 100.837 101.272 102.659 103.607 104.000 104.000 104.025 104.830 105.000 105.000 104.752 104.000 104.000 104.000 103.791 103.545 103.532 103.519 103.498 104.496 106.068 107.468 107.455 107.442 107.429 107.276 107.058 107.370 107.378 107.365 107.352 107.339 107.326 107.313 107.300 107.288 107.219 107.000 107.000 107.000 107.000 107.000 107.000 107.000 107.000 107.000 107.038 107.075 106.353 106.215 106.628 107.106 107.228 107.964 108.043 108.529 109.000 108.749 107.128 106.241 105.441 105.333 105.950 105.997
 134.984 135.565 136.169 136.496 136.362 135.756 135.709 136.089 136.737 137.575 138.634 138.872 138.894 138.549 137.696 136.374 136.661 136.346 135.631 135.127 135.547 135.926 136.000 136.224 136.615 137.000 137.000 137.000 136.643 136.232 136.193 136.154 136.115 136.408 136.691 136.752 137.276 137.307 136.746 135.927 135.108 134.289 135.013 134.651 134.434 135.025 135.994 135.199 133.278 131.738 131.138 131.125 131.112 131.099 131.124 131.146 131.123 131.135 131.102 131.064 131.022 131.000 131.000 131.000 131.000 131.000 131.000 131.000 131.656 131.891 131.582 131.124 131.809 132.594 132.924 133.000 133.173 133.979 134.000 134.000 134.000 134.000 134.000 134.000 133.568 132.890 132.329 132.317 131.811 131.258 130.718 130.291 129.960 129.493 129.139 128.731 128.325 128.000 128.000 127.291 127.000 126.680 126.000 126.000 126.000 125.456 125.000 124.844 124.038 124.286 124.360 124.347 124.458 124.994 125.000 125.178 125.576 126.215 127.000 127.000 127.000 127.000 127.000 127.000 127.000 127.000 127.000 126.764 126.057 125.329 125.132 125.088 125.052 125.000 125.000 125.748 125.509 125.351 125.998 125.985 125.972 126.515 126.946 126.764 125.945 125.907 125.894 125.881 125.696 124.988 122.570 122.000 123.188 125.259 126.798 126.964 127.493 127.752 127.996 128.789 129.582 129.902 130.000 130.000 130.000 130.000 130.000 130.000 130.000 130.000 130.000 129.685 129.558 129.545 129.532 129.519 129.506 128.924 128.090 127.039 125.389 123.738 122.173 121.416 121.403 121.390 121.377 120.964 120.702 120.676 120.619 120.038 119.898 119.859 119.820 119.801 119.961 119.939 119.996 120.281 120.784 120.732 120.680 120.546 120.151 119.507 119.362 118.570 118.278 117.880 117.189 117.109 117.082 117.056 117.412 118.002 117.989 117.995 118.000 118.397 118.938 118.925 118.912 119.475 120.270 121.347 122.788 123.692 124.954 126.026 126.617 126.680 127.460 127.701 127.757 127.744 127.645 127.055 127.000 126.464 126.000 126.000 126.000 125.241 125.000 124.629 124.000 124.000 123.545 123.177 123.000 122.889 122.469 122.089 121.376 120.779 120.237 119.441 119.068 119.000 119.000 118.734 117.928 117.122 116.316 115.511 114.511 113.196 112.122 111.069 109.669 108.071 106.506 105.110 103.515 101.903 101.000 100.840 100.034 99.228 97.844 96.290 94.922 94.005 93.198 93.000 93.000 93.016 93.060 93.048 93.650 94.443 95.000 95.055 95.846 95.990 96.453 96.960 97.079 97.818 97.971 98.448 98.880 98.867 98.854 98.841 98.920 99.338 100.172 101.149 101.223 101.103 100.724 100.517 101.695 102.723 103.591 104.000 104.000 104.009 104.814 105.000 105.000 104.768 104.000 104.000 103.721 103.304 103.000 103.032 103.420 103.838 104.491 105.609 107.000 107.000 107.000 107.000 107.000 107.000 107.000 107.000 107.000 107.000 107.000 107.000 107.000 107.000 107.000 107.000 107.000 107.000 107.000 107.000 107.000 107.000 107.000 106.476 106.159 106.147 106.127 106.017 106.000 106.045 106.082 106.075 106.107 106.087 106.560 107.036 106.900 106.076 105.273 105.000 105.000 105.131 105.877
 134.502 134.710 134.762 134.749 134.701 134.463 134.419 134.227 134.406 135.333 136.906 136.162 135.682 135.146 134.491 134.002 134.465 134.830 135.000 135.000 135.026 135.831 136.000 136.000 135.988 135.896 135.426 135.311 134.326 133.233 133.245 133.703 134.181 134.861 135.548 136.114 136.920 136.497 135.762 134.943 134.230 134.013 134.183 134.101 134.079 134.377 135.170 134.392 132.391 130.754 130.138 130.125 130.112 130.658 131.000 131.000 131.000 131.000 131.000 131.000 131.000 131.000 131.000 131.000 131.000 131.000 131.000 131.000 130.933 130.892 130.918 131.000 131.000 131.739 132.545 133.065 133.324 133.970 134.000 134.000 134.000 134.000 134.000 134.000 134.000 133.720 133.328 133.334 133.061 131.966 131.213 130.851 130.385 130.060 129.337 129.000 128.851 128.471 128.484 127.804 127.256 126.696 126.000 126.000 126.000 125.472 125.000 124.860 124.054 123.529 123.717 124.000 124.169 124.975 125.540 125.704 126.110 126.784 127.000 127.000 127.000 127.000 127.000 127.000 127.000 127.000 127.000 126.742 125.936 125.130 124.393 124.089 124.076 124.063 124.050 124.742 125.012 125.003 124.998 124.985 124.972 125.478 125.911 125.791 125.038 125.000 125.000 125.000 125.000 125.000 122.618 121.898 122.628 124.227 125.809 126.601 126.913 127.000 127.178 127.773 128.566 129.557 130.000 130.000 130.000 130.000 129.749 129.623 129.610 129.597 129.584 129.161 129.000 129.000 128.937 128.547 128.138 127.153 125.723 124.161 122.951 121.763 121.179 121.000 121.000 121.000 120.498 120.141 120.000 119.852 119.316 119.051 119.000 119.000 118.816 118.261 118.248 118.235 118.222 118.269 118.393 118.367 117.759 117.473 117.389 117.263 117.238 116.481 116.186 116.133 116.067 116.054 116.041 116.579 117.006 117.003 116.990 117.767 117.964 117.951 117.938 117.925 117.912 117.899 118.651 119.888 120.801 122.264 122.721 123.579 124.478 124.665 125.445 126.225 126.515 126.565 126.731 126.719 126.706 126.333 126.000 126.000 126.000 125.257 124.796 124.397 124.000 124.000 123.673 123.237 123.000 123.000 123.000 122.197 121.392 120.373 119.369 119.000 119.000 118.639 118.679 118.750 117.944 117.138 116.753 115.865 114.441 112.915 112.109 111.303 109.994 108.160 106.037 104.413 102.788 101.574 100.734 100.173 100.009 99.244 97.876 96.264 94.826 94.020 93.214 93.000 93.000 93.000 93.000 93.000 93.621 94.010 94.240 95.000 95.000 95.651 96.000 96.263 96.995 96.929 97.650 98.000 98.000 98.000 98.000 98.000 98.516 99.381 100.427 101.881 102.000 101.455 101.000 101.000 101.000 102.538 103.575 104.000 104.061 104.336 104.869 105.000 105.000 104.784 104.000 104.000 103.638 103.441 103.454 103.519 104.338 104.493 105.207 106.133 106.469 106.456 106.443 106.430 106.417 106.404 106.391 106.828 107.000 107.000 107.000 107.000 107.000 107.000 107.000 107.000 107.000 107.000 107.000 106.695 106.211 106.198 106.186 106.066 106.000 106.000 106.000 106.000 106.000 105.591 105.083 105.070 105.057 105.044 105.046 105.037 105.011 105.000 105.000 104.983 104.954 104.941 104.928
 132.788 133.315 133.524 133.498 133.388 132.780 132.499 132.184 132.232 132.865 133.909 133.716 133.277 133.228 133.675 133.992 134.000 134.336 134.731 135.000 135.001 135.025 135.005 134.760 134.196 133.372 132.971 132.875 132.461 132.000 132.069 132.874 133.680 134.486 135.101 135.432 136.225 135.598 134.779 134.191 134.000 134.000 134.000 133.580 132.942 132.314 131.786 131.574 130.250 128.923 128.278 128.252 128.934 129.704 130.462 131.000 131.000 131.000 131.000 131.000 131.000 131.000 131.000 130.980 130.957 130.944 130.931 130.918 130.278 130.000 130.268 130.881 130.988 131.607 132.447 133.335 134.000 134.000 134.000 134.000 134.000 134.000 134.000 134.000 134.000 134.124 134.328 134.336 133.543 132.523 131.738 131.393 131.371 130.578 129.785 129.445 129.339 128.970 128.579 127.827 127.254 126.712 125.950 125.506 125.439 125.208 124.627 123.750 123.414 123.099 123.195 123.574 124.153 124.959 125.765 126.402 126.823 127.000 127.000 127.000 127.000 127.000 127.000 127.000 127.000 127.000 127.000 126.758 125.911 124.391 124.035 124.000 124.000 124.000 124.000 124.026 124.024 124.011 124.000 124.000 124.000 124.000 124.313 124.934 124.921 124.908 124.895 124.882 124.869 124.856 122.632 121.317 121.525 123.038 124.793 125.765 126.470 126.856 127.000 127.023 127.597 128.794 129.516 129.675 129.662 129.649 129.208 129.000 129.000 129.000 129.000 129.000 128.776 128.403 127.890 126.670 125.789 124.407 123.113 122.319 121.500 121.106 121.000 120.782 120.404 120.391 120.079 120.000 120.000 119.792 119.000 119.000 119.000 119.000 118.762 118.000 118.000 118.000 118.000 117.789 117.197 117.184 117.054 117.000 116.746 116.132 116.119 116.030 116.000 116.000 116.000 116.000 116.000 116.016 116.016 116.003 115.990 116.733 116.949 116.951 116.938 116.926 116.913 116.900 116.887 117.288 118.749 119.529 120.948 121.724 122.060 122.853 123.646 124.286 124.516 124.770 125.464 125.438 125.412 125.386 125.460 125.667 125.655 124.914 124.293 124.000 123.942 123.610 123.140 123.000 123.000 123.000 123.000 122.213 121.111 119.894 119.000 118.994 118.550 118.164 118.181 118.314 117.960 117.154 116.590 115.737 114.646 113.599 112.806 111.540 110.370 108.841 106.462 104.261 103.117 101.856 100.677 100.000 100.000 99.260 97.908 96.296 94.842 94.036 93.230 93.000 93.000 93.000 93.000 93.000 93.605 94.000 94.217 95.000 95.000 95.635 96.000 96.233 96.884 96.130 97.267 97.894 97.881 97.890 98.112 98.267 98.756 99.683 100.937 101.900 102.000 101.471 101.000 101.000 101.000 102.290 103.260 103.802 104.171 104.977 105.000 105.000 105.000 104.878 104.400 104.078 104.000 104.187 104.454 104.486 104.918 105.319 105.730 106.000 106.000 106.000 106.000 106.000 106.000 106.000 106.000 106.268 106.366 106.559 107.000 107.000 107.000 107.000 107.000 107.000 107.000 107.000 107.000 106.622 106.000 106.000 106.000 106.000 106.000 106.000 105.984 105.276 105.109 105.054 105.000 105.000 105.000 105.000 105.000 105.000 105.000 105.000 104.986 104.488 103.986 103.942 103.929
 131.815 131.776 131.763 131.750 131.737 131.724 131.206 131.516 132.000 132.000 132.000 132.740 133.000 133.000 133.158 133.964 134.000 133.751 133.766 134.083 134.057 133.619 133.503 133.079 132.373 132.000 132.000 132.000 132.000 132.000 132.052 132.858 133.664 134.169 134.527 135.027 135.285 134.614 134.148 134.000 133.918 133.317 132.696 131.524 130.579 130.267 129.435 128.738 127.845 127.249 127.286 127.980 128.089 129.218 130.394 130.815 130.061 130.048 130.036 130.023 130.237 130.997 130.984 130.342 129.981 129.945 129.932 129.919 129.906 129.945 130.000 130.082 130.769 130.953 131.937 133.133 133.827 133.985 133.835 133.763 133.837 134.000 134.000 134.000 134.000 134.378 135.000 135.000 134.205 133.018 132.379 132.392 132.386 131.593 130.800 130.250 129.647 128.481 127.663 126.844 126.254 125.684 124.894 124.505 124.439 124.142 123.400 122.400 122.387 122.374 122.697 123.115 123.473 124.266 125.059 125.852 126.284 126.392 126.980 126.412 126.232 126.219 126.362 127.000 127.000 127.000 127.000 126.580 125.093 124.181 124.000 124.000 124.000 124.000 124.000 124.000 124.000 124.000 124.000 124.000 124.000 124.000 124.000 123.992 123.927 123.975 124.000 124.000 124.000 124.000 122.476 120.865 120.237 121.183 123.745 125.362 125.906 126.403 127.000 126.996 126.765 127.141 127.810 128.351 128.325 128.299 128.273 128.248 128.222 128.196 128.170 127.851 127.185 126.206 125.022 124.135 123.299 122.473 122.000 121.867 121.061 120.585 119.802 119.102 118.905 119.372 119.378 119.365 119.352 119.274 119.001 119.000 119.000 119.000 118.939 118.718 118.125 118.000 118.000 117.749 117.000 117.000 117.000 117.000 116.719 116.000 116.000 116.000 116.000 115.715 115.068 115.055 115.042 115.029 115.016 115.003 114.991 114.978 115.528 115.952 115.939 115.926 115.913 115.900 115.887 116.054 116.734 117.514 118.917 120.074 120.854 121.626 122.232 122.463 122.627 122.942 123.484 123.685 123.707 123.694 123.881 124.336 124.310 123.827 123.629 123.616 123.525 123.038 122.687 122.565 122.552 122.539 122.526 121.742 120.347 119.301 118.901 118.465 118.090 118.000 117.762 117.410 117.373 116.554 116.135 115.558 114.753 113.947 113.141 112.131 110.902 109.169 106.812 104.996 103.537 101.999 100.693 99.910 99.257 99.049 98.382 97.176 95.719 94.926 94.133 93.396 92.666 92.075 92.062 92.794 93.021 93.409 94.201 95.003 95.003 95.601 95.959 95.958 96.000 96.000 96.588 96.942 97.000 97.150 98.996 100.099 100.346 100.130 100.173 101.615 101.622 101.258 101.000 101.033 101.254 101.812 102.543 103.349 104.105 104.637 104.918 105.000 105.000 105.000 105.000 104.534 104.428 104.669 105.000 105.009 105.396 105.813 106.000 106.000 106.000 106.000 106.000 106.000 106.000 106.000 106.000 106.000 106.000 106.107 106.341 106.328 106.808 107.000 107.000 107.000 107.000 107.000 107.000 106.638 105.868 105.221 105.187 105.174 105.161 105.148 105.135 105.023 105.000 105.000 104.792 104.071 104.058 104.660 105.000 105.000 105.000 104.994 104.320 103.985 103.682 102.995 102.937
 130.900 130.776 130.763 130.750 130.759 130.969 131.000 131.500 132.000 132.000 132.000 132.468 132.828 133.000 133.086 133.563 133.581 133.250 133.000 133.078 133.460 133.863 133.994 133.826 133.463 133.071 133.097 133.123 132.661 132.000 132.036 132.842 133.648 134.000 134.090 134.334 134.321 134.099 133.659 133.075 132.444 131.612 130.780 129.830 128.968 128.384 128.205 127.442 127.076 127.295 127.882 127.995 128.000 128.630 129.466 130.061 130.001 130.000 130.000 130.000 130.002 130.000 129.987 129.971 129.539 129.000 129.000 129.000 129.000 129.417 129.913 130.000 130.000 130.691 131.411 132.118 132.889 133.511 133.155 133.000 133.249 133.774 133.985 134.000 134.000 134.248 134.673 134.660 133.868 133.263 133.148 133.392 133.401 132.271 131.385 130.393 129.090 127.513 127.084 126.036 124.812 123.701 122.931 122.905 122.879 122.649 122.128 121.456 121.937 122.000 122.184 122.349 122.457 123.250 123.537 124.133 124.815 125.422 126.215 126.058 126.000 126.000 126.037 126.191 126.181 126.665 127.000 126.580 124.984 124.178 124.000 124.000 124.000 124.000 124.000 124.000 124.000 124.000 124.000 124.000 124.000 124.019 124.037 123.896 123.090 123.651 123.896 123.883 123.870 123.857 122.469 120.897 119.642 119.622 122.676 124.501 125.581 126.292 126.791 127.000 126.425 126.116 126.287 126.676 126.653 126.358 126.274 126.081 125.932 126.173 125.813 125.048 124.412 123.658 122.534 122.521 122.153 122.000 121.839 121.352 120.533 118.902 117.526 116.835 116.956 117.736 118.229 118.366 118.353 118.340 118.327 118.314 118.301 118.288 118.275 118.251 117.432 117.236 117.224 117.161 117.000 117.000 117.000 117.000 116.735 116.000 116.000 116.000 115.558 115.057 115.000 115.000 115.000 114.497 114.017 114.004 114.000 114.000 114.529 114.952 114.930 114.855 114.827 114.859 114.888 114.875 114.862 115.650 116.851 117.882 118.650 119.397 119.532 120.180 120.853 121.300 121.520 122.300 122.414 122.388 122.451 122.668 122.655 122.643 122.630 122.617 122.604 122.591 122.159 122.000 121.849 121.474 121.077 120.272 119.440 118.812 118.393 118.010 117.568 117.436 117.256 116.881 116.394 116.072 116.000 115.574 114.769 113.988 113.730 112.594 110.769 108.874 107.598 105.999 103.886 102.031 100.709 99.904 99.098 99.000 98.486 97.631 96.626 95.128 94.262 93.456 92.650 92.000 92.000 92.767 93.552 94.356 95.174 95.991 95.203 95.000 95.000 95.203 95.935 95.986 96.000 96.438 97.029 97.325 100.445 102.324 102.144 100.859 100.064 100.701 100.393 100.731 101.247 101.341 101.938 102.000 102.370 103.125 104.000 104.000 104.488 104.637 104.624 104.677 104.990 105.000 105.000 105.000 105.000 105.002 105.422 105.811 106.000 106.000 106.000 106.000 106.000 106.000 105.851 105.406 105.393 105.380 105.367 105.539 106.000 106.000 106.704 107.000 107.000 107.000 107.000 106.451 106.238 105.880 105.061 104.242 104.187 104.644 105.000 105.000 105.000 105.000 104.467 104.097 104.066 104.000 104.000 104.628 105.000 105.000 104.954 104.147 104.000 103.536 102.988 102.871 102.110
 129.789 129.776 129.871 130.000 130.066 130.872 131.000 131.338 131.686 131.704 131.967 132.000 132.514 133.000 133.000 133.000 133.309 133.431 133.600 134.070 134.902 135.734 135.993 136.019 135.860 135.080 135.097 134.446 133.183 132.000 132.008 132.320 133.006 133.361 133.348 133.302 132.742 132.161 131.420 130.575 129.788 129.543 128.797 127.965 127.133 126.410 126.384 126.229 126.605 127.333 128.000 128.000 128.665 128.955 129.362 130.000 130.000 130.000 130.000 130.000 130.000 129.996 129.191 129.000 128.983 128.946 128.933 128.920 128.967 129.000 129.257 130.000 130.000 130.674 131.000 131.286 132.018 132.189 132.770 133.000 133.079 133.352 133.948 134.000 134.000 134.000 134.000 134.000 133.506 133.366 133.612 134.000 134.000 132.745 131.832 130.634 129.035 127.462 127.086 125.744 123.911 122.239 121.466 121.453 121.440 121.427 121.303 121.030 121.342 121.375 121.677 122.000 122.035 122.295 122.311 122.453 122.898 123.580 123.761 124.300 124.466 124.440 124.544 125.170 125.181 126.234 126.672 125.921 125.000 124.194 124.000 124.000 124.000 124.000 124.000 124.000 124.000 124.000 124.000 124.000 124.017 124.515 124.755 123.906 123.036 122.909 122.949 123.000 123.000 123.000 122.270 120.929 119.658 119.442 121.860 124.111 125.332 125.845 126.131 126.716 126.715 126.285 126.000 125.933 125.655 125.118 125.000 124.570 124.144 124.574 124.089 123.346 123.000 122.855 122.433 122.059 122.000 121.753 121.340 120.792 119.107 117.145 116.207 116.000 116.053 116.367 117.122 117.714 118.000 117.894 117.350 117.314 117.302 117.015 116.551 116.525 116.299 116.237 116.224 116.211 116.198 116.185 116.172 116.159 116.110 116.000 116.000 116.000 115.527 115.000 115.000 115.000 114.334 114.015 114.000 114.000 114.000 113.984 113.966 113.953 113.805 113.047 113.000 113.506 113.888 113.897 113.997 114.667 114.933 115.327 116.013 116.805 117.424 118.164 118.621 118.919 119.505 120.285 120.605 120.695 120.860 121.338 121.312 121.529 121.630 121.617 121.604 121.591 121.578 121.342 120.928 120.413 119.594 118.775 118.501 118.317 118.000 118.000 117.232 117.000 116.781 116.334 116.003 116.000 115.621 115.212 114.785 113.986 113.438 112.041 110.597 109.297 107.898 106.286 104.012 102.423 101.293 99.920 99.114 98.431 98.083 97.696 96.969 96.767 94.771 93.472 92.666 92.000 92.000 92.751 93.557 94.718 95.991 95.998 95.216 94.984 94.960 94.957 95.004 95.747 95.965 96.422 97.228 98.094 100.279 101.979 102.439 101.713 100.377 100.235 101.045 101.724 102.000 102.000 102.000 102.000 102.000 102.535 103.716 103.976 104.000 104.000 104.000 104.093 104.574 104.586 104.573 104.561 104.630 104.994 105.379 105.796 106.000 105.891 105.470 105.458 105.445 105.432 105.318 105.000 105.000 105.000 105.000 105.096 105.392 105.921 106.688 107.000 107.000 107.000 107.000 106.282 105.601 104.896 104.184 104.012 104.000 104.097 104.162 104.149 104.136 104.123 104.046 104.000 104.000 104.000 104.000 104.612 105.000 104.780 104.007 104.001 104.000 103.552 102.746 102.000 102.000
 128.964 129.000 129.439 130.000 130.037 130.621 130.903 131.000 131.000 131.080 131.886 132.000 132.862 133.873 134.133 133.844 134.557 134.862 135.073 135.532 135.971 136.388 136.504 136.307 135.876 135.477 135.025 134.034 132.867 132.000 132.000 132.000 132.231 132.361 132.200 131.637 130.805 129.973 129.141 128.309 127.541 127.515 127.324 126.750 126.156 126.000 126.000 126.000 126.511 127.316 128.000 128.000 128.734 129.000 129.031 129.216 129.961 130.000 130.000 130.000 130.000 130.002 129.222 129.011 128.595 128.000 128.000 128.000 128.629 129.000 129.241 130.006 130.123 130.712 131.079 131.404 132.076 132.882 133.000 133.000 133.300 134.000 134.000 134.000 134.000 134.000 134.000 134.000 134.000 134.000 134.000 134.000 134.000 133.547 133.098 132.281 130.890 128.937 127.769 125.968 123.534 121.255 120.466 120.453 120.441 120.428 120.415 120.402 120.389 120.795 121.173 121.534 121.941 121.395 121.311 121.654 122.089 122.272 122.259 122.426 122.878 123.220 123.355 124.148 124.182 124.830 125.253 124.965 124.146 124.025 124.000 124.000 124.000 124.000 124.000 124.000 124.000 124.000 124.000 124.000 124.655 125.425 125.364 123.736 122.225 122.000 122.439 122.884 122.871 122.858 122.242 120.961 119.733 119.562 121.825 123.323 124.317 125.109 125.742 125.729 125.716 125.703 125.570 125.225 124.666 124.931 125.000 124.586 124.000 123.990 123.656 123.208 123.000 122.887 122.479 121.660 121.509 121.023 120.483 120.260 118.268 116.606 116.000 116.000 116.000 116.000 116.276 116.899 117.354 117.196 116.378 116.315 115.910 115.472 115.276 115.263 115.250 115.237 115.224 115.212 115.199 115.186 115.173 115.160 115.147 115.134 115.121 115.108 115.052 115.000 115.000 115.000 114.320 114.000 114.000 114.000 113.992 113.284 113.000 113.000 112.992 112.932 112.914 112.902 112.928 113.157 113.963 114.115 114.644 115.000 115.151 115.792 115.957 116.467 117.071 117.548 117.756 118.549 119.157 119.390 119.442 119.669 119.656 120.070 120.261 120.235 120.209 120.184 120.158 119.850 119.417 119.021 118.571 118.143 118.000 118.000 117.926 117.492 117.112 116.686 116.270 116.000 116.000 116.000 115.412 114.748 114.278 113.995 113.189 111.766 110.279 108.989 107.930 106.318 104.549 102.968 101.281 99.140 98.322 98.058 97.598 97.109 96.919 96.215 93.997 93.050 92.682 92.000 92.000 92.037 92.579 93.719 95.012 95.000 94.989 94.418 94.000 94.183 94.989 95.062 95.637 96.406 97.212 98.021 98.942 100.416 101.967 102.846 102.341 101.561 102.324 102.410 102.000 102.000 102.000 102.000 102.000 102.301 103.072 103.606 103.902 104.000 104.000 104.000 104.000 104.000 104.000 104.000 104.166 104.972 105.778 106.000 106.000 105.905 105.528 105.104 105.000 105.000 105.000 105.000 105.000 105.000 105.000 105.000 105.021 105.285 105.989 106.304 106.089 105.556 105.530 105.327 104.731 104.155 104.000 104.000 104.000 104.000 104.000 104.000 104.000 103.333 103.111 103.434 104.000 104.000 104.000 104.597 105.000 104.996 104.978 104.180 104.000 103.568 102.762 102.000 102.000
 128.811 129.000 129.422 130.000 130.000 130.000 130.460 130.835 131.000 131.064 131.870 132.238 133.634 135.287 135.943 135.464 136.123 136.210 135.859 135.487 135.094 135.035 134.741 134.304 133.878 133.419 133.012 132.309 131.693 131.414 131.401 131.388 131.000 130.723 130.486 129.654 128.822 128.425 128.168 127.586 126.271 126.258 126.245 126.124 126.000 126.000 126.000 126.000 126.494 127.300 128.000 128.000 128.083 128.573 129.301 129.934 129.996 130.000 130.000 130.351 130.989 131.002 130.237 129.444 128.651 128.033 127.934 127.985 128.556 128.939 129.225 130.030 130.836 131.000 131.448 132.000 132.060 132.866 133.000 133.000 133.284 133.977 133.755 133.713 133.852 134.000 134.000 134.000 134.000 134.000 134.000 134.000 134.000 134.000 134.000 133.792 133.002 130.977 129.002 126.412 123.392 120.792 120.000 120.000 119.650 119.428 119.415 119.428 119.908 120.655 121.000 121.094 121.313 121.039 121.000 121.146 121.286 121.347 121.932 122.000 122.122 122.221 122.340 123.133 123.790 124.093 124.156 124.120 124.004 124.000 124.000 124.000 124.000 124.000 124.000 124.000 124.000 124.000 124.000 124.000 124.622 124.501 123.410 121.936 121.923 121.910 121.897 121.917 122.000 122.000 121.892 120.825 119.875 120.208 121.652 122.508 123.301 124.094 124.742 124.729 124.501 124.239 123.816 123.411 123.658 124.438 124.424 123.853 123.146 122.793 122.282 122.148 121.934 121.622 121.514 121.081 121.000 120.543 119.728 118.839 117.640 116.839 116.292 116.000 116.000 116.000 116.000 116.190 116.354 116.297 116.022 115.493 115.137 115.000 115.000 115.000 115.000 115.000 115.000 115.000 115.000 115.000 115.000 115.000 115.000 115.000 115.000 115.000 114.602 114.083 114.070 114.057 114.015 114.000 113.729 113.005 113.000 113.000 113.000 112.986 112.836 112.077 112.000 112.000 112.335 113.141 113.947 114.753 115.000 115.000 115.000 115.000 115.782 116.000 116.000 116.150 116.740 117.533 117.708 117.696 117.912 118.670 118.657 118.644 118.631 118.618 118.605 118.592 118.579 118.566 118.394 118.000 118.000 118.000 118.000 118.000 117.876 117.070 116.595 116.200 115.800 115.412 115.399 115.386 115.160 114.622 113.880 113.341 112.526 111.106 109.768 108.787 107.976 106.963 105.018 103.127 101.462 99.708 98.263 97.458 97.089 96.770 96.063 95.244 93.656 93.000 92.973 92.824 92.081 92.000 92.525 93.340 94.148 94.942 94.237 93.988 94.014 94.219 95.038 95.796 96.053 96.494 97.313 98.134 99.874 101.539 102.615 103.267 104.162 103.369 102.435 101.895 101.755 101.757 101.964 102.000 102.000 102.197 102.707 102.965 103.458 103.639 103.626 103.613 103.600 103.587 103.803 104.000 104.082 104.512 105.648 106.000 106.000 106.000 106.000 105.637 105.223 104.771 104.420 104.407 104.394 104.381 104.368 104.356 104.372 104.900 105.208 104.982 104.504 104.225 103.619 103.505 103.362 103.227 103.214 103.201 103.188 103.175 103.437 103.887 103.189 103.032 103.000 103.357 104.000 104.000 104.000 104.581 105.000 105.000 105.000 104.196 103.989 103.566 102.778 102.000 102.000
 129.004 129.222 129.546 130.000 130.000 130.000 130.000 130.436 131.000 131.048 131.854 132.660 134.101 135.444 135.609 135.596 136.272 136.288 135.566 134.388 133.190 133.036 132.745 132.492 132.414 132.027 131.591 130.886 130.221 129.828 129.802 129.776 129.167 128.476 127.979 127.673 127.932 128.000 127.705 126.995 125.977 125.379 125.245 125.232 125.418 126.000 126.000 126.000 126.478 127.044 127.219 127.909 128.000 128.964 129.938 130.000 130.000 130.000 130.000 130.343 131.148 131.954 131.246 130.460 129.652 128.652 127.095 127.745 127.908 128.298 129.115 130.014 130.820 131.000 131.432 132.000 132.044 132.850 133.000 133.000 133.201 133.685 133.088 133.000 133.344 133.688 133.675 133.662 133.649 133.825 134.000 134.000 134.000 134.000 134.000 134.000 133.749 132.517 130.159 126.888 123.456 120.808 120.002 120.000 119.390 118.763 118.416 118.430 119.223 120.016 120.647 121.163 121.625 121.093 121.000 121.000 121.000 121.024 121.232 121.247 121.234 121.463 122.024 122.180 122.910 123.613 124.000 124.000 124.000 124.000 124.000 124.000 124.000 124.000 124.000 124.000 124.000 124.000 124.000 124.000 123.985 123.122 121.754 120.939 120.988 121.000 121.000 121.233 121.872 121.859 121.164 119.939 119.241 119.906 120.699 121.492 122.405 123.244 123.742 123.729 122.976 122.157 121.691 121.836 122.629 123.154 122.702 121.870 120.965 119.809 119.762 119.723 119.634 119.766 120.536 120.523 120.510 120.056 118.990 117.418 116.599 116.445 116.229 116.000 116.000 116.000 116.000 116.000 116.000 115.926 115.384 115.087 115.000 115.000 115.000 115.000 115.000 115.000 115.000 115.000 115.000 115.000 115.000 115.000 115.000 115.000 115.000 114.449 114.055 114.000 114.000 114.000 113.381 113.032 113.014 113.000 113.000 112.986 112.967 112.678 112.000 112.000 112.000 112.000 112.284 113.002 113.795 114.368 114.514 114.658 115.000 115.000 115.603 115.773 115.851 116.000 116.000 116.796 117.175 117.304 117.395 117.670 117.657 117.644 117.793 118.000 118.000 118.000 117.722 117.769 118.122 118.459 118.472 118.150 117.753 117.490 117.368 116.549 116.126 115.704 115.284 115.000 115.000 115.000 114.652 114.230 113.833 113.027 111.692 110.543 109.609 108.803 107.995 106.591 104.865 103.159 101.547 99.935 98.323 97.356 96.625 96.115 95.885 94.376 93.364 93.000 92.740 92.070 92.007 92.000 92.020 92.648 94.002 94.000 93.263 93.539 94.358 95.195 95.959 96.000 96.568 97.374 98.180 98.986 101.264 103.041 103.496 103.344 104.600 103.935 102.525 101.435 101.000 101.045 101.851 102.000 102.000 102.000 102.051 102.586 102.891 103.000 103.000 103.000 103.000 103.000 103.522 104.000 104.000 104.000 105.136 105.510 105.498 105.485 105.472 105.459 104.865 104.265 104.000 104.000 104.000 104.000 104.000 104.000 104.010 104.276 104.317 103.858 103.292 103.221 102.402 102.253 102.240 102.010 101.429 101.403 101.945 102.592 103.051 103.133 103.011 103.000 103.000 103.341 104.000 104.000 104.000 104.027 104.392 105.000 105.000 104.208 103.399 103.000 102.794 102.000 102.000
 129.732 130.130 130.143 130.000 130.000 130.000 130.000 130.420 130.929 130.706 131.499 132.744 134.713 136.122 135.343 134.704 135.256 135.776 135.556 134.233 132.255 132.000 131.749 131.492 131.417 130.972 130.175 129.343 128.511 127.829 127.803 127.777 127.538 127.227 127.000 127.000 127.256 127.311 127.178 126.641 125.268 125.046 125.000 125.000 125.052 125.242 125.879 126.000 126.078 126.382 127.011 127.114 127.722 128.543 129.361 130.000 130.000 130.000 130.000 130.008 130.146 130.939 131.735 131.437 130.286 128.837 128.031 127.225 127.000 127.386 128.362 129.866 130.776 131.000 131.486 132.223 132.407 132.903 133.000 133.000 133.000 132.985 132.764 132.714 132.843 133.000 133.000 133.000 133.000 133.321 133.623 133.610 133.597 133.887 134.000 134.000 133.854 133.048 130.726 127.181 123.521 120.824 120.018 120.000 119.075 118.030 117.536 118.011 118.817 119.623 120.702 121.884 122.648 122.399 121.927 121.379 121.000 121.000 121.000 121.000 121.000 121.065 121.209 121.196 121.895 122.688 123.430 124.000 124.000 124.000 124.000 124.000 124.000 124.000 124.000 124.000 124.000 124.000 124.000 124.000 123.379 122.535 121.485 120.023 120.767 120.911 120.898 120.914 121.000 121.000 120.334 119.450 118.820 118.907 119.866 120.695 121.654 122.342 122.544 122.956 122.275 121.469 121.000 121.097 121.631 121.652 120.877 119.887 119.016 118.027 118.000 118.000 118.222 118.660 119.075 119.434 119.510 119.500 119.054 117.472 116.242 116.000 116.000 116.000 116.000 116.000 116.000 116.000 115.813 115.309 115.032 115.000 114.642 114.290 114.277 114.265 114.804 115.000 115.000 115.000 115.000 115.000 115.000 115.000 115.000 115.000 114.301 114.044 114.000 114.000 114.000 114.000 113.368 113.000 113.000 113.000 112.988 112.312 111.967 111.955 111.942 111.929 111.916 111.903 111.890 111.986 112.779 112.238 112.000 112.882 114.625 114.599 114.734 114.774 114.950 115.371 115.979 116.780 117.586 118.000 117.802 117.000 117.000 117.000 117.111 117.238 117.212 117.186 116.786 117.018 117.926 118.971 118.591 117.841 117.261 116.854 116.385 115.566 115.451 115.215 115.000 114.928 114.443 114.387 114.172 113.779 113.197 112.378 111.313 110.431 109.625 108.689 107.293 106.261 104.802 103.191 101.414 99.186 98.212 96.857 96.095 95.797 95.050 93.425 92.458 92.103 92.066 92.000 92.000 92.000 92.000 92.307 93.013 93.000 93.000 93.523 94.658 96.000 96.000 96.000 96.553 97.358 98.164 98.970 100.442 101.920 102.665 102.605 102.421 102.382 101.522 101.000 101.000 101.029 101.835 102.182 102.164 102.000 102.000 102.000 102.438 102.811 103.000 103.000 103.000 103.000 103.291 103.562 103.603 103.965 104.382 104.511 104.326 103.970 103.944 103.919 103.641 103.434 103.523 103.990 104.000 104.000 104.000 104.000 103.992 103.452 102.892 102.479 102.125 101.547 101.307 101.254 101.241 101.167 101.000 101.000 101.684 102.490 103.000 103.000 103.000 103.000 102.539 102.717 104.000 104.000 104.000 104.000 104.012 104.022 104.009 103.228 103.000 102.989 102.776 102.004 101.946
 129.475 130.442 130.479 130.000 130.000 130.000 130.000 130.283 130.413 129.365 130.145 132.620 135.300 136.671 135.502 133.552 133.825 134.605 134.847 133.934 132.246 131.670 131.014 130.190 129.336 128.491 127.646 127.093 126.716 126.337 125.840 126.234 126.376 126.591 126.894 126.357 126.324 125.911 125.596 125.322 124.274 124.259 124.246 124.553 125.000 125.006 125.162 125.181 125.539 126.039 126.192 126.882 127.078 127.579 128.628 130.000 130.000 130.000 130.486 130.974 130.989 131.000 130.983 130.960 130.253 128.801 127.982 127.223 127.000 127.332 128.059 128.852 130.321 130.966 131.969 133.388 134.183 133.390 133.221 133.234 133.130 132.699 131.880 131.901 132.322 132.689 132.676 132.663 132.650 132.814 133.000 133.000 133.000 133.417 133.794 134.000 133.811 132.627 130.650 127.261 123.585 120.840 120.034 119.580 118.288 117.265 117.079 117.402 118.680 119.985 121.723 123.657 124.984 125.023 124.425 123.348 122.249 121.687 121.103 120.499 120.235 120.438 121.000 121.000 121.696 122.502 123.048 123.242 123.930 124.000 124.000 124.000 124.000 124.000 124.000 124.000 124.000 124.000 124.000 123.991 122.796 121.171 119.950 119.937 119.924 119.966 120.000 120.205 120.873 120.860 120.197 118.923 117.821 117.942 119.541 120.461 120.508 120.464 121.144 122.319 121.927 121.342 121.000 120.959 120.688 120.396 119.387 118.408 118.000 118.000 118.000 118.000 117.834 117.549 117.536 117.941 118.316 118.701 118.650 117.441 116.253 116.000 116.000 116.000 116.000 116.000 116.000 116.000 115.726 115.000 115.000 114.527 114.153 114.000 114.000 114.000 114.182 114.239 114.226 114.213 114.200 114.187 113.715 113.323 113.297 113.272 113.150 113.110 113.097 113.084 113.071 113.058 112.429 112.032 112.020 111.973 111.153 110.981 110.968 110.967 111.000 111.000 111.000 111.000 111.000 111.082 111.777 111.956 112.000 112.262 112.813 112.800 113.365 113.671 113.498 113.380 115.368 116.209 116.493 116.484 116.238 115.368 116.376 116.645 116.227 115.619 115.607 115.594 115.844 116.247 116.929 118.059 117.607 116.858 116.503 116.220 115.441 115.055 115.000 115.000 114.828 114.369 114.035 114.000 113.672 113.242 112.865 112.059 111.253 110.447 109.641 108.670 107.058 105.647 104.520 103.223 101.416 98.999 98.194 96.775 95.652 95.120 94.966 94.056 93.242 92.495 92.000 92.000 92.000 92.000 92.000 92.007 92.102 92.895 93.017 93.545 94.652 96.000 96.000 96.000 96.537 97.342 98.131 98.832 99.619 100.412 100.895 100.854 100.206 100.043 100.466 100.954 101.295 101.527 102.359 103.014 102.737 101.927 101.692 101.950 102.000 102.295 102.627 102.614 102.601 102.589 102.576 102.692 103.056 103.488 103.524 103.511 103.336 103.000 103.000 103.000 103.000 103.000 103.068 103.395 103.396 103.383 103.370 103.357 103.344 102.529 101.710 101.305 101.228 100.981 100.390 100.254 100.241 100.228 100.259 100.890 101.668 102.084 102.398 102.927 102.232 102.125 102.056 102.340 103.192 103.927 104.000 104.000 104.000 104.000 104.000 103.244 103.000 102.632 102.000 102.000 101.161
 128.925 129.901 129.916 129.713 129.488 129.031 128.857 129.152 129.301 127.676 128.196 131.355 134.676 136.261 134.902 132.159 131.692 131.969 132.092 131.604 131.137 130.368 129.301 128.059 126.873 126.041 125.591 125.159 125.035 125.367 125.031 125.284 125.377 125.705 126.203 125.384 124.812 124.058 123.857 124.109 123.290 123.260 123.247 123.634 124.382 124.990 124.341 124.182 124.241 124.511 125.149 125.240 125.811 126.564 127.622 129.144 129.885 130.000 130.489 130.713 129.913 129.093 129.691 129.443 128.649 127.869 127.063 127.000 126.950 126.896 127.025 127.712 128.597 130.489 132.496 134.043 134.995 134.365 134.220 134.137 133.615 132.234 131.441 131.559 131.570 131.455 131.676 131.663 131.650 131.938 132.248 132.255 132.554 132.585 132.860 133.119 132.917 131.656 129.721 126.880 123.820 121.300 120.077 118.833 117.320 116.430 116.417 116.404 117.961 119.927 122.190 124.537 126.661 126.674 126.066 125.145 124.027 122.660 121.271 119.861 118.887 118.707 119.473 120.095 120.863 121.656 122.403 123.014 123.119 123.744 124.000 124.000 124.000 124.000 124.000 124.000 124.000 124.000 124.000 123.224 121.828 120.217 119.000 119.000 119.000 119.551 119.899 119.886 119.873 119.860 119.311 118.194 117.091 116.891 118.159 119.299 120.239 120.824 121.000 121.000 121.000 121.000 121.000 120.890 120.084 119.027 118.302 118.000 117.946 117.623 117.589 117.576 117.358 117.000 117.000 117.000 117.300 117.498 117.389 116.995 116.189 116.000 116.000 116.000 116.000 116.000 116.000 116.000 115.742 115.000 115.000 114.324 114.000 113.796 113.278 113.265 113.253 113.240 113.227 113.117 112.458 112.376 112.255 112.162 112.149 112.136 111.453 111.221 111.195 111.169 111.143 111.118 111.064 110.640 110.040 110.014 109.995 109.993 110.000 110.231 110.945 110.990 111.000 111.000 111.000 111.000 111.000 111.587 111.839 111.826 111.813 111.801 111.940 112.406 112.762 112.851 113.429 114.194 113.634 112.891 112.623 112.338 114.655 115.498 115.386 115.000 115.000 115.000 115.613 116.000 116.125 116.542 116.530 115.874 115.504 115.366 115.000 115.000 115.000 115.000 114.716 113.947 113.463 113.388 113.185 112.800 112.230 111.411 111.087 110.463 109.416 108.093 107.057 105.478 104.433 103.255 101.603 99.827 98.378 96.807 95.598 94.824 94.141 94.023 93.374 92.568 92.000 92.000 92.000 92.000 92.000 92.000 92.073 92.879 94.382 95.013 95.286 95.950 95.937 95.978 96.521 97.293 97.900 97.992 98.744 99.550 100.356 101.000 101.000 100.226 100.000 100.860 102.529 103.766 104.395 104.221 103.170 101.779 101.018 101.555 101.653 101.800 102.000 102.000 102.000 102.000 102.000 102.158 102.550 102.537 102.525 102.512 102.499 102.486 102.473 102.460 102.447 102.435 102.338 101.846 102.249 102.730 103.000 102.888 102.357 101.545 101.130 101.000 101.000 100.997 100.782 100.746 100.758 100.771 100.793 100.969 101.652 102.000 102.043 102.141 102.017 102.000 102.000 102.029 102.277 103.817 104.000 104.000 104.000 104.000 104.000 103.259 102.992 102.619 101.959 101.946 100.445
 126.877 129.009 129.425 128.606 127.787 126.622 125.963 126.594 127.822 126.698 126.396 129.483 133.532 136.169 135.343 132.457 130.428 129.387 129.013 128.637 128.598 127.905 126.827 125.856 125.409 124.590 124.082 123.941 124.127 124.416 124.403 124.390 124.053 124.053 124.571 123.739 123.409 123.141 123.106 123.240 123.009 123.000 123.000 123.384 124.042 124.207 124.039 124.000 124.000 124.034 124.143 124.130 124.755 125.548 126.364 127.263 128.797 129.685 129.564 129.046 128.929 128.110 127.996 127.987 127.962 127.834 127.015 126.923 126.426 126.000 126.000 126.000 127.297 128.727 130.538 132.687 134.564 134.749 134.910 134.695 134.042 133.252 132.678 131.771 130.871 130.471 130.987 130.716 130.651 130.472 130.348 130.654 131.122 131.453 131.573 131.431 130.996 130.164 128.253 126.215 124.035 121.679 119.638 117.978 116.353 115.430 115.417 115.404 116.929 119.103 121.508 123.792 125.662 125.653 125.438 124.890 123.855 122.231 120.606 118.981 117.460 116.501 116.682 117.449 118.758 120.201 121.666 123.069 123.770 123.963 124.000 124.000 124.000 124.000 124.000 124.000 124.000 124.000 124.000 122.495 120.871 119.600 118.951 118.938 118.925 118.964 119.000 119.000 119.000 119.000 119.000 118.577 117.501 115.802 115.624 117.647 119.431 120.439 120.983 120.766 120.528 120.411 120.474 120.585 119.766 118.242 117.641 117.628 117.539 117.042 117.000 117.000 117.000 117.000 117.000 117.000 117.000 116.811 116.486 116.473 116.094 116.000 116.000 116.000 116.000 116.000 116.000 116.000 115.758 115.000 115.000 114.340 113.676 113.212 113.000 113.000 112.485 112.240 112.227 112.191 112.017 111.416 111.175 111.163 111.150 111.137 110.375 110.111 110.098 110.085 110.072 110.059 110.046 110.020 110.000 109.998 109.191 109.602 109.969 109.956 109.974 110.767 110.917 110.904 110.891 110.878 110.866 110.853 110.840 110.827 110.814 110.801 111.491 111.775 111.762 111.749 111.736 112.456 112.711 112.458 112.103 112.642 113.680 114.567 115.000 115.000 115.000 115.000 115.347 115.743 116.000 115.993 115.614 115.193 115.000 115.000 115.000 115.000 114.641 114.440 114.159 113.383 113.048 113.000 112.693 112.255 111.896 111.091 110.516 109.790 108.873 107.772 106.378 105.321 104.034 102.793 101.675 100.063 98.451 96.839 95.293 94.126 94.000 93.301 93.046 92.584 91.799 91.079 91.066 91.659 92.000 92.000 92.114 93.725 95.319 95.488 94.963 94.954 94.993 95.699 96.505 97.032 97.218 97.932 98.626 99.381 100.118 100.668 100.799 100.193 100.000 101.109 103.527 105.944 106.000 104.981 103.496 102.039 100.996 100.728 100.654 101.224 102.000 102.000 102.000 102.000 102.000 102.000 102.000 102.000 102.000 102.000 102.000 102.000 102.000 101.616 101.448 101.435 101.293 100.474 101.138 101.931 102.371 102.301 102.012 101.744 101.681 101.428 101.000 101.000 101.000 101.000 101.312 101.771 101.784 101.797 101.931 102.000 102.000 102.000 102.000 102.000 102.000 101.751 101.330 103.675 104.000 104.000 103.704 103.023 103.011 102.998 102.454 101.636 100.959 100.946 100.230
 123.560 126.639 128.284 127.655 127.046 127.000 126.058 125.442 125.639 125.363 124.814 127.719 132.221 135.825 135.612 132.868 129.736 127.730 126.898 126.081 125.678 125.229 124.789 124.494 124.454 124.065 123.332 123.210 123.429 123.416 123.403 122.965 122.565 122.477 122.662 122.365 122.326 122.313 122.300 122.287 122.274 122.261 122.248 122.603 123.222 123.209 122.564 122.365 122.340 122.485 123.152 123.840 124.073 124.532 125.325 126.121 126.967 127.757 128.062 127.771 127.027 127.001 127.653 127.451 126.924 126.805 126.026 125.923 125.910 125.930 126.000 126.000 126.000 126.461 127.477 129.184 131.908 132.896 133.698 134.248 134.414 134.003 133.783 132.850 132.008 131.553 131.300 130.507 129.906 129.038 128.404 128.857 129.142 129.837 130.147 129.845 129.050 128.594 127.134 125.509 123.579 121.206 119.204 117.160 115.385 114.431 114.418 114.405 115.898 118.055 120.229 122.047 123.633 123.654 123.225 122.509 121.607 120.538 118.901 117.263 115.625 114.447 114.457 115.237 116.664 118.250 120.054 122.267 123.759 124.000 124.431 124.906 124.832 124.092 124.000 124.000 124.000 124.000 124.000 122.537 120.384 118.652 118.000 118.000 118.000 118.522 118.900 118.887 118.874 118.861 118.848 118.428 117.145 114.607 114.104 116.524 119.210 120.758 120.696 119.877 119.058 118.569 118.658 119.307 118.744 117.513 117.000 117.000 117.000 117.000 117.000 117.000 117.000 116.938 116.564 116.525 116.512 116.319 116.000 116.000 116.000 116.000 116.000 116.000 116.000 116.000 116.000 116.000 115.774 114.979 114.439 113.674 113.168 113.000 112.956 112.364 112.083 112.000 112.000 111.928 111.284 111.056 111.000 110.736 110.150 110.137 110.033 110.000 109.689 109.086 109.073 109.060 109.047 109.034 109.021 109.008 109.000 109.000 109.000 109.000 109.015 109.764 109.969 110.000 110.000 110.000 110.000 110.000 110.000 110.000 110.000 110.000 110.541 110.776 110.763 110.776 110.976 111.518 111.711 111.698 111.685 111.672 113.151 114.198 114.503 114.242 114.216 114.504 114.825 115.220 115.642 115.999 115.195 115.000 115.000 115.000 115.000 115.000 114.360 113.501 112.747 112.414 112.402 112.389 112.197 112.000 111.912 111.107 109.828 108.806 107.987 107.135 106.098 104.731 103.177 101.893 101.042 100.057 98.483 96.871 95.259 93.851 93.159 93.028 92.476 92.063 91.794 91.000 91.000 91.033 91.453 92.000 92.042 92.849 93.635 93.963 93.973 94.071 94.877 95.683 96.532 97.396 98.103 98.012 98.000 98.439 98.888 99.130 99.936 100.000 100.000 100.817 102.751 105.130 105.402 105.022 103.939 102.315 100.690 100.133 100.000 100.678 101.629 101.616 101.603 101.590 101.577 101.672 102.000 102.000 102.000 101.770 101.500 101.487 101.474 101.140 100.723 100.435 100.375 100.033 100.725 101.531 102.000 102.000 102.000 102.000 102.000 101.888 101.706 101.719 101.732 101.745 101.854 102.000 102.000 102.000 102.000 102.000 102.000 101.968 101.274 101.127 101.114 101.075 101.079 102.005 102.762 103.050 103.026 102.906 102.107 101.999 101.471 100.661 99.995 99.950 99.934
 122.107 124.576 126.679 127.000 127.000 126.803 126.031 125.066 124.234 123.402 123.327 125.159 128.362 131.547 132.262 129.676 127.049 125.490 125.005 124.536 123.718 123.521 123.508 123.495 123.482 123.469 122.804 122.443 122.430 122.417 122.404 121.710 121.378 121.365 121.352 121.339 121.326 121.313 121.074 120.574 120.548 121.069 121.248 121.587 122.222 122.209 121.426 121.183 121.170 121.187 121.288 122.062 122.770 123.149 123.205 123.240 123.254 123.849 124.585 125.076 125.081 125.861 125.313 124.951 124.936 124.950 124.937 124.924 124.911 125.204 125.885 125.872 125.859 125.846 126.169 126.936 127.572 128.785 129.561 130.571 131.989 132.940 132.346 132.149 132.227 132.304 131.993 131.187 129.548 127.636 126.251 126.247 126.704 127.408 127.721 127.537 127.096 127.070 126.012 124.542 122.773 120.809 119.197 116.878 114.689 113.431 113.418 113.405 114.418 116.387 118.430 119.916 120.969 120.983 120.372 119.791 119.262 117.844 116.783 115.296 113.969 113.224 113.231 114.024 115.448 117.047 118.889 121.287 123.585 125.163 126.252 126.811 126.758 125.978 125.889 125.915 125.647 124.983 124.996 123.556 120.874 118.633 117.952 117.939 117.926 117.961 118.000 118.000 118.000 118.000 118.000 117.545 116.069 113.004 113.973 116.543 118.649 119.516 119.458 118.626 117.975 117.388 117.178 117.680 117.668 117.213 117.000 116.894 116.616 116.603 116.590 116.577 116.564 116.484 116.039 116.000 116.000 116.000 116.000 116.000 116.000 116.000 116.000 116.000 116.000 116.000 116.000 115.745 115.282 114.984 114.178 113.372 113.000 112.830 112.267 112.040 112.000 111.648 111.228 111.199 111.024 110.443 110.176 110.115 109.911 109.215 109.125 109.112 109.066 109.000 109.000 109.000 109.000 109.000 109.000 109.000 108.996 108.983 108.981 109.000 109.000 109.000 109.561 109.945 110.000 110.000 110.000 110.000 110.000 110.000 110.000 110.000 110.000 110.000 110.000 110.066 110.659 110.724 110.712 110.699 110.686 110.673 111.871 112.830 113.052 112.565 112.235 112.950 113.730 114.139 114.290 115.071 114.273 114.036 114.010 113.985 113.959 113.933 113.283 112.262 111.428 111.439 111.909 112.000 111.713 111.363 111.279 110.460 109.419 108.511 107.705 106.827 105.434 103.834 102.600 101.675 100.768 99.322 98.308 96.903 95.291 93.705 92.207 92.131 92.050 91.657 91.075 91.000 91.000 91.000 91.017 91.028 91.041 91.834 91.996 92.443 93.249 94.052 94.807 95.592 96.899 98.279 98.916 98.110 98.000 98.000 98.257 98.956 99.905 100.000 100.000 99.923 100.119 102.109 102.951 103.157 102.600 101.400 100.035 100.000 100.000 100.255 100.704 101.000 101.000 101.000 101.000 101.030 101.121 101.467 101.526 101.279 100.869 100.487 100.475 100.462 100.231 100.000 100.000 100.000 100.709 101.198 101.573 102.000 102.000 102.000 102.000 102.000 102.000 102.000 102.562 102.744 102.757 102.770 102.783 102.161 102.000 102.000 102.000 101.978 101.172 101.000 101.000 101.000 101.051 101.857 102.042 102.496 102.735 102.022 102.001 101.306 100.487 99.973 99.854 99.079 99.000
 120.588 122.406 125.027 126.755 126.742 126.018 124.829 123.677 122.831 121.763 121.415 122.396 124.079 125.599 126.039 125.381 124.258 123.573 123.560 123.547 122.734 122.811 123.000 122.890 122.482 122.469 121.821 121.443 121.430 121.417 121.404 121.131 121.000 121.000 121.000 121.000 121.000 120.656 119.994 119.207 118.608 119.247 119.497 119.807 120.556 121.168 121.048 120.543 119.564 118.473 118.434 119.859 120.827 121.212 121.003 120.240 120.201 120.781 121.548 122.308 123.067 123.847 123.333 122.976 123.223 123.950 123.937 123.924 123.911 124.159 124.771 124.745 124.818 124.846 125.153 125.820 125.807 125.795 125.782 126.305 127.501 128.655 128.649 128.584 129.010 129.948 130.702 130.397 128.287 125.839 124.252 124.226 124.200 124.545 124.723 124.791 125.074 124.673 123.905 122.823 121.584 120.325 118.700 116.384 114.229 112.828 112.419 112.406 113.114 114.633 116.188 117.200 117.967 117.984 117.389 116.906 116.651 115.586 114.172 113.019 112.382 112.224 112.218 113.657 115.231 117.540 120.362 122.806 125.250 127.048 127.833 127.905 127.913 127.871 127.888 127.454 126.961 126.875 126.097 123.166 119.928 117.650 116.958 116.996 117.000 117.493 117.901 117.888 117.875 117.862 117.849 117.147 115.489 113.226 114.467 116.581 117.864 118.000 117.983 117.178 117.000 117.000 117.000 117.000 117.000 117.000 116.834 116.459 116.000 116.000 116.000 116.000 116.000 116.000 116.000 115.660 115.513 115.500 115.556 115.969 116.000 116.000 116.000 115.905 115.427 115.396 115.384 115.227 114.875 114.345 114.064 113.388 113.000 112.776 112.000 112.000 111.522 111.133 111.000 110.954 110.310 110.062 109.607 109.164 109.138 109.015 109.000 108.550 108.099 108.086 108.074 108.061 108.048 108.035 108.022 108.009 108.000 108.000 108.360 108.957 108.944 108.931 108.967 109.363 109.893 109.881 109.976 110.000 110.000 110.000 110.000 110.000 110.000 110.000 110.000 110.000 110.000 110.000 110.000 110.000 110.000 110.000 110.471 110.984 111.269 111.211 111.014 111.443 111.903 112.140 112.275 113.055 112.652 112.519 112.506 112.396 111.962 111.934 111.632 111.258 111.000 111.011 111.335 111.390 111.210 111.000 110.944 110.139 108.882 107.839 107.020 106.116 104.491 103.382 102.497 101.455 100.082 99.096 98.273 96.935 95.323 93.711 92.100 92.000 91.505 91.067 91.000 91.000 91.000 91.000 91.000 91.000 91.000 91.002 91.621 92.437 93.269 94.047 94.010 94.651 96.290 98.089 98.826 98.110 98.000 98.000 98.000 98.196 99.808 100.000 99.889 99.523 99.097 99.696 100.274 100.286 100.326 100.537 99.718 99.668 99.655 99.642 99.816 100.609 100.604 100.591 100.578 100.537 100.460 100.907 101.000 100.786 100.378 100.000 100.000 100.000 100.000 100.000 100.000 100.000 100.693 101.000 101.114 101.359 101.346 101.333 101.680 102.000 102.099 102.680 102.933 103.000 103.000 103.000 103.000 102.218 102.000 102.000 102.000 101.994 101.188 101.000 100.625 100.102 100.092 100.140 101.339 102.023 102.028 101.937 101.140 100.322 99.510 99.000 99.000 99.000 99.000
 119.000 120.311 122.750 125.287 125.456 124.952 124.215 123.396 122.465 120.840 119.940 120.713 121.975 122.626 122.613 123.354 123.026 122.574 122.561 122.548 122.116 122.308 122.509 122.294 121.483 121.470 120.837 120.444 120.431 120.418 120.405 120.392 120.379 120.200 119.749 120.256 120.327 119.497 118.311 117.548 117.302 117.447 117.498 117.792 118.572 119.352 119.987 119.197 117.933 117.027 116.323 117.799 118.812 119.551 119.908 119.089 119.067 119.657 120.058 120.272 121.031 121.007 121.615 121.953 122.180 122.951 122.938 122.875 122.823 122.797 122.781 122.858 123.454 123.694 123.921 124.482 124.600 124.738 124.897 125.000 124.966 124.757 124.730 124.560 124.919 125.934 126.688 127.181 125.528 123.777 122.926 122.614 122.601 122.588 122.575 122.690 123.049 121.842 120.923 120.299 119.736 118.841 117.204 114.891 113.195 112.308 111.946 111.466 111.670 112.782 114.051 114.752 115.000 114.985 114.776 114.364 113.717 112.872 111.826 110.932 110.476 110.731 111.980 114.222 116.500 119.275 122.313 124.728 125.775 126.705 127.108 127.095 127.082 127.070 127.057 127.023 126.476 124.959 124.127 121.218 118.476 116.676 116.101 116.857 116.927 116.914 116.934 117.000 117.000 117.000 117.000 116.582 115.494 113.869 113.955 115.748 117.389 117.953 117.746 117.142 117.000 117.000 117.000 117.000 117.000 116.779 116.195 115.630 115.617 115.604 115.591 115.578 115.565 115.552 115.539 115.157 115.000 115.000 115.058 115.439 115.462 115.449 115.436 115.360 115.019 114.542 114.384 114.371 114.180 113.361 113.332 113.129 112.721 112.233 111.990 111.400 111.095 111.000 110.817 110.207 110.031 109.470 109.096 108.777 108.151 108.139 108.126 108.057 108.000 108.000 108.000 108.000 108.000 108.000 108.000 108.000 108.000 108.000 108.000 108.000 108.000 108.000 108.579 109.000 109.000 109.000 109.696 109.943 110.000 110.000 110.000 110.000 110.000 110.000 110.000 110.000 110.000 109.817 109.712 109.700 109.687 109.674 109.661 109.648 109.635 109.737 110.530 110.596 110.583 110.571 110.703 111.496 111.886 112.271 112.494 112.332 111.539 111.114 111.000 111.000 111.000 111.000 111.000 111.000 111.000 111.000 110.935 109.595 108.023 106.855 106.037 105.198 104.159 103.319 102.513 101.414 99.825 98.380 97.486 96.151 94.526 93.009 92.075 91.358 91.054 91.000 91.000 91.000 91.000 91.000 91.000 91.000 91.000 91.000 91.599 92.800 94.182 94.930 94.161 94.588 95.354 96.369 97.781 97.857 97.954 98.000 98.000 98.150 99.607 99.797 99.392 98.930 98.759 98.746 98.733 98.487 98.767 99.596 99.036 99.000 99.000 98.870 98.864 99.968 100.000 100.000 100.000 100.113 100.555 100.914 101.292 101.062 100.384 100.000 100.000 100.000 100.000 100.146 100.576 100.589 100.872 101.000 101.000 101.000 101.000 101.000 101.165 101.529 102.037 102.263 102.808 102.597 102.244 102.112 101.467 100.644 100.385 100.669 101.167 101.154 101.029 100.475 100.068 100.000 99.982 99.238 99.144 99.983 101.038 100.976 100.158 99.339 99.000 99.000 99.000 99.000 99.000
 119.000 119.811 121.231 122.579 123.359 123.460 122.949 122.117 121.218 119.841 119.194 119.671 120.598 121.346 121.948 122.443 122.268 122.000 122.000 122.000 122.000 121.726 121.509 121.311 120.492 120.470 119.854 119.444 119.431 119.418 119.405 119.392 119.107 118.643 118.371 118.632 118.655 118.013 117.219 116.943 116.358 116.262 116.249 116.308 116.472 116.614 117.314 116.929 116.286 116.019 115.200 115.984 116.797 117.252 117.419 118.060 118.068 118.087 118.460 119.035 119.036 119.814 119.996 120.000 120.448 121.949 121.886 121.253 120.872 120.798 120.836 121.616 121.815 121.774 121.716 121.898 122.535 123.296 124.187 124.843 124.877 124.071 123.802 123.330 123.000 123.058 123.343 123.076 122.784 122.504 122.072 121.240 121.202 121.423 121.575 121.469 121.071 119.807 119.194 118.787 118.256 117.390 115.765 113.838 112.535 111.846 111.387 111.048 111.000 111.377 112.036 112.710 112.684 112.176 111.948 111.809 111.541 111.293 110.516 109.698 109.512 110.331 111.943 114.954 118.038 120.566 122.422 124.149 124.942 125.196 125.218 125.192 125.166 125.140 125.114 124.660 123.338 120.953 119.293 117.648 116.501 115.966 115.953 115.941 115.978 116.000 116.283 116.889 116.876 116.863 116.850 116.151 114.526 112.901 113.713 115.700 117.288 117.624 117.012 117.000 117.000 117.000 117.000 116.996 116.729 116.030 115.365 115.000 115.000 115.000 115.000 114.805 114.565 114.553 114.540 114.527 114.514 114.501 114.488 114.475 114.462 114.449 114.436 114.423 114.410 113.653 113.384 113.372 113.301 113.011 113.000 112.606 112.189 112.000 112.000 111.197 111.000 110.685 110.179 109.979 109.337 109.069 108.634 108.123 108.000 108.000 108.000 108.000 108.000 107.921 107.174 107.061 107.049 107.335 108.000 108.000 107.997 107.984 107.981 108.000 108.000 108.000 108.518 108.941 109.000 109.000 109.000 109.593 110.000 110.000 110.000 110.000 110.000 109.905 109.765 109.752 109.739 109.253 109.000 108.921 108.687 108.674 108.892 109.000 109.000 109.062 109.552 109.597 109.584 109.710 110.186 111.360 112.555 113.245 113.493 113.268 112.054 111.230 111.000 111.000 111.000 111.000 111.000 110.631 110.378 110.365 110.320 109.228 107.729 106.559 105.753 104.947 104.141 103.335 102.175 100.682 99.122 98.135 97.305 95.999 94.387 92.888 92.082 91.276 91.000 91.000 91.000 91.000 91.000 91.000 91.000 91.000 91.000 91.000 91.000 91.782 93.166 93.952 93.939 93.972 94.388 95.154 96.037 96.842 97.648 97.931 97.836 97.890 98.683 98.798 98.785 98.548 98.000 98.000 98.000 98.370 98.801 98.962 98.704 98.669 98.656 98.543 98.565 99.569 99.605 99.592 99.579 99.646 99.996 101.162 101.790 101.592 100.786 99.990 99.567 99.463 99.450 99.681 100.453 100.915 101.398 101.327 101.000 101.000 101.000 101.000 101.000 101.093 101.372 101.939 102.195 101.731 101.244 101.093 100.274 99.456 99.193 99.245 99.474 100.132 100.141 100.053 100.000 99.823 99.090 99.015 99.000 99.443 99.820 99.051 99.015 99.000 98.993 99.000 98.998 98.955 98.936
 119.000 119.344 120.015 120.795 121.380 121.461 120.966 120.134 119.327 118.755 118.665 118.652 118.944 119.806 121.092 121.201 121.393 121.432 121.184 121.524 121.536 120.965 120.510 120.412 120.012 119.586 119.189 119.000 119.000 118.997 118.518 118.393 118.219 117.855 117.354 117.341 117.328 117.172 116.820 116.270 116.036 116.000 116.000 115.780 115.224 115.211 115.338 115.275 115.172 115.139 115.010 115.098 115.185 115.524 116.109 116.159 116.136 116.650 117.419 118.029 118.016 118.798 119.591 119.968 120.134 120.837 120.042 119.851 119.427 118.900 118.934 119.727 120.520 120.453 120.226 120.822 120.809 121.344 122.448 123.680 124.407 123.575 122.743 122.436 122.410 122.290 121.718 121.168 121.362 121.280 120.461 119.642 119.601 119.932 120.151 120.015 119.549 119.103 118.708 117.886 116.770 115.923 114.712 113.173 111.997 111.323 110.965 110.486 110.394 110.381 110.473 110.711 110.685 110.427 110.316 110.303 110.291 110.278 109.533 109.116 109.344 110.299 111.911 115.045 117.347 119.402 121.369 122.279 123.061 123.244 123.219 123.381 124.070 123.308 123.115 122.244 120.841 119.930 118.306 116.671 115.516 115.000 115.000 115.000 115.636 115.915 115.902 115.901 115.989 116.000 115.922 115.183 113.605 112.288 113.691 115.748 117.000 117.000 117.000 117.000 117.000 117.000 117.000 117.000 116.196 115.390 114.852 114.631 114.618 114.605 114.592 114.321 114.000 113.974 113.603 113.843 113.769 113.501 113.533 113.944 114.000 113.722 113.437 113.424 113.411 113.108 113.000 113.000 112.906 112.378 112.333 112.140 111.744 111.294 111.282 110.481 110.256 110.146 109.842 109.215 109.037 108.496 108.102 108.000 108.000 108.000 108.000 107.594 107.101 107.082 107.009 107.000 107.000 107.011 107.023 107.010 107.000 107.000 107.314 107.959 107.946 107.983 108.000 108.353 109.000 109.000 109.000 109.577 110.000 110.000 110.000 110.000 110.000 109.679 109.235 109.248 109.261 109.274 109.287 108.978 108.000 108.000 108.666 109.000 109.000 109.000 109.000 108.720 108.584 108.878 109.784 111.383 112.982 113.520 113.507 113.281 112.076 111.246 111.000 110.796 110.430 110.417 110.404 110.160 110.000 110.000 109.992 109.187 107.344 105.888 105.069 104.251 103.432 102.613 101.681 100.478 98.933 98.127 96.777 95.216 93.591 92.063 91.244 90.425 90.572 91.000 91.000 91.000 91.000 91.000 91.000 91.000 91.000 91.000 91.000 91.371 92.144 92.897 92.928 93.530 93.949 94.408 95.911 96.805 97.632 97.562 96.960 96.874 97.667 97.932 98.000 98.000 98.000 98.000 97.816 97.721 98.011 98.619 98.058 98.000 98.000 98.214 98.682 98.979 99.000 99.000 99.000 99.169 99.974 101.202 101.805 101.798 101.201 99.996 99.190 99.000 99.000 99.228 100.034 100.840 101.258 101.212 100.839 100.361 100.348 100.335 100.322 100.309 100.389 101.182 101.270 100.368 99.251 98.667 98.454 98.261 97.758 97.645 98.320 99.113 99.142 99.129 99.116 99.085 99.001 99.000 99.000 99.405 99.789 98.983 98.188 98.000 98.429 98.975 98.915 98.097 97.978
 119.000 119.000 119.124 119.514 119.488 119.462 118.983 118.227 117.692 117.679 117.666 117.653 117.824 118.348 119.128 119.202 119.688 119.967 119.631 120.059 120.072 119.763 119.510 119.497 119.484 119.111 119.310 119.555 119.464 119.006 118.205 118.000 118.000 117.787 117.000 117.000 117.000 117.000 116.758 116.000 116.000 116.000 116.000 115.935 115.776 115.789 115.249 115.000 115.000 115.000 115.000 115.000 115.000 115.036 114.971 114.216 114.137 114.666 115.446 116.060 116.034 117.561 118.557 118.552 117.930 117.904 117.927 117.881 117.826 117.800 117.809 118.691 119.505 119.848 119.877 119.989 119.835 119.796 120.055 120.815 121.983 121.539 120.760 120.294 120.117 120.078 120.039 120.244 120.307 120.061 119.534 119.027 119.000 118.767 118.418 118.126 118.100 118.074 117.451 116.413 115.289 114.470 113.651 112.545 111.567 111.000 110.955 110.149 109.603 109.382 109.538 110.000 110.000 109.540 109.317 109.304 109.291 109.278 109.075 109.000 109.327 110.164 111.140 113.585 115.925 117.656 118.784 120.240 121.046 121.245 121.219 121.212 121.251 121.156 120.541 120.098 119.595 117.954 115.515 114.358 114.437 114.967 114.954 114.941 114.976 115.000 115.000 115.078 115.783 115.864 115.346 114.166 112.670 112.798 114.403 115.955 116.850 117.000 117.000 117.000 117.000 117.000 117.000 117.000 115.952 115.063 114.387 114.000 113.996 113.677 113.592 113.579 113.566 113.531 113.083 113.345 113.278 113.000 113.035 113.417 113.463 113.230 113.000 112.942 112.466 112.398 112.385 112.372 112.313 112.022 111.506 110.949 110.507 110.295 110.282 110.062 110.000 110.000 109.811 109.005 108.363 108.075 108.000 108.000 108.000 108.000 107.444 107.064 106.777 106.088 106.075 106.687 107.000 107.000 107.000 107.000 107.000 107.000 107.000 107.000 107.000 107.677 107.963 108.306 108.895 108.882 108.968 109.480 109.843 109.859 109.996 110.154 110.209 110.222 110.187 110.002 110.212 110.104 110.000 109.606 108.300 108.051 108.650 109.000 109.000 108.975 108.660 108.192 108.000 108.291 109.108 109.986 111.153 111.561 111.522 111.421 110.996 110.591 110.456 110.288 109.911 109.439 109.404 109.391 109.378 109.366 109.353 108.016 106.250 104.905 104.236 103.979 103.173 102.367 101.232 99.934 98.910 97.467 96.404 94.681 92.623 91.079 90.260 89.441 89.619 90.379 91.000 91.000 91.000 91.000 90.681 90.166 90.946 91.000 90.992 90.979 90.972 90.999 91.781 92.587 93.359 94.100 94.898 96.497 97.395 97.341 96.646 96.028 96.682 97.445 97.883 98.000 97.985 97.780 97.238 97.000 97.204 97.724 97.968 98.000 98.000 98.000 98.078 98.574 98.895 99.000 99.000 99.086 99.531 100.306 101.099 101.515 101.319 100.522 99.729 99.214 99.000 99.093 99.453 100.720 101.000 101.000 100.759 100.000 100.000 100.000 100.000 99.813 99.319 99.534 99.542 98.894 97.718 96.465 96.439 96.413 96.709 97.060 97.304 98.097 98.142 98.612 99.000 99.000 99.000 99.000 99.000 99.020 99.032 98.999 98.193 98.000 98.000 97.994 97.933 97.155 97.561
 118.755 118.478 118.147 117.510 117.278 117.194 116.964 116.705 116.707 116.953 117.000 117.000 117.000 117.078 117.884 118.000 118.292 118.575 118.562 118.549 118.870 119.000 119.000 119.000 119.000 119.000 119.555 120.000 119.833 119.027 118.221 118.000 117.758 117.295 117.000 117.000 117.000 116.713 116.234 116.000 116.000 116.000 116.000 115.805 115.273 115.896 115.327 115.000 115.000 115.000 115.000 115.000 115.000 114.719 114.084 114.006 114.000 114.030 114.058 114.060 114.035 114.774 115.546 115.943 115.931 115.905 116.671 116.299 115.913 115.901 115.917 117.414 118.351 118.697 118.911 119.608 118.930 118.663 118.205 117.978 118.590 119.370 118.777 117.946 117.412 117.386 117.360 118.050 118.308 118.165 117.935 118.207 118.205 117.627 116.947 116.563 116.551 116.179 115.468 114.825 114.306 113.487 112.668 111.849 111.030 110.434 110.392 109.574 108.367 107.488 107.360 108.069 108.030 107.321 107.277 108.001 109.000 109.000 109.000 109.000 109.075 109.344 110.137 111.223 113.169 115.147 116.618 118.204 119.031 119.246 119.220 119.194 119.169 119.143 119.082 118.663 117.653 116.015 114.372 113.994 113.981 113.975 114.000 114.000 114.607 114.916 114.903 114.890 114.877 114.864 114.217 112.726 110.944 111.889 113.995 115.305 116.098 116.761 116.748 116.735 116.570 116.418 116.344 116.060 114.722 113.935 113.644 113.631 113.619 113.120 113.000 113.000 113.000 112.989 112.618 112.528 112.515 112.502 112.517 112.927 113.000 112.740 112.438 112.389 112.045 112.000 111.692 111.373 111.287 110.746 110.426 110.150 110.000 110.000 110.000 110.000 110.000 110.000 109.827 109.021 108.215 108.000 108.000 107.831 107.161 107.841 107.380 106.622 106.078 106.000 106.000 106.041 106.050 106.037 106.090 106.875 106.998 106.992 107.000 107.000 107.000 107.000 107.515 108.000 108.000 108.000 108.739 109.000 109.055 109.300 109.969 110.768 111.120 111.137 110.814 110.008 110.591 110.123 109.714 109.550 108.978 108.172 108.420 108.650 108.637 108.592 108.087 108.000 108.000 108.157 108.595 108.949 109.370 109.521 109.508 109.495 109.482 109.469 109.456 109.443 109.370 109.023 109.000 109.000 108.774 108.258 107.722 106.633 105.153 103.921 103.302 103.284 102.465 101.646 100.721 99.771 98.930 97.319 95.317 93.382 91.656 90.095 89.277 89.043 89.058 89.396 90.095 90.082 90.726 90.517 90.030 90.004 90.017 90.005 90.000 90.000 90.148 90.915 91.706 92.499 92.947 93.183 93.989 95.393 95.727 95.823 95.966 95.825 95.812 96.556 97.436 97.945 97.724 97.109 96.825 96.851 97.000 97.077 97.883 98.227 98.173 98.000 97.961 97.652 98.325 98.593 98.580 98.567 98.554 99.290 100.344 101.000 100.917 100.504 99.699 99.193 99.000 99.000 99.002 100.141 100.768 100.743 100.290 100.000 100.000 99.573 99.323 99.055 98.254 97.664 98.033 97.780 96.891 96.000 96.000 96.000 96.508 97.257 97.852 97.988 98.000 98.070 98.117 98.104 98.091 98.079 98.066 98.053 98.040 98.027 98.003 98.000 97.995 97.767 96.963 96.950 96.311
 117.339 116.176 115.541 115.514 115.094 115.000 115.302 115.706 115.715 116.250 116.548 116.654 116.641 116.667 117.148 117.472 117.589 117.576 117.563 117.550 118.240 118.524 118.511 118.498 118.485 118.472 118.998 119.446 119.282 118.463 118.097 117.656 117.238 117.000 117.000 116.479 116.329 116.188 116.000 115.989 115.406 115.264 115.251 115.181 114.975 114.510 113.741 113.373 113.347 113.384 114.046 114.134 114.121 114.076 114.000 114.000 114.000 114.000 114.000 114.000 114.000 113.261 113.004 113.350 113.966 113.953 114.716 114.927 114.914 114.901 114.888 115.580 116.335 116.698 116.859 117.470 117.431 116.881 116.665 116.714 116.561 117.135 116.706 115.963 115.413 115.414 115.647 116.135 116.309 115.972 115.332 115.800 115.808 115.454 115.154 115.128 115.102 114.317 113.753 113.331 112.821 111.989 110.742 110.107 109.494 108.869 108.830 107.998 106.542 105.069 104.345 105.070 105.031 104.776 105.095 106.326 108.292 108.279 108.768 109.000 109.000 109.023 109.194 109.914 110.903 112.444 114.587 116.173 117.016 117.247 117.221 117.340 118.054 118.072 118.059 117.295 115.502 113.072 113.010 112.998 113.000 113.213 113.955 113.942 113.929 113.954 114.000 113.994 113.895 113.775 112.355 110.650 110.344 111.968 113.454 114.396 115.013 115.522 115.497 115.279 114.783 114.419 114.293 113.718 112.915 112.658 112.645 112.632 112.619 112.606 112.593 112.580 112.567 112.549 112.100 112.000 112.000 112.000 112.019 112.403 112.464 112.245 111.853 111.425 111.412 111.399 110.900 110.373 110.325 110.033 110.000 110.000 110.000 110.000 110.000 110.000 109.595 109.244 109.074 108.255 108.047 108.000 107.688 107.136 107.001 107.112 106.523 106.068 106.000 106.000 106.000 106.000 106.000 106.000 106.001 106.010 106.000 106.463 106.980 107.000 107.000 107.000 107.499 108.000 108.000 108.000 108.723 109.000 109.282 109.855 109.990 110.752 111.558 111.555 110.596 109.777 109.538 109.028 108.715 108.702 108.685 108.127 108.000 108.000 108.000 108.000 108.000 108.000 108.000 108.000 108.036 108.476 108.534 108.521 108.508 108.495 108.483 108.844 109.000 108.823 108.431 108.418 108.405 108.063 107.411 106.677 106.368 105.575 104.185 102.938 102.302 102.289 101.481 100.662 100.149 99.625 98.187 96.562 94.307 92.668 91.515 89.911 88.417 88.134 88.122 88.381 89.166 89.894 90.048 90.029 90.000 90.000 90.000 90.000 90.000 90.000 90.000 90.000 90.705 91.523 92.361 93.150 93.865 93.877 93.943 94.723 95.674 95.000 95.000 96.228 97.330 97.548 96.761 96.748 96.262 96.325 96.858 97.365 98.184 99.003 98.863 98.153 97.575 97.064 97.703 98.000 98.000 98.000 98.000 98.397 99.606 100.516 100.353 99.534 99.114 98.696 98.247 97.878 97.852 99.083 99.998 100.231 100.000 99.990 99.465 99.125 99.000 98.761 97.987 97.758 97.428 97.139 96.731 96.000 96.000 96.544 97.298 97.872 98.000 98.000 98.000 98.000 98.000 98.000 98.000 98.000 98.000 98.000 98.000 98.000 98.000 98.000 97.602 96.788 96.001 95.960 95.365
 114.938 114.274 113.771 113.758 114.336 114.464 114.438 114.351 114.080 114.041 114.630 114.963 114.924 114.885 114.846 115.464 115.768 115.843 116.127 116.101 116.444 116.573 116.680 116.997 116.971 116.945 117.442 117.893 117.809 117.445 117.407 117.177 117.000 116.896 116.375 116.077 115.610 115.051 114.607 114.581 114.332 113.815 113.503 113.307 112.648 111.803 110.958 110.560 110.522 110.542 111.309 111.405 111.366 111.579 112.272 112.986 113.721 114.955 115.912 115.823 115.056 114.265 113.472 113.014 113.000 113.000 113.714 113.886 113.861 113.901 113.888 113.875 114.376 114.699 114.673 114.647 114.621 114.595 115.000 115.307 114.518 114.492 114.291 113.828 113.414 113.460 114.240 114.109 113.965 113.842 113.591 113.268 112.923 112.771 112.870 113.072 112.682 111.872 111.316 110.695 109.918 109.476 108.282 107.921 107.511 106.762 106.268 105.424 104.339 103.449 103.081 103.357 103.344 103.758 104.746 106.270 108.000 108.000 108.178 108.607 109.000 109.000 109.000 109.141 109.692 110.848 112.555 114.141 115.001 115.715 116.111 116.112 116.166 115.443 114.649 113.800 112.915 112.041 112.008 112.589 112.982 112.975 113.000 113.000 113.000 113.392 113.904 113.848 112.930 111.992 110.778 110.229 111.485 113.122 113.944 114.006 113.775 113.762 113.749 113.213 113.000 113.000 113.000 113.000 112.260 112.000 112.000 112.000 112.000 112.000 112.000 112.000 112.000 112.000 112.000 112.000 112.000 112.000 111.988 111.567 111.464 111.451 111.192 110.426 110.413 110.400 110.205 110.000 110.052 110.579 110.665 110.339 110.000 110.000 110.000 109.472 108.728 108.245 108.091 107.272 107.206 107.193 107.114 107.000 107.000 106.328 105.027 104.580 105.103 105.095 105.826 106.000 106.000 106.000 106.000 106.000 106.000 106.000 106.253 106.960 106.948 106.979 107.445 107.909 107.906 107.988 108.615 108.930 109.000 109.104 109.762 110.399 111.015 110.719 109.415 108.784 108.173 108.000 108.000 108.000 108.000 108.000 108.000 107.858 107.638 107.618 107.292 107.198 107.172 107.147 107.099 106.708 106.604 106.788 107.018 106.992 106.966 107.631 107.914 107.754 107.370 106.887 106.811 106.260 105.428 104.734 104.708 103.933 102.919 101.954 101.302 101.290 100.498 100.109 99.707 98.844 97.220 95.595 93.355 91.766 90.534 88.284 87.333 87.135 87.517 88.028 88.158 88.951 89.697 90.000 90.000 89.911 89.120 89.705 89.993 89.980 89.971 89.997 90.000 91.039 92.261 92.918 92.995 93.000 93.569 94.374 95.000 95.000 94.852 95.877 96.660 96.612 96.000 96.000 96.000 96.000 96.410 97.742 98.535 99.545 99.537 98.462 97.000 97.000 97.417 97.594 97.706 97.955 97.595 97.870 98.799 99.517 99.436 99.029 99.000 98.448 97.642 97.000 97.000 98.097 98.983 99.388 99.375 99.362 99.068 99.000 99.000 98.777 98.000 98.000 97.826 97.410 96.938 96.766 96.779 95.870 95.483 95.547 95.728 97.732 98.000 98.000 98.000 97.895 97.162 97.079 97.067 97.054 97.041 97.028 97.015 97.002 96.618 95.977 95.964 95.201 95.000
 113.000 113.000 112.962 112.766 112.746 112.733 112.611 112.276 111.694 111.681 111.873 111.964 111.925 111.886 111.847 112.450 112.769 112.876 113.255 113.203 113.461 113.574 113.680 114.040 114.403 114.788 115.153 115.341 115.302 115.263 115.224 115.185 115.146 114.959 114.114 114.029 113.424 112.579 112.036 112.571 111.986 111.200 110.456 109.907 109.665 108.820 108.476 108.375 108.349 108.330 108.423 108.406 108.367 108.595 109.427 110.934 112.461 114.038 115.045 115.127 115.893 115.280 114.477 113.681 113.029 113.003 112.956 112.418 112.325 112.902 112.889 112.876 112.863 112.850 112.837 112.824 112.811 112.798 113.111 113.374 112.753 112.535 111.999 111.720 111.634 111.428 111.950 111.559 111.311 111.565 112.174 111.342 110.786 110.385 110.334 110.629 110.147 109.016 108.045 107.365 107.000 106.974 106.590 106.158 105.528 104.795 104.431 103.623 103.162 103.000 103.000 103.000 103.000 103.206 104.174 105.773 107.321 107.889 108.000 108.457 109.000 109.000 109.000 109.000 109.092 109.762 111.278 112.191 113.598 114.189 114.223 114.081 113.317 112.478 111.633 111.124 111.215 111.965 112.000 111.998 112.000 112.182 112.950 112.943 112.930 112.917 112.904 112.845 111.221 109.596 108.983 110.108 113.105 114.717 114.868 113.947 113.000 112.980 112.777 112.919 113.000 113.000 113.000 113.000 112.276 112.000 112.000 112.000 112.000 112.000 111.773 111.581 111.568 111.555 111.542 111.529 111.516 111.504 111.487 111.090 111.000 110.767 110.338 110.000 110.000 110.000 110.000 110.000 110.024 110.304 110.336 110.167 109.800 109.230 108.638 108.350 107.745 107.245 107.203 107.015 107.000 107.000 107.000 106.871 106.188 104.717 103.611 103.160 103.371 104.081 104.139 104.692 105.438 106.000 106.000 106.000 106.000 106.000 106.000 106.000 106.000 106.618 106.959 107.000 107.071 107.782 107.960 108.426 108.845 108.814 108.653 108.612 108.586 108.301 107.767 107.754 107.741 107.729 107.716 107.653 107.388 107.102 106.992 106.562 105.843 105.499 104.954 104.799 104.760 104.721 104.664 104.184 104.070 104.280 104.528 104.489 104.450 105.086 105.373 105.493 105.824 105.462 104.988 104.277 103.640 103.290 102.756 101.950 101.480 100.970 100.303 100.290 100.066 100.000 99.344 97.877 96.252 94.003 92.562 90.938 88.890 87.145 86.326 86.135 86.557 87.323 88.046 88.852 89.047 89.058 89.045 89.030 89.002 89.004 88.994 88.981 89.073 89.866 89.984 90.523 91.329 92.122 92.838 92.969 93.478 94.263 95.026 95.169 94.266 94.466 95.258 96.087 96.476 96.300 96.102 95.884 95.934 96.736 97.783 99.072 99.364 98.494 97.000 97.000 97.000 97.000 97.164 97.518 97.059 97.380 98.037 98.517 98.504 98.491 98.859 98.750 98.205 97.477 97.026 97.760 98.566 99.000 99.000 99.000 99.000 98.605 98.324 98.247 98.000 98.000 98.000 97.888 97.575 96.967 96.339 95.418 95.000 95.218 95.927 96.997 97.730 98.000 97.739 97.095 97.009 97.000 97.000 97.000 97.000 97.000 96.268 96.003 95.638 95.000 95.000 95.000 95.000
 112.892 112.785 112.657 112.035 111.807 111.733 111.452 110.948 110.699 110.681 110.270 110.000 109.926 109.629 109.616 109.980 110.180 110.154 110.128 110.102 110.429 110.576 110.537 110.534 110.886 111.578 111.841 111.789 111.795 112.211 112.225 112.186 111.946 111.429 111.091 111.030 110.442 109.840 109.771 110.551 109.784 108.952 108.120 107.479 107.453 107.256 106.714 106.375 106.349 106.324 106.298 106.272 106.246 106.247 106.403 107.976 110.170 111.618 112.402 113.150 113.930 114.008 113.983 113.966 113.855 113.075 112.273 112.000 112.000 112.000 112.000 112.000 112.000 111.945 111.837 111.825 111.812 111.918 112.000 111.954 111.749 110.930 110.568 110.442 110.250 109.695 109.682 109.453 109.469 109.813 110.216 109.694 109.334 108.695 108.156 108.131 108.105 106.984 106.009 105.513 105.501 105.488 105.475 104.915 104.291 104.000 104.000 103.230 103.000 103.000 103.000 103.000 103.000 103.000 103.823 105.435 107.024 107.829 108.000 108.112 108.429 109.000 109.000 109.000 109.000 109.326 110.246 111.039 111.928 112.250 111.952 111.286 111.179 110.422 110.587 111.000 111.005 111.020 111.008 111.557 111.983 111.970 111.957 111.988 112.000 112.000 111.962 111.770 110.132 108.743 108.996 110.815 113.067 114.529 114.153 113.430 112.942 112.712 112.096 112.500 112.724 112.711 112.727 112.969 112.524 112.166 111.887 111.633 111.620 111.607 111.272 111.000 111.000 111.000 111.000 111.000 111.000 111.000 111.000 111.000 111.000 110.592 110.000 110.000 110.000 110.000 110.000 110.000 109.968 109.443 109.336 109.007 108.535 108.218 107.399 107.271 107.130 107.000 107.000 107.000 107.000 107.000 107.000 106.746 105.257 103.641 103.057 103.000 103.017 103.088 103.078 103.651 104.444 105.039 105.026 105.013 105.616 105.987 105.980 106.000 106.000 106.000 106.416 106.933 107.000 107.000 107.588 107.858 107.845 107.755 107.083 107.000 107.000 107.000 106.972 106.772 106.553 106.458 106.334 105.958 105.113 104.022 103.658 103.231 102.373 101.516 101.452 101.400 101.348 101.297 101.245 101.194 101.434 101.775 102.019 101.994 101.968 102.252 102.626 103.161 103.865 103.839 103.533 102.900 102.195 101.630 100.798 100.439 99.978 99.528 99.303 99.290 99.817 99.593 98.534 96.784 94.533 92.707 91.618 90.022 87.785 86.162 86.029 86.000 86.418 87.224 88.030 88.836 89.000 89.000 89.000 89.000 89.000 88.333 87.994 87.981 88.058 88.851 89.644 90.437 91.230 91.915 91.992 92.642 92.938 93.634 94.988 95.781 94.435 94.000 94.665 96.131 97.730 97.157 96.404 95.598 95.208 96.023 97.381 98.092 98.318 97.902 96.633 96.621 96.351 96.563 97.000 97.000 97.000 97.000 97.260 97.375 97.010 96.984 98.044 98.744 98.674 97.868 97.062 97.744 98.221 98.389 98.376 98.363 98.350 98.142 98.000 98.000 98.000 98.000 98.000 97.693 97.027 96.208 95.389 95.076 95.000 95.046 95.227 96.020 96.813 97.132 97.086 97.000 97.000 96.358 96.067 96.055 96.042 96.029 96.004 95.469 95.000 95.000 95.000 95.000 95.000
 112.383 112.000 111.970 111.774 111.191 111.000 111.000 110.838 110.032 110.000 110.000 109.867 109.519 109.002 109.000 109.000 108.830 108.578 108.565 108.552 108.539 108.315 108.025 107.999 107.973 108.264 108.382 108.343 108.342 108.642 109.048 109.188 109.030 108.813 109.307 109.344 108.797 108.318 108.248 107.896 107.626 107.382 106.884 106.240 106.227 106.214 106.082 106.000 106.000 106.000 106.000 105.462 105.123 105.319 106.044 106.918 107.817 108.633 109.400 110.167 110.934 111.020 111.475 112.249 112.906 112.905 112.213 111.929 111.943 112.000 112.000 112.000 112.000 111.647 111.000 111.000 111.000 111.461 111.704 111.358 110.526 109.896 109.128 108.721 108.708 108.688 108.419 107.913 107.946 108.287 108.261 108.235 107.544 106.904 106.579 106.566 106.553 106.165 105.499 104.851 104.501 104.488 104.475 104.217 104.000 103.920 103.453 103.101 103.000 103.000 102.892 102.373 102.858 103.000 103.522 104.710 106.301 107.094 107.721 108.000 108.056 108.258 108.877 109.000 109.000 109.046 109.231 110.024 110.232 110.251 109.935 109.286 109.997 110.021 110.031 110.048 110.156 110.933 111.000 110.996 110.989 111.000 111.000 111.724 111.931 111.918 111.518 109.804 108.261 108.550 109.818 111.429 113.021 113.827 113.368 112.907 112.586 112.000 112.000 112.000 112.000 112.000 112.080 112.886 113.000 112.502 111.696 110.960 110.653 110.891 111.000 110.861 110.569 110.556 110.886 110.738 110.517 110.504 110.492 110.479 110.466 110.275 110.000 110.000 110.000 110.000 109.742 109.375 109.350 109.056 108.572 107.872 107.311 107.279 107.037 107.000 107.000 107.000 107.000 107.000 107.000 107.000 106.741 105.923 104.299 103.303 103.000 103.000 103.000 103.000 103.000 103.037 103.072 103.253 104.014 104.796 105.000 104.993 105.206 105.962 105.991 106.000 106.000 106.219 106.902 106.983 107.000 107.000 107.000 107.000 107.000 106.867 106.794 106.715 106.430 105.599 104.582 104.047 103.536 102.679 101.821 100.457 99.809 99.249 98.451 97.897 97.540 97.402 97.350 97.299 97.247 97.559 98.221 98.988 99.530 99.492 99.453 99.414 99.581 100.037 100.799 101.684 101.814 101.310 100.479 99.704 99.393 98.881 98.492 98.317 98.304 98.291 98.481 97.993 96.819 95.145 93.327 91.692 90.181 88.560 86.818 85.193 85.149 85.136 85.526 86.319 87.099 87.154 87.144 87.118 87.319 88.033 88.020 87.352 86.995 86.987 87.073 87.879 88.685 89.457 90.214 91.007 91.800 91.965 92.521 93.327 94.111 94.776 94.208 93.891 94.145 95.063 96.469 96.500 96.047 95.445 95.136 95.697 96.489 96.673 96.660 96.426 95.634 95.621 95.220 95.710 96.582 96.570 96.557 96.544 96.531 96.373 96.000 96.000 97.033 97.971 98.482 98.443 97.650 97.461 97.402 97.389 97.377 97.364 97.843 98.000 98.000 98.000 98.000 98.000 97.569 96.862 96.197 95.989 95.183 95.000 95.000 95.000 95.007 95.134 95.797 96.132 96.119 96.106 96.094 96.026 96.000 96.000 96.000 96.000 95.300 95.002 95.000 95.000 95.000 95.000 95.000
 112.000 112.000 111.910 111.299 111.069 111.000 111.000 110.854 110.048 110.000 110.000 109.630 109.000 109.000 108.699 108.604 108.355 108.000 107.995 107.634 107.539 107.301 107.000 107.000 107.000 106.657 106.461 106.448 106.435 106.422 106.688 106.793 106.767 106.778 107.038 107.033 107.169 107.098 106.571 106.311 106.279 106.266 106.164 105.879 105.255 105.215 105.662 106.000 106.000 106.000 105.319 105.054 105.000 105.024 105.122 105.915 106.118 106.560 107.103 107.153 107.920 108.682 109.460 109.962 110.020 110.800 110.925 110.965 111.307 112.000 112.000 112.000 111.928 111.565 111.000 111.000 110.859 110.799 110.420 109.601 108.782 108.748 108.145 107.722 107.650 107.386 106.810 106.465 106.460 106.562 106.262 106.236 105.561 105.184 105.158 105.161 105.496 105.228 104.799 104.224 103.501 103.488 103.475 103.463 103.450 103.310 102.492 102.411 102.398 102.385 102.314 102.014 102.768 103.000 103.638 104.935 105.989 106.797 107.603 108.000 108.000 108.005 108.179 108.204 108.191 108.379 109.008 109.130 109.139 109.126 109.082 109.008 109.077 109.715 110.000 110.000 110.004 110.020 110.009 110.000 110.328 110.975 110.998 111.000 110.962 110.919 110.415 108.072 107.219 108.174 109.728 111.270 113.005 113.810 113.384 112.667 112.173 112.000 112.000 112.000 112.000 112.000 112.045 112.597 112.673 112.178 111.360 110.575 110.063 110.429 110.595 110.398 110.000 110.000 110.400 110.244 110.000 110.000 110.000 110.000 110.000 110.000 109.898 109.434 109.879 110.000 109.594 108.868 108.363 108.350 107.707 107.183 107.000 107.000 107.000 107.000 107.000 107.000 107.000 107.000 107.000 106.602 105.881 104.956 103.331 103.040 103.000 103.000 103.000 103.000 103.000 102.482 102.394 103.007 103.026 103.792 104.001 104.378 104.980 105.001 105.766 105.975 106.000 106.000 106.028 106.740 106.954 107.000 106.961 106.833 106.820 106.005 105.491 105.060 104.195 103.152 101.748 100.682 99.837 98.993 98.148 97.303 96.459 95.733 95.279 95.253 94.760 94.601 94.434 94.150 94.124 94.889 95.670 96.450 97.021 96.995 96.970 96.282 95.836 96.155 97.413 99.454 99.815 99.607 99.114 98.369 98.356 97.657 97.330 97.317 97.304 97.291 96.763 96.010 94.851 93.315 92.302 90.725 88.660 86.663 85.160 84.199 84.150 84.137 84.510 85.132 85.196 85.170 85.145 85.119 85.315 86.067 86.041 86.011 85.988 86.202 86.997 87.814 88.613 88.964 89.281 90.087 90.893 91.699 92.437 93.164 93.859 93.987 93.865 93.373 93.268 93.955 94.941 95.000 95.000 94.898 94.762 94.994 95.788 96.000 95.864 95.514 95.000 95.000 95.000 95.429 96.000 96.000 96.000 96.000 96.000 96.000 96.000 96.000 96.327 96.955 97.588 97.839 97.469 97.120 97.000 97.000 97.000 97.000 97.260 97.338 97.326 97.313 97.300 97.287 97.116 96.617 96.000 96.000 95.199 95.000 95.000 95.000 95.000 95.000 95.636 96.000 96.000 96.000 96.000 96.000 96.000 96.000 95.920 95.137 95.005 95.000 95.000 95.000 95.000 95.000 95.000
 112.000 112.000 112.000 112.000 111.468 111.266 111.188 110.908 110.349 110.082 110.000 109.647 108.943 108.643 108.141 108.000 107.844 107.579 107.566 107.110 107.000 107.000 107.000 106.988 106.575 106.173 106.000 106.000 106.000 106.000 105.607 105.397 105.384 105.371 105.358 105.345 105.498 105.540 105.306 105.293 105.280 105.267 105.254 105.207 105.012 105.000 105.113 105.189 105.176 105.163 105.032 104.491 104.471 105.000 105.001 105.069 105.072 105.485 106.046 106.035 106.038 106.664 107.450 107.963 108.004 108.784 109.642 110.485 111.267 111.913 111.989 111.913 111.420 111.000 111.000 111.000 110.262 110.000 109.650 108.844 108.038 108.000 107.426 106.894 106.577 106.006 105.747 105.067 104.927 105.150 104.624 104.303 103.828 103.593 103.580 103.573 103.646 103.264 103.056 103.021 103.000 103.000 103.000 103.000 102.833 102.327 101.508 101.836 102.000 102.000 102.000 102.000 102.752 103.372 104.406 105.745 105.993 106.781 107.158 107.548 108.000 108.000 108.000 108.000 108.000 108.041 108.165 108.152 108.139 108.521 109.000 109.000 109.000 109.050 109.514 109.726 109.126 109.902 110.000 109.997 109.989 110.116 110.851 110.890 110.397 109.972 109.600 107.975 107.207 108.066 109.286 110.490 112.627 113.426 113.124 112.790 112.612 112.000 112.000 112.000 112.000 112.000 111.971 111.465 111.347 110.855 110.119 109.635 109.622 109.609 109.596 109.583 109.570 109.557 109.544 109.531 109.518 109.505 109.492 109.479 109.467 109.454 109.367 109.012 109.323 109.402 108.999 108.302 108.000 108.000 107.386 107.000 107.000 107.000 107.000 107.000 107.000 107.000 107.000 107.000 106.467 105.716 104.898 104.139 103.876 103.255 103.000 103.000 103.000 103.000 103.000 102.462 102.018 102.040 102.027 102.776 103.001 103.366 104.179 104.985 105.000 105.559 105.955 106.000 106.000 106.000 106.547 106.859 106.571 105.660 105.489 104.111 102.922 102.019 100.945 99.479 98.544 97.699 96.855 96.041 95.446 94.872 94.319 94.000 94.000 94.000 94.000 94.000 93.790 93.355 93.014 93.426 94.118 94.911 95.511 95.498 95.071 94.046 93.459 93.891 95.502 97.440 98.195 98.395 98.130 97.333 96.800 96.457 96.331 96.318 96.305 96.292 95.580 94.761 93.631 92.035 90.592 88.399 86.855 85.508 84.150 84.008 84.000 84.000 84.046 84.111 84.099 84.086 84.073 84.436 85.010 85.034 85.021 84.390 83.561 83.436 85.024 86.681 87.653 88.459 89.243 89.983 90.864 91.600 91.932 92.295 93.085 93.750 93.234 93.000 93.000 93.231 94.651 94.936 95.000 94.646 94.114 94.675 95.700 96.000 95.617 95.000 95.000 95.000 95.000 95.246 95.583 95.571 95.558 95.545 95.532 95.519 95.533 95.929 96.000 96.221 96.455 96.442 96.429 96.416 96.403 96.578 97.000 97.000 97.000 97.000 97.000 97.000 97.000 97.000 97.000 96.633 96.000 96.000 95.215 95.000 95.000 95.000 95.000 95.000 95.091 95.503 96.000 96.000 96.000 95.403 95.069 95.056 95.040 95.004 95.000 95.000 95.000 95.000 95.000 95.000 95.000
 112.000 112.059 112.245 112.452 112.329 112.265 111.970 111.291 111.304 110.822 110.660 110.465 109.874 108.808 108.187 108.000 107.633 107.000 107.000 107.000 107.000 107.000 107.000 106.992 106.186 106.000 106.000 106.000 106.000 106.000 105.350 105.000 105.000 105.000 105.000 105.000 104.676 104.319 104.306 104.293 104.280 104.267 104.494 104.904 104.280 104.215 104.637 104.716 104.177 104.164 104.151 104.059 104.047 104.112 104.099 104.086 104.073 104.470 105.047 105.055 105.831 106.633 106.558 105.996 106.020 106.813 108.895 110.329 110.857 110.985 111.778 111.185 110.865 110.852 110.822 110.667 110.039 109.800 109.453 108.634 107.815 107.749 107.325 106.636 105.951 105.704 104.902 104.277 103.865 103.645 103.627 102.808 102.606 102.593 102.484 102.114 101.642 101.541 101.528 101.648 102.005 101.979 101.953 101.927 101.771 101.343 100.525 101.118 101.706 102.000 102.000 102.000 102.736 103.541 104.459 105.414 105.971 106.216 106.687 107.377 108.000 108.000 108.000 107.522 107.520 108.000 108.000 108.000 108.000 108.055 108.328 109.000 109.000 109.000 109.029 109.036 109.003 109.020 109.010 109.000 109.297 109.864 109.045 108.946 109.422 109.535 108.646 107.108 107.000 107.628 108.762 109.982 110.635 111.268 111.525 111.662 111.821 112.000 112.000 112.000 112.000 111.870 111.346 109.961 109.674 109.364 109.000 109.000 109.000 109.000 109.000 109.000 109.000 109.000 109.000 109.000 109.000 109.000 109.000 109.000 109.000 108.812 108.441 108.428 108.415 108.402 108.244 108.000 108.000 108.000 107.798 107.403 107.000 107.000 107.000 107.000 107.000 107.000 106.966 106.338 105.552 104.733 104.134 104.000 104.000 103.314 103.000 103.000 103.000 103.000 103.000 102.478 101.690 101.041 101.028 101.760 102.002 102.722 104.163 104.969 105.000 105.000 105.358 105.929 106.000 105.908 105.873 105.743 105.096 103.469 102.480 100.952 99.735 98.680 97.264 96.616 95.818 95.114 94.516 94.000 94.000 94.000 94.000 94.000 94.000 94.000 94.000 94.000 94.000 93.853 93.047 93.000 93.303 93.895 94.598 94.991 94.212 93.406 93.216 93.737 94.451 95.584 96.441 96.791 96.675 96.328 95.509 95.344 95.331 95.318 95.256 94.671 93.876 93.044 92.137 90.962 88.714 86.292 84.885 84.256 83.892 83.217 83.151 83.610 84.000 84.000 84.000 84.000 84.000 84.023 84.047 84.035 84.022 82.799 81.584 81.442 83.130 86.332 87.637 88.443 89.020 89.199 90.737 91.000 91.410 92.133 92.855 92.981 93.000 93.000 93.000 93.089 93.703 94.658 95.000 94.662 94.000 94.000 95.038 95.348 95.079 94.648 94.635 94.622 94.840 95.000 95.000 95.000 95.000 95.000 95.000 95.000 95.001 94.989 95.299 95.468 95.455 95.480 95.928 96.000 96.000 96.292 97.000 97.000 97.000 97.000 97.000 96.913 96.347 96.288 96.275 96.170 96.000 96.000 95.231 94.546 94.198 94.185 94.172 94.159 94.662 95.055 95.121 95.108 95.095 95.030 95.000 95.000 95.000 95.000 95.000 95.000 95.000 95.000 95.000 94.904 94.822
 112.200 112.475 113.278 113.904 113.491 113.393 113.264 112.581 112.607 112.633 112.829 113.028 112.722 110.552 108.622 108.000 107.792 107.421 107.434 107.447 107.196 107.000 107.000 107.000 106.610 106.208 106.000 106.000 106.000 106.000 105.366 105.000 105.000 104.968 104.450 104.346 104.177 104.000 104.000 104.000 104.000 104.000 104.078 104.215 104.019 104.000 104.107 104.126 104.000 104.000 104.000 103.519 103.125 103.112 103.099 103.086 103.073 103.454 104.047 104.040 104.833 105.626 105.991 105.744 105.034 105.804 107.201 108.314 109.073 109.779 110.546 110.041 109.796 109.853 109.745 108.926 108.814 108.801 108.470 107.651 106.832 106.749 106.736 106.472 105.846 105.040 104.235 103.812 103.410 102.935 102.636 102.127 101.763 101.593 101.457 101.000 101.000 100.711 100.529 100.516 100.503 100.490 100.131 99.928 99.902 99.842 99.474 99.696 100.294 100.958 101.441 101.945 102.720 103.525 104.331 105.042 105.279 105.283 105.825 106.618 107.244 107.231 107.218 107.085 107.075 107.179 107.168 107.838 108.000 108.000 108.026 108.072 107.324 107.746 108.062 108.050 108.037 108.024 108.677 108.998 108.985 108.881 108.062 107.946 107.933 107.920 107.786 106.967 106.881 107.946 108.905 109.000 109.000 109.000 109.457 110.165 110.958 111.751 111.948 112.000 111.889 111.294 109.689 109.123 109.000 109.000 109.000 109.000 109.000 109.000 109.000 108.888 108.571 108.558 108.545 108.532 108.519 108.558 108.955 109.000 108.722 108.126 107.442 107.429 107.416 107.403 107.390 107.479 107.981 108.000 107.615 107.199 107.000 107.000 107.000 107.000 107.000 107.000 106.949 105.516 105.075 104.912 104.610 103.951 103.272 103.048 103.000 103.000 103.000 103.000 102.356 102.033 101.688 101.000 101.000 101.730 102.534 103.341 104.144 104.919 104.951 104.973 105.000 105.146 105.785 104.984 104.671 103.780 102.129 100.479 98.828 97.297 96.161 95.381 94.770 94.757 94.258 94.000 94.000 94.000 94.000 94.000 94.000 94.000 94.000 94.000 94.000 94.000 94.000 93.869 93.063 93.000 93.000 93.355 94.082 94.482 93.714 93.200 93.177 93.447 93.435 94.224 95.017 95.396 95.383 95.361 95.060 95.000 95.000 94.830 94.250 93.431 92.613 91.447 89.813 87.774 85.928 84.649 83.700 83.190 83.156 83.013 83.000 83.074 83.421 84.000 84.000 84.000 84.000 84.000 84.000 84.000 82.463 81.421 80.999 81.623 84.028 86.411 87.600 88.427 89.233 90.039 90.845 91.000 91.000 91.263 92.058 92.725 92.941 92.904 92.790 92.799 92.977 94.244 94.739 94.492 93.963 93.720 93.687 93.674 93.780 94.000 94.000 94.000 94.351 94.597 94.662 94.997 95.000 95.000 95.000 94.896 94.496 94.085 94.305 94.702 95.000 95.023 95.369 95.417 95.684 96.108 96.429 96.929 97.000 97.000 96.794 96.279 96.025 96.000 96.000 96.000 95.894 95.277 94.471 93.652 92.906 92.371 92.345 92.977 93.233 93.609 94.121 94.108 94.095 94.650 94.606 94.057 94.044 94.031 94.018 94.456 94.993 94.977 94.909 92.924 92.000
 113.199 113.458 114.225 114.238 114.418 114.874 115.078 114.580 114.606 114.632 114.993 115.238 114.556 111.332 108.831 108.000 108.000 108.000 108.000 108.000 107.442 107.000 107.000 107.000 107.000 106.412 106.000 106.000 106.000 106.000 105.382 105.000 104.859 104.359 104.057 104.000 104.000 104.000 104.000 104.000 104.000 104.000 103.785 103.242 103.229 103.216 103.203 103.190 103.177 103.164 103.152 103.063 103.000 103.000 103.000 102.301 102.074 102.438 103.048 103.035 103.039 103.619 103.996 104.196 104.970 104.957 105.575 106.338 106.836 106.859 107.639 107.758 108.199 108.706 108.615 107.923 107.814 107.801 107.486 106.692 106.066 105.820 105.736 105.724 105.613 105.039 104.251 103.445 103.000 102.833 102.027 102.000 101.415 101.000 100.918 100.568 100.555 100.209 100.000 99.890 99.503 99.490 99.170 99.000 99.000 98.965 98.501 98.413 98.879 99.497 99.839 100.619 101.399 102.518 103.637 104.393 104.949 105.000 105.146 105.346 105.488 105.462 106.033 106.205 106.495 107.000 107.000 107.122 107.141 107.128 107.115 107.100 107.016 107.048 107.063 107.050 107.081 107.855 108.007 107.999 107.996 107.899 107.114 107.000 107.000 107.000 106.895 106.089 105.915 106.914 108.184 108.864 108.990 109.000 109.000 109.283 109.906 110.508 111.473 111.891 111.506 110.382 109.001 109.000 109.000 109.000 109.000 109.000 109.000 109.000 108.820 108.436 108.000 108.000 108.000 108.000 108.000 108.045 108.442 108.481 107.962 107.313 107.000 107.000 107.000 107.000 107.000 107.056 107.348 107.352 107.147 107.000 107.000 107.000 107.000 107.000 107.000 106.844 106.210 104.585 103.716 103.739 103.947 103.163 103.024 103.000 103.000 103.000 103.000 103.000 102.316 101.543 101.038 101.000 101.000 101.714 102.519 103.325 104.000 104.000 104.000 104.515 104.925 104.737 103.836 103.000 102.096 100.813 99.163 97.512 96.004 95.126 94.466 94.000 94.000 94.000 94.000 94.000 94.000 94.000 94.000 94.000 94.000 94.000 94.000 94.000 94.000 94.000 94.000 93.934 93.481 93.123 93.000 93.178 93.512 93.500 93.119 93.000 93.000 93.000 93.000 93.786 94.242 94.396 94.383 94.371 94.358 94.752 94.714 94.086 93.239 91.851 90.441 88.888 87.171 85.398 84.382 83.535 83.104 83.000 83.000 83.000 83.000 83.000 83.040 83.113 83.100 83.087 83.074 83.061 83.048 83.035 82.236 80.854 80.763 82.375 83.987 85.599 87.210 88.411 89.217 90.021 90.741 90.881 90.926 91.211 91.834 91.683 92.419 92.426 92.000 92.064 92.679 93.446 93.739 93.726 93.634 93.058 93.000 93.000 93.222 93.649 93.636 93.623 93.828 93.853 93.827 94.967 94.655 94.546 94.533 94.512 94.492 94.505 94.518 94.730 95.000 95.000 95.000 95.000 95.454 96.000 96.025 96.319 96.353 96.340 96.233 96.000 96.000 96.000 96.000 95.765 95.219 95.016 93.692 92.669 92.129 92.000 92.000 92.123 92.635 93.051 93.283 93.991 94.000 94.050 94.042 94.000 94.000 94.000 94.000 94.003 93.998 93.882 92.285 92.000 92.000
 114.199 114.393 115.008 115.200 115.736 116.000 116.000 116.000 116.000 116.000 116.000 115.711 114.654 111.728 109.260 108.192 108.000 108.000 108.000 108.000 107.706 107.307 107.000 107.000 107.000 106.727 106.334 106.000 106.000 106.000 105.398 105.000 104.787 104.000 104.000 103.588 103.334 103.321 103.308 103.295 103.282 103.269 103.186 103.000 103.000 103.000 103.000 103.000 103.000 103.000 103.000 103.000 102.710 102.113 102.100 102.022 102.000 102.022 102.048 102.035 102.022 102.594 102.996 103.180 103.970 103.992 104.581 104.960 105.000 105.030 105.748 105.880 106.257 106.707 106.681 106.655 106.754 106.802 106.503 105.776 105.763 105.222 104.866 104.811 105.000 105.000 104.267 103.461 102.882 102.549 102.027 101.710 101.038 100.594 100.401 99.582 99.555 99.269 99.059 98.925 98.504 98.491 98.478 98.465 98.452 98.419 98.063 98.000 98.185 98.387 98.450 99.243 100.036 100.994 101.944 102.724 103.504 104.081 104.271 104.258 104.245 104.232 104.965 105.206 105.551 106.315 106.975 107.000 107.000 107.000 107.000 107.000 107.000 107.000 107.000 107.000 107.001 107.021 107.012 107.447 107.736 107.000 107.000 107.000 107.000 107.000 106.903 106.011 105.182 105.882 107.169 107.980 108.912 109.000 109.105 109.137 109.000 109.000 110.332 111.159 110.913 109.822 109.016 109.000 109.000 109.000 109.000 109.000 109.000 108.757 108.340 108.000 107.982 107.626 107.546 107.748 108.000 108.000 108.000 108.000 107.510 107.000 107.000 107.000 107.000 107.000 107.000 107.000 107.000 107.000 107.000 107.000 107.000 107.000 107.000 107.000 107.000 106.666 105.241 103.617 103.082 103.082 103.143 103.000 103.000 103.000 103.000 103.000 103.000 103.000 102.946 102.458 101.681 101.082 101.866 102.681 102.998 103.306 103.977 103.965 103.987 104.000 103.950 103.536 101.898 100.932 99.568 97.985 96.374 94.871 94.176 94.000 94.000 94.000 94.000 94.000 94.000 94.000 94.000 94.000 94.000 94.000 94.000 94.000 94.000 94.000 94.000 94.000 94.000 94.000 94.000 93.289 93.000 93.000 93.000 93.000 93.000 93.000 93.000 93.000 93.000 93.325 93.750 94.000 94.000 94.000 94.000 94.209 93.646 92.421 91.566 89.929 87.834 86.244 85.200 84.189 83.370 83.073 83.000 83.000 83.000 83.000 83.000 83.000 83.000 83.000 83.000 83.000 83.000 83.000 83.000 83.000 81.510 80.445 80.736 82.356 83.955 85.567 87.146 88.355 89.185 89.908 89.980 90.000 90.369 90.856 90.818 90.274 91.243 91.893 92.000 92.000 92.000 92.510 92.740 92.727 92.714 92.701 92.688 92.842 93.000 93.000 93.000 93.000 93.332 93.389 93.246 94.511 94.130 94.000 94.000 94.096 94.503 94.495 94.482 94.469 94.573 95.000 95.000 94.632 94.582 95.081 95.969 95.458 95.354 95.341 95.512 95.946 95.382 95.289 95.276 95.184 94.918 94.303 93.342 92.473 92.000 92.000 92.000 92.000 92.556 93.000 93.021 93.106 93.096 93.621 94.000 94.000 94.000 94.000 94.000 94.000 93.767 92.967 92.161 92.000 92.000
 115.000 115.045 115.240 115.867 116.000 116.115 116.276 116.289 116.302 116.315 116.175 115.727 114.819 112.996 110.951 109.878 109.625 109.631 109.334 109.015 108.675 108.139 107.484 107.497 107.510 107.523 107.174 106.549 106.562 106.127 105.415 105.000 104.924 104.625 104.122 103.385 103.000 103.000 103.000 103.000 102.537 102.269 102.256 102.243 102.230 102.217 102.204 102.423 102.924 102.250 102.152 102.139 102.087 102.000 102.000 102.000 102.000 102.000 102.000 102.000 102.000 102.006 102.000 102.178 102.958 103.751 103.978 104.405 105.000 105.000 105.000 105.000 105.000 105.000 104.993 104.854 105.352 105.604 105.366 104.776 104.763 104.750 104.373 104.299 104.970 104.725 103.968 103.149 102.443 101.952 101.655 100.874 100.055 99.595 99.555 99.435 99.099 98.418 97.817 97.517 97.504 97.491 97.478 97.465 97.452 97.456 97.906 98.000 98.000 98.000 98.022 98.313 99.020 99.813 100.606 101.337 101.563 102.269 102.542 102.748 103.335 103.942 104.160 104.632 105.066 105.329 106.122 106.154 106.628 107.000 107.000 107.000 107.000 106.450 106.064 106.051 106.038 106.025 106.630 106.999 107.000 107.000 107.000 107.000 107.000 107.000 106.854 105.243 104.315 104.853 106.052 107.049 108.648 108.948 109.419 109.534 109.000 109.000 109.560 109.740 109.727 109.599 109.023 109.000 109.000 109.000 109.000 109.000 108.698 108.239 107.833 107.585 107.557 107.094 107.000 107.237 107.521 107.535 107.930 107.654 107.247 107.000 107.000 107.000 107.000 107.000 107.000 107.000 107.000 107.000 107.000 107.000 107.000 107.000 107.000 107.000 106.728 105.899 104.275 103.261 103.000 103.000 103.000 103.000 103.000 103.000 102.629 102.326 103.000 103.000 103.000 102.542 101.985 101.960 101.996 102.682 103.000 103.000 103.000 103.000 103.677 103.908 103.206 101.569 99.931 98.293 97.203 96.067 94.714 94.030 94.000 94.000 94.000 94.000 94.000 94.000 94.000 94.000 94.000 94.000 94.000 94.000 94.000 94.000 94.000 94.000 94.000 94.000 94.000 94.000 94.000 93.305 93.000 93.000 93.000 93.000 93.000 93.000 93.000 93.000 93.000 93.000 93.560 94.000 94.000 94.000 94.000 93.228 92.138 90.981 89.599 87.962 86.150 84.843 84.024 83.234 83.036 83.000 83.000 83.000 83.000 83.000 83.000 83.000 83.000 83.000 83.000 83.000 83.000 82.700 82.049 82.036 81.989 81.984 82.352 83.171 83.989 85.544 86.573 87.733 88.935 88.999 89.713 89.953 90.000 90.000 90.017 90.686 90.933 91.353 91.792 91.779 91.766 91.753 91.862 92.000 92.000 92.000 92.000 92.336 92.765 93.000 93.000 93.000 93.000 92.866 92.667 93.114 93.781 94.000 94.000 94.000 94.000 94.000 94.000 94.000 94.091 94.444 94.431 94.161 94.000 94.317 95.367 95.059 95.000 95.000 95.085 95.295 95.040 95.000 95.000 95.000 94.907 94.101 93.295 92.891 92.800 92.813 92.826 93.455 93.323 93.000 93.000 93.000 93.000 93.048 93.071 93.058 93.045 93.033 93.020 93.007 93.000 92.982 92.177 92.000 92.000
 114.880 115.198 116.001 116.192 116.250 116.573 117.000 117.000 117.000 117.000 116.697 116.084 115.313 114.817 113.667 113.178 113.217 113.203 112.785 112.075 111.087 109.947 108.908 108.532 108.510 108.523 108.375 108.014 107.585 107.250 106.606 106.201 106.227 106.253 105.486 104.315 103.127 102.322 102.309 102.296 102.105 102.000 102.000 102.000 102.000 102.000 102.000 102.052 102.165 102.020 102.000 102.000 102.000 102.000 102.000 102.000 102.000 102.000 102.000 102.000 102.000 102.000 101.998 102.000 102.000 102.777 103.551 104.321 104.935 105.000 105.000 104.927 104.868 104.855 104.816 104.136 104.000 104.000 103.947 103.777 103.764 103.751 103.738 103.930 104.360 103.772 102.985 102.166 101.660 101.528 100.709 100.167 99.463 99.000 99.149 99.955 99.240 98.434 97.628 97.000 97.000 97.000 97.000 97.000 97.000 97.006 97.350 97.781 98.000 98.000 98.000 98.000 98.655 99.461 100.086 100.310 100.297 100.969 101.629 102.077 102.348 103.141 103.777 104.520 105.000 105.024 105.157 105.155 105.692 106.129 106.116 106.103 106.090 106.032 106.000 106.000 106.000 106.000 106.008 106.415 106.990 107.000 107.000 107.000 107.000 107.000 106.892 105.364 104.448 104.068 104.521 106.004 107.465 108.462 108.904 109.000 109.000 109.000 109.000 109.000 109.000 109.000 109.000 109.000 109.000 109.000 108.939 108.644 107.837 107.611 107.360 107.000 107.000 107.000 107.000 107.000 107.000 107.021 107.419 107.168 107.000 107.000 107.000 107.000 107.000 107.000 107.000 107.000 107.000 107.000 107.000 107.000 107.000 107.000 106.473 105.879 105.172 104.301 103.280 103.051 103.000 103.000 103.000 103.000 103.000 103.000 102.588 102.218 103.000 103.000 103.000 102.558 102.000 102.000 102.000 102.666 103.000 102.994 102.998 102.969 102.920 102.378 101.239 99.592 97.873 96.296 95.286 94.572 94.000 94.000 94.000 94.000 94.000 94.000 94.000 94.000 94.000 94.000 94.000 94.000 94.000 94.000 94.000 94.000 94.000 94.000 94.000 94.000 94.000 94.000 94.000 93.625 93.237 93.000 93.000 93.000 93.000 93.000 93.000 93.000 93.000 93.000 93.544 94.000 94.000 94.000 93.016 91.920 90.954 89.949 88.325 86.138 84.790 83.860 83.201 83.000 83.000 83.000 83.000 83.000 83.000 83.000 83.000 82.597 82.127 82.114 82.101 82.719 82.540 82.044 82.000 82.000 82.704 82.989 83.335 84.152 84.947 85.751 86.528 87.297 88.103 88.973 89.000 89.587 90.000 90.000 90.000 90.000 90.504 90.887 91.000 91.000 91.000 91.000 91.335 91.798 92.000 92.000 92.000 92.000 92.191 92.650 92.638 92.625 92.612 92.409 92.000 92.000 93.147 93.547 93.535 93.595 93.980 94.000 94.000 94.000 94.000 94.000 94.000 94.000 94.000 94.212 95.000 95.000 95.000 95.000 95.000 95.000 95.000 95.000 95.000 94.800 94.232 94.028 93.311 93.000 93.000 93.087 93.754 93.955 93.922 93.579 93.000 93.000 93.000 93.000 93.000 93.000 93.000 93.000 93.000 93.000 92.994 92.980 92.186 92.000 92.000
 114.375 115.220 116.208 117.030 117.249 117.262 117.275 117.288 117.301 117.314 117.185 116.841 116.353 116.366 115.971 115.785 115.701 115.418 115.431 114.756 113.695 112.341 110.809 109.628 109.144 109.273 109.535 109.487 109.148 109.148 108.621 108.200 108.226 108.252 107.501 105.758 103.629 102.000 102.000 102.000 102.000 102.000 102.000 101.977 101.357 101.218 101.205 101.397 102.000 102.000 102.000 102.000 102.000 102.000 102.000 101.361 101.075 101.062 101.050 101.037 101.024 101.011 101.342 101.985 101.972 102.719 102.976 103.347 104.098 104.891 104.894 104.356 104.000 104.000 104.002 104.140 104.184 104.112 103.762 103.000 103.000 102.837 102.738 102.652 102.425 102.399 101.903 101.343 101.000 100.897 100.091 99.730 99.292 98.868 98.660 99.105 98.699 97.994 97.342 97.000 97.000 97.000 97.000 97.000 97.000 97.000 97.000 97.610 98.000 98.000 98.000 98.000 98.639 99.150 99.324 99.350 99.904 100.669 101.129 101.467 102.087 102.893 103.698 104.104 104.444 105.000 105.000 105.000 105.076 105.129 105.117 105.104 105.091 105.078 105.065 105.052 105.039 105.026 105.599 106.000 106.202 106.974 106.961 106.980 107.000 107.000 106.963 106.241 105.464 104.612 104.189 104.771 105.687 107.183 108.389 109.000 109.000 109.000 109.000 109.000 109.000 109.000 109.000 109.000 109.000 108.881 108.492 107.673 107.143 107.000 107.000 107.000 107.000 107.000 107.000 107.000 107.000 107.000 107.000 107.000 107.000 107.000 107.000 107.000 107.000 107.000 107.000 107.000 107.000 107.000 107.000 107.000 106.922 106.358 105.564 104.745 103.926 103.214 103.012 103.000 103.000 103.000 103.000 103.000 103.000 103.000 102.947 102.904 103.000 103.000 102.431 102.040 102.000 102.000 102.000 102.011 102.005 102.259 102.913 102.122 101.289 100.426 99.272 97.546 95.183 94.180 93.876 93.863 93.850 93.837 93.824 93.914 94.000 94.000 94.000 94.000 94.000 94.000 94.000 94.000 94.000 94.000 94.000 94.000 94.000 94.000 94.000 94.000 94.000 94.000 94.000 94.000 93.531 93.000 93.000 93.000 93.000 93.000 93.000 93.000 93.000 93.000 93.528 94.000 93.914 93.406 91.856 90.789 89.728 88.303 86.665 84.797 83.695 83.163 83.000 83.000 83.000 83.000 83.000 83.000 83.000 83.000 83.000 82.548 82.000 82.000 82.000 82.060 82.039 82.000 82.000 82.000 82.706 83.506 84.318 85.000 85.000 85.706 85.976 86.347 87.294 88.830 88.975 89.504 89.919 90.000 90.000 90.000 90.000 90.327 90.837 90.996 90.808 90.909 90.887 90.970 91.715 91.702 91.690 91.677 91.755 92.000 92.000 92.000 92.000 92.000 92.000 92.000 92.719 93.000 93.000 93.071 93.480 93.496 93.484 93.662 94.000 94.000 94.000 94.000 94.000 94.196 95.000 95.000 94.604 94.342 94.329 94.316 94.303 94.291 94.278 94.197 94.000 94.000 93.848 93.410 93.000 93.091 93.897 94.000 93.567 93.093 93.000 93.000 93.000 93.000 93.000 93.000 93.000 93.000 93.000 92.629 92.000 92.000 92.000 92.000 92.000
 114.233 115.296 116.726 117.541 117.896 118.000 118.054 118.288 118.301 118.122 117.718 117.340 117.353 117.366 117.379 117.392 117.151 116.393 116.058 115.328 114.522 113.566 112.347 111.148 109.959 109.764 110.000 110.000 110.000 110.000 109.778 109.600 109.521 109.028 108.725 107.320 105.211 103.234 102.701 102.147 101.573 101.271 101.258 101.241 101.042 101.000 101.000 101.046 101.180 101.167 101.154 101.537 102.000 102.000 102.000 101.939 101.470 101.000 101.000 101.000 101.000 101.000 101.000 100.998 100.974 101.704 102.467 102.890 103.070 103.786 103.789 103.832 103.868 103.855 103.842 104.633 104.817 104.388 103.569 102.772 102.569 102.023 101.739 101.543 100.984 100.741 100.687 100.674 100.661 100.561 99.742 98.923 98.609 98.286 97.583 97.570 97.557 97.254 97.000 97.000 97.000 97.000 97.000 97.000 97.000 97.000 97.000 97.246 97.402 97.389 97.383 97.884 98.218 98.337 98.483 99.041 99.847 100.186 100.606 101.265 102.071 102.876 103.682 104.000 104.057 104.100 103.416 103.913 104.143 104.412 105.000 105.000 104.326 104.078 104.396 105.000 105.000 105.000 105.008 105.383 105.988 105.975 105.962 106.556 106.936 106.940 107.000 107.000 106.437 105.244 103.858 103.100 104.576 106.152 107.750 108.851 109.000 109.000 109.000 109.000 109.000 109.000 109.000 109.000 108.828 108.327 107.558 107.033 107.000 107.000 107.000 107.000 107.000 107.345 107.452 107.281 107.000 107.000 107.000 107.000 107.000 107.000 107.000 107.000 107.000 107.000 107.000 107.000 107.000 107.000 107.000 106.804 106.218 105.399 104.076 103.410 103.179 103.000 103.000 103.000 103.000 103.000 103.000 103.000 103.000 103.000 103.000 103.000 103.000 102.278 102.033 102.000 102.000 102.000 102.000 102.000 102.000 101.998 101.978 101.938 100.612 98.975 97.305 95.668 94.030 93.162 92.938 93.000 93.000 93.000 93.000 93.429 93.866 94.000 94.000 94.000 94.000 94.000 94.000 94.000 94.000 94.000 94.000 94.000 94.000 94.000 94.000 94.000 94.000 94.000 94.000 94.000 93.547 92.878 92.546 92.935 93.000 92.747 92.463 92.502 92.944 93.000 93.211 93.399 93.186 91.860 90.248 89.152 87.973 86.336 84.698 83.599 83.121 83.000 83.000 83.000 83.000 83.000 83.000 83.000 83.000 83.000 83.000 82.564 82.000 82.000 82.000 82.000 82.000 82.000 82.000 82.000 82.690 83.496 84.302 85.000 85.000 85.000 85.525 86.310 87.059 87.852 88.645 88.948 89.314 89.857 89.844 89.832 89.925 90.000 90.156 90.778 90.147 90.463 90.430 90.226 91.000 91.000 91.000 91.000 91.170 91.651 91.638 91.878 92.000 92.000 91.962 91.618 92.573 92.770 92.536 92.580 92.964 93.000 93.000 93.345 94.000 94.000 94.000 94.000 94.000 94.071 94.376 94.368 93.758 93.608 94.000 94.000 94.000 94.000 94.000 94.000 94.000 94.000 93.492 93.115 93.000 93.014 93.154 93.162 93.076 93.000 93.000 93.000 92.354 92.085 92.072 92.060 92.047 92.034 92.021 92.005 92.000 92.000 92.000 92.000 92.000
 113.619 114.940 115.733 116.526 117.459 118.000 118.179 118.985 119.000 118.590 118.195 118.000 118.000 118.000 118.000 118.000 117.858 117.373 116.580 115.788 114.995 114.202 113.373 112.180 110.977 110.521 110.375 110.000 110.000 110.000 110.000 110.000 109.948 109.648 109.163 108.616 107.495 105.759 104.433 103.087 102.136 101.447 101.000 101.000 101.000 101.000 101.000 101.000 101.000 101.000 101.000 101.063 101.128 101.115 101.102 101.699 101.525 101.000 101.000 101.000 101.000 101.000 101.000 100.883 100.077 100.699 100.947 101.251 101.841 101.816 101.869 102.379 102.786 102.856 102.843 103.484 103.743 103.326 102.377 101.547 100.905 100.752 100.739 100.726 100.696 100.361 100.108 99.851 99.661 99.578 98.759 98.198 97.809 97.421 97.000 97.000 97.000 97.000 97.000 97.000 97.000 97.000 97.000 97.000 97.000 97.000 97.000 97.000 97.000 97.000 97.000 97.291 97.745 98.274 98.746 99.025 99.831 100.000 100.121 100.508 101.301 102.094 102.887 103.208 103.195 103.167 103.019 103.109 103.573 104.040 104.117 104.104 104.025 104.000 104.022 104.053 104.040 104.027 104.567 105.000 105.000 105.000 105.000 105.561 105.962 106.187 106.911 106.981 106.928 106.074 104.535 103.032 103.703 105.120 106.719 108.110 108.985 108.797 108.755 108.742 108.808 109.000 109.000 109.000 108.485 107.679 107.000 107.000 107.000 107.000 107.000 107.065 107.410 107.870 108.000 107.620 107.000 107.000 107.000 107.000 107.000 107.000 107.000 107.000 107.000 107.000 107.000 107.000 107.000 107.000 106.691 105.868 104.550 103.718 103.178 103.000 103.000 103.000 103.000 103.000 103.000 103.000 102.886 102.218 102.161 102.148 102.135 102.122 102.109 102.021 102.000 102.000 101.812 101.044 101.031 101.018 101.427 101.763 100.944 100.098 99.231 97.491 95.338 93.712 92.233 92.000 92.423 92.903 93.000 93.000 93.000 93.000 93.318 94.000 94.000 94.000 94.000 94.000 94.000 94.000 94.000 94.000 94.000 94.000 94.000 94.000 94.000 94.000 94.000 94.000 94.000 94.000 93.563 92.872 92.510 92.927 93.000 92.534 92.146 92.585 92.949 93.000 93.000 92.819 92.170 90.546 88.921 87.479 86.006 84.462 83.383 83.074 83.000 83.000 83.000 83.000 83.000 83.000 83.000 83.000 83.000 83.000 83.000 82.580 82.000 81.971 81.248 81.676 82.000 82.000 82.000 82.000 82.674 83.480 84.286 85.000 85.000 85.000 85.509 86.000 86.121 86.927 87.733 88.476 88.915 89.000 89.000 89.000 89.569 90.000 90.000 90.000 90.000 90.000 90.000 90.153 90.716 90.703 90.690 90.817 91.000 91.000 91.000 91.412 91.613 91.600 91.543 91.068 92.073 92.278 92.000 92.055 92.465 92.858 93.000 93.155 93.532 93.967 94.000 94.000 94.000 93.901 93.400 93.369 93.149 93.133 93.330 93.317 93.304 93.725 94.000 93.836 93.253 93.240 93.082 93.000 93.000 93.000 93.000 93.000 92.595 92.137 92.124 92.111 92.030 92.000 92.000 92.000 92.000 92.000 92.000 92.000 91.996 91.983 91.970 91.981 92.000
 113.263 113.924 114.717 115.685 117.102 118.000 118.118 118.691 118.700 118.869 118.740 118.339 118.352 118.071 118.000 118.000 118.000 117.984 117.525 116.803 116.010 115.217 114.367 112.768 112.178 111.794 111.253 110.499 110.060 110.000 110.000 110.000 110.000 110.000 109.736 109.303 108.545 107.483 106.442 104.889 103.867 103.087 102.222 101.027 101.000 101.000 101.000 101.000 101.000 101.000 101.000 101.000 101.000 101.000 101.000 101.059 101.042 101.000 101.000 101.000 101.000 101.000 101.000 100.887 100.091 100.000 100.000 100.000 100.000 100.000 100.587 100.765 101.093 101.713 101.687 101.792 102.290 101.917 100.642 100.004 100.188 100.247 100.153 99.940 99.746 100.780 100.363 99.557 98.916 98.613 98.089 97.749 97.322 97.000 97.000 97.000 97.000 97.000 97.000 97.000 97.000 97.000 97.000 97.000 97.000 97.000 97.000 97.000 97.000 97.000 97.000 97.000 97.591 98.397 99.137 99.691 99.945 100.000 100.000 100.232 101.038 101.844 102.144 102.570 103.000 102.944 102.274 102.157 102.630 103.131 103.118 103.105 103.092 103.079 103.066 103.174 103.936 104.000 104.008 104.352 104.990 104.999 105.000 105.000 105.357 105.938 105.999 106.717 106.350 105.590 104.568 102.997 102.862 104.088 105.687 107.236 108.522 107.878 107.593 107.727 108.275 109.000 109.000 108.786 108.340 107.695 107.000 107.000 107.000 107.000 107.000 107.141 107.947 108.000 108.000 107.636 107.000 107.000 107.000 107.000 107.000 106.892 106.445 106.432 106.419 106.406 106.394 106.381 106.368 106.355 105.889 104.810 103.295 103.039 103.000 103.000 103.000 103.000 103.000 103.000 103.000 102.745 102.164 102.012 102.000 102.000 102.000 102.000 102.000 102.000 102.000 101.649 101.047 101.000 101.000 101.000 101.002 100.778 99.922 98.311 96.663 95.009 93.406 92.000 92.000 92.000 92.000 92.236 92.863 92.981 93.000 93.000 93.242 93.810 93.981 94.000 94.000 94.000 94.000 94.000 94.000 94.000 94.000 94.000 94.000 94.000 94.000 94.000 94.000 94.000 94.000 94.000 93.772 93.365 93.000 93.000 93.000 92.785 92.655 93.000 93.000 93.000 92.718 92.114 91.147 89.016 87.764 86.329 84.914 83.879 83.073 83.000 83.000 83.000 83.000 83.000 83.000 83.000 83.000 83.000 83.000 83.000 83.000 82.596 81.817 81.114 81.018 81.057 81.478 82.000 82.000 82.000 82.658 83.464 84.270 85.000 85.000 85.000 85.493 86.000 86.097 86.829 87.540 87.829 88.200 88.858 88.845 88.833 89.173 89.420 89.483 89.981 89.820 89.898 90.100 90.218 90.000 90.000 90.000 90.283 90.740 91.000 91.000 91.000 91.000 91.000 91.000 91.000 91.377 91.549 91.536 91.566 91.949 92.701 92.739 92.472 92.578 93.371 93.847 93.689 93.205 92.731 92.400 92.849 93.000 93.000 93.000 93.000 93.000 93.174 93.279 93.211 93.000 93.000 93.000 93.000 93.000 93.000 93.000 93.000 92.539 92.000 92.000 92.000 92.000 92.000 92.000 92.000 92.000 92.000 91.491 91.009 91.000 91.000 91.000 91.526 91.945
 113.000 113.093 113.718 115.052 116.574 117.656 118.000 118.000 118.000 118.564 119.000 119.000 119.000 118.212 118.000 118.000 118.000 118.000 118.000 117.376 116.570 115.764 114.937 113.724 113.507 113.061 112.268 111.436 110.192 110.000 110.000 110.000 110.000 110.000 110.000 109.819 109.339 108.546 107.753 106.739 105.882 105.102 104.162 102.576 101.942 101.329 101.000 100.847 100.185 100.168 100.155 100.142 100.320 101.000 101.000 101.000 101.000 101.000 101.000 101.000 101.000 101.000 100.721 100.000 100.000 100.000 100.000 100.000 100.000 100.000 99.274 99.000 99.294 99.857 99.844 100.459 100.636 100.314 99.792 99.779 100.735 101.146 100.760 99.797 99.018 100.630 100.379 99.573 98.767 97.986 97.693 97.218 97.000 97.000 97.000 97.000 97.000 97.000 97.000 97.000 97.000 97.000 97.000 97.000 97.000 97.000 97.000 97.000 97.000 97.000 97.000 97.000 97.575 98.381 99.187 99.993 100.559 100.282 100.000 100.216 101.006 101.195 101.715 102.092 102.196 102.174 102.024 102.000 102.068 102.131 102.118 102.105 102.092 102.079 102.352 103.006 103.037 103.731 104.000 104.001 104.139 104.924 104.991 105.000 105.000 105.158 105.890 105.978 105.933 105.478 104.459 102.841 102.157 103.236 104.766 106.025 106.782 106.769 106.266 106.791 108.060 108.982 108.742 108.014 107.678 107.473 107.000 107.000 107.000 107.000 107.000 107.125 107.931 108.000 108.000 107.652 107.000 107.000 107.000 107.000 107.000 106.816 106.010 105.549 105.420 105.407 105.394 105.381 105.368 105.355 105.193 104.677 103.650 103.101 103.000 103.000 103.000 103.000 103.000 103.000 103.000 102.698 102.000 102.000 102.000 102.000 102.000 102.000 102.000 102.000 102.000 101.638 100.842 100.070 100.032 100.019 100.006 99.598 97.958 97.100 95.075 93.124 92.000 92.000 92.000 92.000 92.000 92.000 92.053 92.728 92.943 92.910 92.857 93.092 93.898 94.000 94.000 94.000 94.000 94.000 94.000 94.000 94.000 94.000 94.000 94.000 94.000 94.000 94.000 94.000 93.657 93.555 93.542 93.418 93.000 93.000 93.000 93.000 93.000 93.000 93.000 92.622 91.949 90.806 89.027 87.581 86.234 85.031 84.036 83.289 83.027 83.000 83.000 83.000 83.000 83.000 83.000 83.000 83.000 83.000 83.000 83.000 83.000 82.612 81.975 81.883 81.174 81.000 81.033 81.274 82.000 82.000 82.642 83.448 84.254 85.000 85.000 85.000 85.477 86.000 86.000 86.000 86.000 86.448 87.185 87.859 87.846 87.833 87.380 86.934 87.240 89.645 89.184 89.566 90.372 90.870 90.294 90.062 90.000 90.000 90.138 90.653 90.640 90.860 91.000 90.905 90.588 90.575 90.849 91.000 91.000 91.038 91.449 91.840 91.733 91.473 91.562 92.355 92.744 92.623 92.275 92.000 92.000 92.275 92.357 92.344 92.331 92.318 92.843 93.000 93.000 93.000 93.000 92.390 92.228 92.541 93.000 93.000 93.000 92.466 92.084 92.000 92.000 92.000 92.000 92.000 92.000 92.000 92.000 91.326 91.011 91.000 91.000 91.000 90.979 90.980 91.000
 113.000 113.021 113.201 113.780 114.781 116.129 117.489 117.696 117.923 118.377 118.675 118.662 118.649 118.145 118.000 118.000 118.000 118.000 118.000 117.392 116.587 115.781 114.975 114.169 114.000 113.787 113.284 112.436 110.837 109.809 109.692 110.000 110.000 110.000 110.000 110.000 109.692 108.886 108.080 107.783 107.183 106.390 105.453 103.854 103.011 102.218 101.501 100.826 100.021 100.000 100.000 100.000 100.026 100.117 100.104 100.091 100.471 101.000 101.000 101.000 101.000 101.000 100.738 100.012 100.003 100.000 100.000 100.000 100.000 100.000 99.290 99.000 99.000 99.000 99.000 99.000 98.901 98.805 98.792 98.779 100.125 101.082 100.818 99.592 99.005 100.359 100.084 99.265 98.519 97.977 97.172 97.000 97.000 97.000 97.000 97.000 97.000 97.000 97.000 97.000 97.000 97.000 97.259 97.532 97.484 97.046 97.000 97.000 97.000 97.000 97.000 97.000 97.559 98.365 99.171 99.977 100.783 100.831 100.440 100.200 101.000 101.000 101.618 102.000 102.000 102.000 102.000 102.000 102.000 102.000 102.000 102.000 102.000 102.000 102.019 102.054 102.041 102.735 103.015 103.320 104.001 104.022 104.746 105.000 105.000 105.000 105.000 105.689 105.314 104.495 103.492 101.867 101.966 103.204 104.408 105.214 105.996 105.810 105.756 106.181 107.152 108.386 107.554 107.130 107.150 107.243 107.000 107.000 107.000 107.000 107.000 107.064 107.526 107.562 107.550 107.358 107.000 107.000 107.000 107.000 106.809 106.291 105.472 104.653 104.081 103.815 103.789 103.763 103.737 104.108 104.343 104.255 103.967 103.161 103.000 103.000 103.000 103.000 103.000 103.000 102.622 102.143 102.000 102.000 102.000 102.000 102.000 102.000 102.000 101.338 100.590 100.118 100.050 100.002 100.000 100.000 99.627 98.445 96.019 94.382 93.356 92.561 92.000 91.999 91.921 91.959 92.000 92.000 92.000 92.000 92.544 92.436 92.270 93.076 93.882 94.000 94.000 94.000 94.000 94.000 94.000 94.000 94.000 94.000 94.000 94.000 94.000 94.000 93.933 93.593 93.127 92.741 92.542 92.529 92.517 92.504 92.803 93.000 93.000 92.983 92.531 91.416 90.116 88.744 87.291 85.967 84.809 83.871 83.241 83.000 83.000 83.000 83.000 83.000 83.000 83.000 83.000 83.000 83.000 83.000 83.000 83.000 83.000 82.947 82.715 82.014 81.210 81.000 81.000 81.208 82.000 82.000 82.626 83.432 84.238 84.989 84.996 85.000 85.438 85.953 86.000 86.000 85.930 85.941 86.259 86.859 86.846 86.952 86.907 86.544 86.370 88.611 88.769 89.306 90.191 91.000 91.000 90.455 90.129 90.000 90.000 90.000 90.289 90.755 90.840 90.468 90.000 90.000 90.360 90.550 90.537 90.552 90.933 91.000 91.000 91.000 91.040 91.399 91.434 91.713 92.000 92.000 92.000 92.000 92.000 92.000 92.000 92.000 92.758 93.000 93.000 92.871 92.268 92.051 92.000 92.086 92.366 93.000 93.000 92.377 92.000 92.000 92.000 92.000 91.413 91.506 92.000 91.934 91.166 91.011 91.000 91.000 90.997 90.984 90.280 90.496 90.911
 113.000 113.102 114.087 114.397 114.369 114.636 115.569 116.349 117.346 117.854 118.000 118.000 118.000 118.000 118.000 118.000 118.000 118.000 118.000 117.409 116.603 115.797 114.995 114.587 114.506 114.298 113.767 112.922 111.310 109.699 109.457 110.000 110.000 110.000 110.000 110.000 109.708 108.902 108.096 108.000 107.484 106.678 105.839 104.836 104.026 102.808 101.648 100.843 100.037 100.000 100.000 100.000 99.837 99.123 99.104 99.091 99.110 99.333 100.052 100.039 100.644 101.000 101.000 100.948 100.164 100.039 100.027 100.000 100.000 100.000 99.378 99.058 99.000 99.000 99.000 99.000 98.471 98.000 98.000 98.000 98.578 99.175 99.212 98.728 98.715 99.485 99.101 98.409 98.000 97.994 97.188 97.000 97.000 97.000 97.000 97.000 97.000 97.000 97.000 97.000 97.000 97.000 97.484 98.000 97.905 97.099 97.000 97.000 97.000 97.000 97.000 97.468 98.191 99.009 99.724 99.988 100.230 100.288 100.171 100.048 100.246 100.844 101.134 101.532 102.000 102.000 102.000 101.468 101.145 101.132 101.119 101.106 101.093 101.080 101.322 102.000 102.000 102.020 102.505 103.303 104.099 104.892 104.964 104.951 104.959 105.000 105.000 105.000 104.444 103.592 102.548 101.048 101.780 103.172 104.392 105.198 105.996 105.190 105.000 105.314 105.897 106.412 105.819 106.337 107.130 107.495 107.000 107.000 107.000 107.000 107.000 107.000 107.000 107.000 107.000 107.000 107.000 107.000 107.000 107.000 106.654 105.848 105.042 103.804 103.181 102.778 102.395 102.382 102.369 102.570 103.219 104.000 103.983 103.177 103.000 103.000 103.000 103.000 103.000 102.491 102.115 102.000 102.000 102.000 102.000 102.000 102.000 101.907 101.189 100.380 99.561 99.072 99.059 99.046 99.033 98.478 97.655 96.654 95.020 93.407 92.373 91.943 91.930 91.916 91.175 91.546 91.929 92.000 92.000 92.000 92.000 92.000 92.254 93.047 93.671 93.922 94.000 94.000 94.000 94.000 94.000 94.000 94.000 94.000 94.000 93.732 93.620 93.607 93.445 92.626 92.569 92.241 92.000 92.000 92.000 92.392 92.802 93.000 92.889 92.430 91.160 89.242 87.377 85.965 85.130 84.488 83.706 83.188 83.000 83.000 83.000 83.000 83.000 83.000 83.000 83.000 83.000 83.000 83.000 83.000 83.000 83.000 83.000 83.000 82.838 82.032 81.226 81.000 81.000 81.192 81.998 82.000 82.017 82.430 83.223 84.027 84.813 84.963 84.972 85.236 85.924 85.911 85.297 85.421 85.908 86.000 86.000 86.583 86.407 86.000 86.233 87.845 88.000 88.404 89.337 90.540 90.973 91.000 90.262 89.679 89.784 90.334 90.864 91.000 90.600 90.000 90.000 90.000 90.000 90.000 90.000 90.022 90.434 90.499 90.722 91.000 91.000 91.000 91.000 91.206 91.409 91.396 91.383 91.819 92.000 92.000 92.000 92.000 92.227 92.293 92.280 92.225 92.009 92.000 92.000 92.000 92.189 92.995 93.000 92.393 92.000 92.000 91.978 91.263 91.036 91.039 91.075 91.059 91.007 91.000 90.539 90.010 90.000 90.000 90.000 89.959 89.293
 113.000 113.137 114.749 115.998 116.006 115.075 114.045 114.388 115.400 116.432 117.236 117.706 117.977 118.000 118.000 118.000 118.000 118.000 118.000 117.425 116.619 115.813 115.007 115.394 115.200 114.589 113.668 112.409 110.785 109.160 108.857 109.403 109.390 109.377 109.364 109.351 109.062 108.299 108.035 108.000 107.857 107.421 106.628 105.835 105.042 103.720 102.456 101.663 100.870 100.205 100.000 100.000 99.829 99.023 99.000 98.465 97.715 97.332 98.112 98.860 99.645 100.014 100.231 100.988 100.975 100.962 100.518 100.000 100.005 100.078 100.033 99.572 99.129 99.142 99.155 99.049 98.487 98.000 98.000 98.000 98.000 98.000 98.000 98.000 98.000 98.539 98.295 97.878 97.664 97.651 97.130 97.000 97.000 97.000 97.000 97.000 97.000 97.000 97.000 97.000 97.000 97.000 97.225 97.469 97.420 97.051 97.000 97.000 97.000 97.000 97.000 97.721 98.527 99.333 100.000 100.000 100.000 100.000 99.737 99.262 99.249 99.420 99.902 100.602 101.197 101.184 101.171 100.543 100.146 100.133 100.120 100.107 100.679 101.000 101.017 101.115 101.875 102.000 102.008 102.290 103.082 103.856 103.954 103.951 104.255 104.926 104.913 104.900 104.347 103.182 101.709 100.890 101.725 103.038 104.257 105.145 105.774 105.159 105.000 105.000 105.000 105.000 105.000 105.436 106.115 106.747 107.000 107.000 107.000 107.000 107.000 107.000 107.000 107.301 107.450 107.462 107.425 107.043 107.000 107.000 106.496 105.324 104.505 103.362 102.680 102.049 101.395 101.382 100.879 101.088 102.122 103.461 103.999 103.193 102.566 102.279 102.266 102.253 102.240 102.081 102.000 102.000 102.000 102.000 102.000 102.000 101.755 100.955 99.419 99.127 99.042 99.000 99.000 99.000 97.586 96.504 95.332 93.841 93.009 92.201 91.414 91.000 91.000 91.000 91.000 91.000 91.403 92.000 92.000 92.000 92.000 92.000 92.191 92.798 92.966 93.656 94.000 94.000 94.000 94.000 94.000 94.000 93.902 93.659 93.646 92.918 92.818 92.872 92.516 92.036 92.000 92.000 92.000 92.076 92.467 92.886 93.000 92.799 92.171 90.909 89.272 87.373 85.582 84.179 83.388 83.376 83.131 83.000 83.000 83.000 83.000 83.000 83.000 83.000 83.000 83.000 83.000 83.000 83.000 83.000 83.000 83.000 83.000 83.000 82.854 82.048 80.563 80.092 80.420 81.012 81.052 81.797 82.000 82.400 83.206 83.989 83.976 83.986 84.429 85.000 85.000 85.000 85.000 85.000 85.231 85.870 85.981 86.000 86.000 86.000 86.181 87.616 87.770 87.757 88.069 89.027 90.854 91.000 89.904 88.887 88.933 90.252 90.559 90.628 90.232 89.603 89.590 89.577 89.829 90.000 90.000 90.000 90.000 90.000 90.216 90.605 91.000 91.000 90.624 90.422 90.574 91.000 91.000 91.258 91.358 91.345 91.332 91.320 91.307 91.669 92.000 92.000 92.000 91.428 91.229 91.504 92.035 92.187 92.178 92.068 91.663 91.139 91.126 91.021 91.000 91.000 91.000 90.964 90.197 90.037 90.013 90.000 90.000 90.000 89.981 89.007 87.708
 112.854 113.094 114.528 116.606 117.038 115.654 113.374 112.542 112.198 113.068 114.739 116.438 117.218 117.537 117.624 117.742 118.000 118.000 118.000 117.687 117.088 116.216 115.034 115.397 115.203 114.196 112.535 110.901 109.713 108.545 108.177 108.404 108.391 108.378 107.953 107.703 107.761 108.000 108.000 108.000 108.000 107.710 106.904 106.098 105.293 104.373 103.219 101.875 101.069 100.263 100.000 100.000 99.845 99.039 98.314 98.039 97.970 97.946 97.999 98.032 98.630 99.014 99.215 99.977 99.971 99.962 99.949 99.952 100.046 100.779 100.304 100.000 100.000 99.989 99.863 99.257 98.503 98.000 98.000 98.000 98.000 98.000 98.000 97.962 97.732 97.703 97.690 97.432 97.000 97.000 97.000 97.000 97.000 97.000 97.000 97.000 97.000 97.000 97.000 97.000 97.000 97.000 97.000 97.000 97.000 97.000 96.616 96.418 96.576 97.056 97.558 97.892 98.511 99.317 100.000 100.000 100.000 99.616 99.180 99.000 99.000 99.000 99.128 99.587 100.052 99.380 100.001 100.064 99.654 99.133 99.135 99.842 100.059 100.081 100.293 101.003 101.036 101.669 102.000 102.001 102.000 102.000 102.664 102.928 103.197 103.934 103.992 103.928 103.304 102.130 100.744 100.049 101.496 102.554 103.719 105.034 105.210 105.051 105.000 105.000 105.000 105.000 105.000 105.000 105.419 106.150 106.665 106.941 107.000 107.000 107.000 107.025 107.367 108.109 108.449 108.331 107.910 107.104 107.000 106.739 105.846 104.341 103.522 102.703 101.884 101.268 100.910 100.410 99.609 99.560 100.190 101.173 101.940 102.224 102.118 102.000 102.000 102.000 102.000 102.000 102.000 102.000 102.000 102.000 102.000 101.607 100.638 99.166 98.245 98.099 98.086 98.349 98.903 98.133 96.603 94.989 93.362 91.863 91.060 91.000 91.000 91.000 91.000 91.000 91.000 91.000 91.340 91.892 92.000 92.000 92.000 92.000 92.000 92.022 92.647 93.403 93.750 93.737 93.724 93.711 93.698 93.686 93.391 92.660 92.647 92.191 92.314 92.419 92.000 92.000 92.000 92.000 92.000 92.078 92.493 92.129 91.984 91.395 90.046 88.396 86.745 85.435 84.263 83.319 83.000 83.000 83.000 83.000 83.000 83.000 83.000 83.000 83.000 83.000 83.000 83.000 83.000 83.000 83.000 83.000 83.000 83.000 83.000 82.722 82.001 81.182 80.285 80.000 80.028 80.067 80.054 80.813 81.590 82.384 83.000 83.000 83.000 83.608 84.413 85.000 85.000 85.000 85.000 85.000 85.000 85.055 85.861 86.000 86.000 86.000 86.067 86.698 86.930 87.000 87.308 88.312 90.502 90.706 89.792 88.662 88.096 88.622 89.397 89.629 89.390 89.000 89.000 89.000 89.334 89.730 90.000 90.000 90.000 90.000 90.000 90.110 90.461 90.449 90.152 90.000 90.108 90.397 90.384 90.371 90.670 91.000 90.935 90.385 90.307 90.810 91.281 91.269 91.256 91.063 91.000 91.076 91.204 91.191 91.179 91.166 91.095 91.000 91.000 91.000 91.000 90.626 90.076 90.061 90.009 90.000 90.000 90.000 90.000 89.988 89.309 88.490 87.686
 111.992 112.616 113.219 114.449 114.676 113.512 111.409 110.807 110.226 110.817 112.359 114.087 114.854 115.621 116.067 116.667 117.649 117.972 118.000 117.761 117.198 116.296 115.059 115.000 114.421 112.828 110.569 108.931 108.533 107.828 107.417 107.276 106.782 106.756 106.499 106.352 106.744 108.000 108.000 107.537 107.287 107.001 106.182 105.363 104.544 104.112 103.633 102.695 101.902 101.109 100.399 100.000 99.861 99.055 98.249 98.000 97.666 97.067 97.054 97.789 98.016 98.015 98.002 98.004 98.790 98.963 98.971 99.213 99.924 99.911 99.964 99.948 99.872 99.805 99.111 98.887 98.426 98.000 98.000 98.000 98.000 98.000 98.000 97.911 97.335 97.079 97.000 97.000 97.000 97.000 97.000 97.000 97.000 97.000 97.000 97.000 97.000 97.000 97.000 97.000 97.000 97.000 97.000 96.872 96.457 96.444 96.147 96.000 96.271 97.077 97.883 98.000 98.495 99.301 100.000 100.000 100.000 99.476 99.000 99.000 99.000 99.000 99.000 99.076 99.165 99.005 99.134 99.159 99.089 99.000 99.000 99.087 99.095 99.467 100.015 100.085 100.844 101.643 102.000 102.000 101.999 101.981 101.965 101.520 101.612 103.084 103.819 103.129 101.816 100.561 99.878 99.989 101.464 102.633 103.812 105.150 105.956 105.413 105.105 105.000 105.000 105.000 105.000 105.000 105.274 105.737 106.010 106.527 106.629 106.616 106.698 107.044 107.850 108.656 108.793 108.270 107.451 106.633 106.500 105.995 104.878 103.357 102.538 101.719 101.202 100.807 100.263 99.444 99.094 99.000 98.889 98.826 99.606 99.849 100.289 100.560 100.534 100.508 101.093 101.228 101.215 101.380 101.977 101.313 100.093 99.006 98.127 97.293 97.894 98.000 98.000 97.760 97.033 96.201 94.670 93.033 91.703 90.996 90.983 90.992 91.000 91.000 91.000 91.000 91.000 91.000 91.000 91.153 91.839 91.966 92.000 92.000 92.000 92.000 92.000 92.476 92.751 92.738 92.725 92.712 92.699 92.686 92.494 92.000 92.000 92.000 92.000 92.000 92.000 92.000 92.000 92.000 92.000 91.939 91.549 90.396 89.428 88.394 87.080 85.429 84.642 83.850 83.256 83.000 83.000 83.000 83.000 83.000 83.000 83.000 83.000 83.000 83.000 83.000 83.000 83.000 83.000 83.000 82.779 82.196 82.183 82.170 82.157 81.836 81.116 81.009 80.274 80.000 80.000 80.000 80.000 80.031 80.590 81.383 82.176 82.970 82.977 83.556 84.329 84.889 84.926 84.984 85.062 85.065 85.000 85.034 85.717 85.835 85.822 85.809 85.811 85.973 86.525 86.758 87.037 87.929 89.528 89.706 89.178 88.359 87.668 87.655 88.382 88.629 88.616 88.604 88.591 88.578 88.565 88.763 89.251 89.994 90.000 90.000 89.789 89.475 89.474 89.906 90.000 90.000 90.000 89.968 89.472 89.789 90.169 90.346 90.306 90.036 90.000 90.500 91.000 91.000 91.000 91.000 91.000 91.000 91.000 91.000 91.000 91.000 90.691 90.140 90.128 90.115 90.102 90.054 90.000 90.000 90.000 90.000 90.000 90.000 89.963 89.156 88.369 87.586 87.039
 110.766 110.588 110.562 111.168 111.510 111.122 110.000 110.000 110.000 110.323 110.951 111.744 112.537 112.829 113.373 114.561 116.308 117.088 117.146 116.593 115.611 114.464 113.619 113.156 112.149 110.547 108.691 107.494 107.443 106.844 106.417 106.324 106.000 106.000 105.609 105.626 106.155 106.653 106.627 106.407 105.966 105.479 105.198 104.379 104.077 104.000 103.713 102.832 101.367 101.050 100.489 100.000 99.877 99.071 98.265 97.510 97.052 97.000 97.000 97.764 98.000 98.000 98.000 98.000 98.000 98.000 98.386 98.937 98.924 98.911 99.592 99.614 99.097 99.000 99.000 98.560 98.359 98.333 98.205 98.218 98.072 98.000 98.000 98.000 98.000 97.282 97.000 97.000 97.000 97.000 97.000 97.000 97.000 97.000 97.000 97.000 96.744 96.548 96.535 96.523 96.510 96.497 96.700 96.775 96.000 96.000 96.000 96.261 96.849 97.631 97.949 98.000 98.479 99.284 99.939 99.386 99.302 99.142 99.000 99.000 99.000 99.000 99.000 99.000 99.000 99.000 99.000 99.000 99.000 99.000 99.000 99.000 99.000 99.033 99.069 99.071 99.864 101.265 102.000 102.000 101.947 101.128 100.988 101.462 102.252 102.921 102.838 101.430 100.284 99.490 98.980 99.896 101.432 102.951 104.200 105.107 105.737 105.772 105.340 105.000 105.000 105.000 105.000 105.000 105.000 105.193 105.999 106.000 106.000 106.000 106.134 106.607 107.060 107.770 107.657 106.826 106.021 105.583 105.500 105.011 104.059 102.912 102.106 101.300 100.708 100.098 99.350 99.029 99.000 99.000 98.659 97.951 97.655 97.613 97.752 97.841 97.932 98.496 98.674 98.686 98.647 98.815 99.558 98.713 97.766 97.237 97.106 97.042 97.848 98.000 97.580 96.562 94.983 93.383 91.738 91.045 90.714 90.000 90.000 90.713 91.000 91.000 91.000 91.000 91.000 91.000 91.000 91.000 91.000 91.772 92.000 92.000 92.000 92.000 92.000 92.000 92.000 92.000 92.000 92.000 92.000 92.000 92.000 92.000 92.000 92.000 92.000 92.000 92.000 92.000 92.000 91.777 91.404 90.895 89.674 88.065 86.684 85.622 84.723 83.527 83.441 83.188 83.000 83.000 83.000 83.000 83.000 83.000 83.000 83.000 83.000 83.000 83.000 83.000 83.000 83.000 83.000 83.000 82.737 82.000 82.000 81.435 81.158 80.852 80.132 80.119 80.031 80.000 80.000 80.000 80.000 80.000 80.546 81.352 82.000 81.990 81.995 82.555 82.952 83.115 83.846 84.695 85.505 85.522 85.027 85.135 85.026 85.000 85.000 85.000 85.042 85.673 85.923 86.000 86.276 87.143 88.528 88.910 88.347 87.473 87.000 87.000 87.724 88.000 88.000 88.000 88.000 88.000 88.000 88.000 88.264 89.492 89.514 89.501 89.295 89.000 89.007 89.813 90.000 90.245 90.453 89.964 89.158 89.648 90.000 90.000 90.000 90.000 90.000 90.143 90.490 91.000 91.000 91.000 91.000 90.750 90.205 90.192 90.179 90.167 90.100 90.000 90.000 90.000 90.000 90.000 90.000 90.000 90.000 90.000 89.602 89.012 89.000 89.000 89.000 88.562 87.756
 109.647 109.000 109.000 109.473 109.756 109.743 109.739 109.955 110.000 109.860 109.935 110.728 111.521 111.207 111.301 112.363 114.292 115.072 114.847 114.171 113.153 111.890 110.671 109.792 108.947 107.935 106.868 106.476 106.019 105.616 105.199 104.918 105.385 105.379 104.766 104.496 104.680 104.642 104.063 103.903 103.429 102.825 102.774 102.535 102.472 102.446 102.149 101.302 100.323 100.171 100.496 100.598 99.893 99.087 98.282 97.476 96.696 96.195 96.945 97.748 98.000 98.000 98.000 98.000 98.000 98.000 98.000 98.000 98.000 98.000 99.227 100.000 99.832 99.280 99.306 99.975 100.278 99.937 99.192 99.029 98.327 98.000 98.000 98.000 98.000 97.505 97.152 97.000 97.000 97.000 97.000 96.799 96.614 96.601 96.588 96.575 96.243 96.000 96.000 96.000 96.000 96.000 96.195 96.373 96.000 96.000 96.000 96.433 97.381 98.607 98.620 98.632 98.809 99.092 99.304 99.038 99.000 98.650 98.277 98.264 98.251 98.783 99.000 99.000 99.000 99.000 99.000 99.000 98.695 98.134 98.121 98.800 99.000 99.000 99.000 99.000 99.805 100.630 101.018 101.005 100.956 100.141 100.607 101.400 101.940 101.865 100.976 99.529 98.413 97.911 98.176 99.788 101.285 102.330 103.375 104.643 104.967 105.000 105.000 105.000 105.000 105.000 105.000 105.000 105.000 105.118 105.644 105.643 105.630 105.617 105.604 105.591 105.578 105.918 105.867 105.303 104.526 104.513 104.501 104.028 103.209 102.390 101.571 100.752 99.934 99.289 99.000 99.000 99.000 99.000 98.462 97.202 96.383 96.307 96.294 96.281 96.311 96.502 96.484 96.458 96.433 96.445 96.571 96.390 96.229 96.503 97.000 97.003 97.094 97.100 96.238 94.649 93.011 91.374 90.380 90.023 90.007 90.000 90.000 90.677 90.979 91.000 91.000 91.000 91.000 91.000 91.000 91.000 91.000 91.756 92.000 92.000 92.000 92.000 92.000 92.000 92.000 92.000 92.000 92.000 92.000 92.000 92.000 92.000 92.000 92.000 92.000 92.000 91.972 91.636 91.279 90.414 89.209 87.977 86.703 85.449 84.732 84.158 83.408 83.030 83.000 83.000 83.000 83.000 83.000 83.000 83.000 83.000 83.000 83.000 83.000 83.000 83.000 83.000 83.000 83.000 83.000 83.000 82.753 81.958 81.299 80.506 79.762 79.487 80.000 80.000 80.000 80.000 80.000 80.000 80.000 80.000 80.530 81.006 81.004 81.000 81.737 81.985 82.000 82.000 82.000 83.499 84.490 84.932 85.201 85.993 85.187 85.000 85.000 85.000 85.000 85.000 85.649 86.000 86.194 86.800 87.593 88.187 87.717 87.000 87.000 87.000 87.455 87.630 87.740 88.000 88.000 88.000 88.000 88.000 88.084 88.507 88.887 89.000 89.000 89.000 89.000 89.359 89.776 90.644 91.500 91.182 90.402 90.094 90.000 90.000 90.000 90.000 90.000 90.000 90.077 90.270 90.257 90.244 90.231 90.152 90.000 90.000 90.000 90.000 90.000 90.000 90.000 90.000 90.000 90.000 90.000 90.000 90.000 89.436 89.016 89.000 89.000 88.989 88.990 88.578 87.772
 109.314 109.005 109.000 109.000 109.000 109.000 109.013 109.591 109.704 109.390 109.241 110.047 110.853 111.000 111.000 111.437 112.646 113.106 112.459 111.845 111.247 110.322 108.697 107.791 106.972 106.153 105.398 104.946 104.556 104.431 104.268 103.969 103.791 103.276 102.885 102.707 102.552 101.982 101.689 101.603 101.158 100.551 100.525 100.499 100.473 100.447 100.368 100.186 100.025 100.000 100.076 100.104 99.909 99.104 98.298 97.492 96.686 96.008 96.051 96.774 97.551 98.000 98.000 98.000 98.000 98.000 98.000 98.000 98.000 98.069 99.235 100.046 100.336 101.144 101.403 101.916 101.668 100.715 99.760 99.117 98.343 98.000 98.000 98.000 98.000 98.000 97.508 97.000 97.000 97.000 96.742 96.300 96.000 96.000 96.000 96.000 96.000 96.000 96.000 96.000 96.000 96.000 96.000 96.000 96.000 95.554 95.433 96.078 97.445 99.000 99.000 99.000 99.000 99.000 99.000 99.000 98.533 98.152 98.000 98.000 98.000 97.634 97.843 98.213 98.200 98.187 98.174 98.161 98.097 98.000 98.000 98.083 98.096 98.423 99.000 99.000 99.035 99.050 99.037 99.011 99.000 99.000 99.604 100.384 100.927 100.771 99.134 98.150 97.369 97.175 98.144 99.755 100.684 101.404 102.107 103.001 104.600 104.935 105.000 105.000 105.000 105.000 105.000 105.000 105.000 105.000 105.000 105.000 105.000 105.000 105.000 105.000 105.000 104.736 104.553 104.421 104.000 104.000 103.682 103.271 102.750 101.944 101.138 100.332 99.527 99.000 99.000 99.000 99.000 98.677 97.930 96.808 95.453 95.307 94.918 94.563 94.643 95.219 95.243 95.230 95.217 95.343 95.984 96.000 96.000 96.398 97.000 96.991 96.277 95.541 93.930 91.973 91.081 90.211 90.013 90.000 90.000 90.000 90.000 90.000 90.487 91.000 91.000 91.000 91.000 91.000 91.000 91.000 91.000 91.624 91.923 92.000 92.000 92.000 92.000 92.000 92.000 92.000 92.000 92.000 92.000 92.000 92.000 92.000 92.000 92.000 91.834 91.514 91.120 89.952 88.764 87.500 86.209 85.021 84.578 83.812 83.494 83.334 83.000 83.000 83.000 83.000 83.000 83.000 83.000 83.000 83.000 83.000 83.000 83.000 83.000 83.000 83.000 83.000 83.000 83.000 83.000 83.000 82.769 81.963 81.157 80.351 79.163 78.184 78.324 79.008 79.107 79.533 80.000 80.000 80.000 80.000 80.514 81.000 81.000 81.000 81.000 81.525 81.969 82.000 82.000 82.767 83.517 84.267 85.060 85.853 85.052 84.837 84.896 85.000 85.000 85.000 85.489 85.759 85.808 86.037 86.617 86.708 86.695 86.682 86.696 86.961 87.000 87.000 87.188 87.648 87.966 87.696 87.566 87.553 87.605 87.974 88.751 89.000 89.000 89.000 89.000 89.000 89.587 90.785 92.000 91.995 91.189 90.770 90.369 90.000 90.000 90.000 90.000 90.000 90.000 90.000 90.000 90.000 90.000 90.000 90.000 90.000 89.422 89.167 89.155 89.142 89.129 89.116 89.588 90.316 90.782 90.039 90.000 89.429 89.000 89.000 89.000 88.203 88.585 88.556 87.748
 111.083 109.664 109.314 109.096 109.000 109.000 109.000 109.000 109.000 109.000 109.225 110.021 110.546 110.871 111.000 111.156 111.601 111.588 111.188 111.000 110.587 109.397 108.158 106.953 105.988 105.169 104.414 104.034 103.594 103.432 103.219 102.751 102.410 101.618 101.367 101.112 100.621 100.333 100.315 100.302 100.172 100.000 100.000 100.000 100.000 100.000 100.000 100.000 100.000 100.000 99.611 99.146 99.059 98.240 98.034 97.508 96.702 96.000 96.000 96.716 97.015 97.016 97.137 97.931 97.994 98.000 98.000 98.010 98.072 98.930 99.723 100.500 101.295 101.999 103.487 103.325 102.241 100.745 99.198 99.036 98.507 98.134 98.000 98.000 98.000 98.000 97.524 97.000 96.971 96.690 96.192 96.000 96.000 96.000 96.000 96.000 96.000 96.000 96.000 96.000 96.000 96.000 96.000 96.000 96.000 95.211 95.000 95.569 96.698 97.796 98.269 98.763 99.000 99.000 99.000 99.000 98.346 97.674 97.278 97.265 97.252 97.076 97.111 97.213 97.200 97.187 97.763 98.000 98.000 98.000 98.000 98.000 98.000 98.030 98.220 98.969 99.738 99.968 99.981 99.805 99.004 99.000 99.000 99.414 99.767 98.874 97.181 96.167 95.828 96.407 98.112 99.723 100.668 101.000 101.227 101.953 103.378 104.402 104.881 105.000 105.000 105.000 105.000 105.000 104.892 104.670 104.657 104.644 104.631 104.759 104.931 104.600 104.579 104.231 104.000 103.906 103.527 103.514 103.190 102.781 102.242 101.423 100.604 99.785 99.230 99.000 99.000 99.000 99.000 98.201 96.862 95.601 95.061 94.508 94.142 94.000 94.035 94.239 94.804 95.000 95.000 95.032 95.184 95.811 96.000 96.382 96.838 96.132 94.605 93.052 91.780 90.858 90.061 90.008 90.000 90.000 90.000 90.000 90.000 90.000 90.452 90.961 91.000 91.000 91.000 91.000 91.000 91.000 91.000 91.000 91.440 91.817 91.776 91.593 91.556 91.531 91.505 91.524 91.720 91.489 91.401 91.499 91.675 91.660 91.364 91.047 90.285 89.211 88.331 87.003 85.695 84.863 84.404 83.969 83.581 83.163 83.000 83.000 83.000 83.000 83.000 83.000 83.000 83.000 83.000 83.000 83.000 83.000 83.000 83.000 83.000 83.000 83.000 83.000 83.000 83.000 83.000 82.682 81.996 81.194 81.032 80.367 79.123 78.000 78.007 78.103 78.108 78.563 79.334 80.000 80.000 80.000 80.498 81.000 81.000 81.000 81.000 81.000 81.318 81.948 81.996 82.687 82.956 83.363 84.148 84.841 84.186 84.000 84.324 84.811 84.799 84.959 85.000 85.000 85.171 85.743 85.955 86.000 86.000 86.000 86.064 86.870 87.000 87.000 87.110 87.414 87.574 87.171 87.000 87.142 87.582 88.401 89.220 89.228 89.000 89.000 89.000 88.580 89.009 89.962 90.825 90.799 90.466 90.750 90.853 90.514 90.000 90.000 90.000 90.000 90.173 90.694 90.108 90.000 90.000 89.788 89.206 89.194 89.056 89.000 89.000 89.000 89.000 89.000 89.525 90.331 90.863 90.057 89.290 89.018 88.649 88.014 88.001 88.000 88.000 87.610 87.000
 113.232 112.452 110.745 109.532 109.000 108.954 108.735 108.718 108.881 109.000 109.142 109.666 109.653 110.267 110.788 111.000 111.000 111.000 111.000 110.797 110.133 108.926 108.120 106.627 105.260 104.186 103.471 103.458 102.729 102.136 101.701 101.406 101.393 100.635 100.367 100.228 100.000 100.000 100.000 100.000 100.000 100.000 100.000 100.000 100.000 100.000 100.000 100.000 100.000 99.470 99.088 98.785 98.126 98.016 98.000 97.524 96.718 95.918 95.156 95.743 96.521 97.000 97.000 97.000 97.730 98.019 98.064 98.260 99.031 100.539 101.056 101.442 102.000 102.000 102.669 102.835 102.422 101.475 100.191 99.398 99.086 98.570 98.000 98.000 98.000 98.000 97.540 97.000 96.952 96.426 96.359 96.190 96.000 96.000 96.000 96.000 96.000 96.000 95.939 95.554 95.874 96.000 96.000 96.000 96.000 95.227 95.000 95.162 95.485 95.788 96.566 97.346 97.979 98.488 98.982 98.432 97.666 97.162 97.000 97.000 97.000 97.000 97.000 97.000 97.000 97.000 97.122 97.162 97.149 97.136 97.123 97.110 97.578 98.000 98.145 98.951 99.757 100.000 100.000 99.826 99.020 99.000 99.000 99.362 99.475 97.827 95.384 94.244 94.412 95.824 98.215 99.840 100.708 101.000 101.000 101.069 101.875 103.208 104.364 104.926 104.735 104.722 104.916 104.843 104.360 103.670 103.657 103.644 103.833 104.218 104.509 104.021 104.000 103.750 103.554 103.439 103.003 103.000 103.000 102.588 101.782 100.976 100.170 99.365 99.000 99.000 99.000 99.000 98.583 97.116 95.321 94.334 94.321 93.613 93.295 93.502 94.000 94.000 94.176 94.231 94.218 94.318 94.958 95.754 96.000 95.746 94.961 93.423 91.775 90.655 90.142 89.874 89.063 89.050 89.037 89.024 89.240 89.998 89.998 90.000 90.000 90.247 90.934 90.921 90.908 90.895 90.882 90.869 90.856 90.732 90.660 90.576 90.312 89.637 89.394 89.297 89.258 89.376 90.143 89.375 89.104 89.444 90.026 89.987 89.151 88.307 87.053 85.701 85.175 84.343 83.782 83.559 83.546 83.506 83.075 83.000 83.000 83.000 83.000 83.000 83.000 83.000 83.000 83.000 83.000 83.000 83.000 83.000 83.000 83.000 83.000 83.000 83.000 83.000 83.000 83.000 83.000 82.607 81.801 81.000 81.000 80.383 79.155 78.000 78.000 78.000 78.000 78.452 79.021 79.129 79.878 80.647 80.984 81.000 81.000 81.000 81.000 81.000 81.000 81.116 81.862 81.977 82.488 83.236 83.876 83.863 83.850 83.930 84.000 84.000 84.000 84.795 85.000 85.000 85.000 85.014 85.595 85.892 86.000 86.000 86.032 86.561 86.879 87.172 87.550 87.922 87.116 87.000 87.000 87.301 88.107 88.913 89.371 89.239 89.000 89.000 89.000 88.662 88.493 88.579 88.923 89.383 89.387 89.959 90.611 90.932 90.663 90.130 90.000 90.295 90.780 90.991 90.783 90.269 89.655 89.164 89.000 89.000 89.000 89.000 88.759 88.143 88.130 88.117 88.613 89.120 89.147 89.070 88.320 88.040 88.018 88.000 88.000 87.991 87.976 87.602 87.000
 115.031 114.073 111.925 110.127 109.156 108.837 108.031 108.000 108.410 108.811 109.000 109.000 109.000 109.611 110.417 111.000 111.000 111.000 110.728 110.116 109.297 108.478 107.659 106.170 104.306 102.833 102.425 101.975 101.579 101.214 101.000 100.930 100.440 100.103 100.000 100.000 100.000 100.000 100.000 100.000 100.000 100.000 100.000 100.000 100.000 99.689 99.212 99.199 99.186 99.065 98.639 98.112 98.000 98.000 98.000 97.540 96.734 95.928 95.122 95.030 95.520 96.308 97.000 97.008 97.735 98.554 99.373 100.068 100.142 100.852 101.594 102.000 102.000 102.000 102.000 102.000 101.615 100.964 100.798 100.155 99.392 98.586 98.000 98.000 98.000 98.000 97.556 97.000 97.000 97.000 97.000 96.526 96.000 96.000 96.000 96.000 96.000 96.000 95.885 95.079 95.372 95.766 96.000 96.000 96.000 95.243 95.000 95.000 95.000 95.000 95.301 95.588 96.111 96.891 97.658 97.376 96.683 96.292 96.447 97.000 97.000 97.000 97.000 97.000 97.000 97.000 97.000 97.000 97.000 97.000 97.000 97.000 97.050 97.084 97.200 97.993 98.786 99.561 100.000 99.842 99.029 98.981 98.968 98.556 97.497 95.800 93.483 93.020 94.300 96.680 99.180 100.685 101.000 101.000 101.046 101.243 101.889 102.816 104.069 104.723 103.956 103.506 104.113 104.044 103.474 103.000 103.000 103.000 103.335 103.619 103.662 103.979 103.683 103.249 102.837 102.541 102.528 102.515 102.502 102.094 101.275 100.460 100.084 99.381 98.755 98.276 97.798 97.772 97.097 95.646 94.086 93.334 93.321 93.099 93.000 93.082 93.340 93.928 94.000 94.000 94.000 94.026 94.179 94.312 94.333 93.957 92.969 91.332 90.374 89.528 89.089 89.062 89.001 89.000 89.000 89.000 89.002 89.021 89.827 90.000 90.000 90.000 90.000 90.000 89.939 89.895 89.850 89.728 89.586 88.947 88.577 88.205 87.610 87.584 86.836 86.409 86.260 86.361 87.128 86.607 86.570 86.826 87.028 86.989 86.442 85.687 84.610 83.611 83.595 83.111 83.000 83.000 83.000 83.000 83.000 83.000 83.000 83.000 83.000 83.000 83.000 83.000 83.000 83.000 83.000 83.000 83.000 83.000 83.000 83.000 83.000 83.000 83.000 83.000 83.000 83.000 83.000 82.623 81.817 81.011 81.000 79.902 78.688 78.000 78.000 78.000 78.000 78.436 79.000 79.048 79.854 80.660 80.548 80.285 81.000 80.999 81.000 81.000 81.000 81.000 81.000 81.658 81.954 82.295 82.877 82.864 82.963 83.465 83.888 84.000 84.000 84.612 84.774 84.761 84.797 85.001 85.225 85.726 86.000 86.000 86.000 86.000 86.644 87.284 87.619 87.544 86.726 86.863 87.000 87.158 87.633 88.426 88.516 88.756 89.161 89.522 89.535 89.146 88.461 88.000 88.062 88.383 88.387 88.943 89.497 89.698 89.672 89.927 90.413 90.823 91.000 90.988 90.391 89.145 88.365 88.220 88.207 88.195 88.182 88.169 88.114 88.000 88.000 88.000 88.052 88.092 88.079 88.066 88.015 88.000 88.000 88.000 88.000 87.251 87.000 87.000 87.000
 115.955 114.356 112.757 111.158 109.818 108.853 108.047 108.000 108.000 108.257 108.737 108.994 109.000 109.595 110.401 111.000 110.995 110.664 109.687 108.884 108.420 107.938 106.748 104.883 102.847 101.485 101.438 101.056 101.000 101.000 101.000 100.898 100.092 100.000 100.000 100.000 100.000 100.000 100.000 100.000 100.000 99.884 99.289 99.251 99.238 99.139 99.000 99.000 98.347 98.174 98.094 98.000 98.000 98.000 98.000 97.556 96.750 95.944 95.138 95.000 95.474 96.280 97.085 97.891 98.697 99.486 100.262 101.055 101.848 101.977 102.000 102.000 101.982 101.869 101.849 101.744 101.343 100.669 100.016 100.000 99.408 98.602 98.000 98.000 98.000 97.818 97.397 97.000 97.000 97.000 97.000 96.542 96.000 96.000 96.000 96.000 96.000 96.000 95.901 95.095 95.000 95.258 95.652 95.932 95.496 95.116 95.000 95.000 95.000 95.000 95.000 95.000 95.136 95.409 95.660 95.636 95.425 95.584 96.061 96.266 96.253 96.240 96.227 96.214 96.201 96.188 96.176 96.557 97.000 97.000 97.000 97.000 97.000 97.000 97.008 97.054 97.079 97.597 98.040 98.013 97.994 97.995 98.000 97.252 95.426 92.996 92.263 93.276 94.944 97.002 100.008 100.814 101.000 101.074 101.375 102.000 102.000 103.152 104.108 104.236 103.373 102.184 102.285 102.541 102.684 102.671 102.658 102.645 102.632 102.741 103.077 103.553 103.152 102.765 102.360 101.929 101.547 101.516 101.218 100.794 100.194 98.941 98.902 98.612 98.016 97.197 96.374 95.372 94.488 93.765 93.103 92.335 92.322 92.309 92.296 92.480 93.022 93.228 93.244 93.231 93.219 93.118 92.453 92.360 91.894 91.128 90.384 90.142 89.363 89.045 89.000 89.000 89.000 89.000 89.000 89.000 89.000 89.005 89.800 89.990 90.000 89.988 89.932 89.856 89.171 88.744 88.390 87.545 86.701 86.532 86.093 85.636 85.611 85.585 85.009 84.255 83.754 83.865 84.658 84.925 85.380 85.342 84.676 84.663 84.383 83.911 83.389 83.000 83.000 83.000 83.000 83.000 83.000 83.000 83.000 83.000 83.000 83.000 83.000 83.000 83.000 82.735 82.418 82.405 82.393 82.808 83.000 83.000 83.000 83.000 83.000 83.000 83.000 83.000 83.000 83.000 83.000 82.639 81.833 81.027 80.366 79.487 78.937 78.685 78.000 78.000 78.000 78.040 78.291 79.002 79.048 79.073 79.049 79.275 80.067 80.861 80.994 81.000 81.000 81.000 81.000 81.000 81.509 82.000 82.000 82.000 82.624 82.926 83.285 83.841 83.991 84.000 84.000 84.000 84.181 84.987 85.792 86.000 86.000 86.000 86.000 86.000 86.405 86.632 86.620 86.579 86.088 86.658 86.800 86.555 86.583 86.996 87.365 87.997 88.942 90.055 90.487 89.831 89.038 88.385 87.921 87.436 87.388 87.582 87.953 88.242 87.693 88.949 89.893 89.753 89.133 90.272 89.453 88.484 88.000 88.000 88.000 88.000 88.000 88.000 88.000 88.000 88.000 88.000 87.573 87.092 87.079 87.066 87.054 87.041 87.028 87.015 87.002 87.000 87.000 87.000 87.000
 116.646 115.350 113.789 112.190 110.591 109.090 108.080 108.000 108.000 108.000 108.109 108.645 108.654 109.220 110.156 110.927 110.604 109.787 108.617 108.000 107.901 107.485 105.860 103.597 101.833 101.000 101.000 101.000 101.000 101.000 100.838 100.373 100.043 100.000 100.000 100.000 100.000 100.000 100.000 99.629 99.291 99.238 99.013 99.000 99.000 99.000 98.863 98.216 97.401 97.174 97.161 97.322 98.000 98.000 98.000 97.572 96.766 95.960 95.154 94.377 94.932 96.263 97.069 97.875 98.667 98.983 99.293 100.105 100.971 101.736 102.000 101.964 101.763 101.056 100.889 100.290 99.824 99.841 99.993 100.000 99.424 98.618 98.000 98.000 97.776 97.279 97.000 97.000 97.000 97.000 96.773 96.351 96.000 96.000 96.000 96.000 96.000 96.000 95.917 95.111 95.000 95.000 95.149 95.420 95.037 95.000 95.000 95.000 95.000 95.000 95.000 95.000 95.000 94.887 94.346 94.318 94.305 94.688 95.280 95.267 95.254 95.711 96.000 96.000 96.000 96.000 96.000 96.074 96.372 97.000 97.000 96.397 96.098 96.351 97.000 97.000 97.000 97.017 97.021 97.008 97.000 97.738 97.983 96.906 94.484 92.112 92.831 94.298 96.357 98.592 100.119 100.827 101.000 101.409 102.000 101.996 101.824 102.408 102.762 102.504 101.736 101.723 101.239 101.327 101.684 101.671 101.658 101.646 101.816 102.189 102.607 102.594 102.278 101.608 101.110 101.008 100.558 100.153 99.726 99.305 98.616 96.978 96.903 96.877 96.684 96.214 95.393 94.262 92.997 92.361 92.268 92.000 92.000 91.553 91.615 92.073 92.271 92.258 92.245 92.232 92.219 92.112 91.293 91.180 90.655 89.836 89.141 89.129 89.031 89.000 89.000 89.000 89.000 89.000 89.000 89.000 89.000 89.000 89.000 89.585 89.961 89.735 88.915 88.033 87.187 86.356 85.552 84.828 84.125 83.897 83.832 83.819 83.806 83.793 83.780 83.387 83.000 83.108 83.914 84.515 84.703 84.358 83.677 83.664 83.163 83.000 83.000 83.000 83.000 83.000 83.000 83.000 83.000 83.000 83.000 83.000 83.000 83.000 83.000 83.000 82.642 81.981 81.419 81.443 81.920 82.674 83.000 83.000 83.000 83.000 83.000 83.000 82.776 82.277 82.264 82.251 82.238 81.880 81.180 81.009 80.858 79.787 78.686 78.121 78.002 78.000 78.000 78.000 78.018 78.086 78.833 79.000 79.000 79.005 79.052 79.852 80.658 81.000 81.000 81.004 81.063 81.084 81.542 82.000 82.000 82.000 82.000 82.439 82.883 83.110 83.753 83.787 83.899 84.000 84.165 84.971 85.776 86.169 86.303 86.254 86.000 85.725 85.646 85.633 85.705 86.012 86.339 87.060 86.984 86.332 86.000 86.000 86.347 86.982 88.058 89.568 90.361 90.135 89.777 89.081 87.951 87.629 87.165 87.000 87.124 87.298 87.015 88.007 88.487 88.375 88.102 88.537 88.314 88.100 88.000 88.000 88.000 88.000 88.000 88.000 88.000 88.000 88.000 87.422 87.057 87.000 87.000 87.000 87.000 87.000 87.000 87.000 87.000 87.000 86.988 86.964 86.951
 115.811 115.798 114.390 112.880 111.456 110.024 108.425 108.077 108.000 108.000 108.000 108.000 108.000 108.764 109.971 110.826 110.020 108.891 108.235 108.000 107.796 106.985 105.756 103.622 101.859 101.000 101.000 101.000 101.000 100.741 100.310 100.000 100.000 100.000 100.000 100.000 100.000 100.000 99.515 99.147 99.000 99.000 99.000 99.000 99.000 98.727 98.055 97.236 97.043 96.524 96.161 96.337 97.130 97.123 97.110 97.057 96.583 95.047 94.228 94.016 94.455 95.509 97.053 97.853 97.993 98.471 99.290 100.220 101.786 102.000 101.951 101.616 101.000 101.000 100.275 99.470 99.000 99.115 99.757 99.785 99.340 98.634 97.956 97.739 97.156 97.000 97.000 97.000 97.000 97.000 96.381 96.000 96.000 96.000 96.000 96.000 96.000 96.000 95.933 95.127 95.000 95.000 95.000 95.000 95.000 94.609 94.435 94.422 94.410 94.397 94.384 94.371 94.358 94.291 94.013 94.000 94.000 94.111 94.280 94.267 94.254 94.845 95.228 95.215 95.219 95.860 96.000 96.000 96.037 96.138 96.125 96.038 96.000 96.024 96.148 96.893 97.000 97.000 96.702 96.118 96.916 97.709 97.425 95.911 93.615 92.035 93.545 95.822 98.268 100.270 100.979 101.000 101.000 101.325 101.814 101.797 101.149 101.478 101.762 101.578 101.000 101.000 101.000 101.000 101.000 101.000 101.000 101.000 101.305 101.620 101.570 101.229 100.457 99.625 99.111 99.085 99.059 98.653 98.504 97.966 96.729 95.524 95.452 95.439 95.426 95.338 95.004 94.205 92.798 92.000 91.861 91.336 91.323 91.114 91.130 91.284 91.271 91.258 91.245 91.232 91.219 91.190 91.022 90.435 90.085 89.698 89.000 89.000 89.000 89.000 89.000 89.000 89.000 89.000 89.000 89.000 89.000 89.000 89.000 89.000 88.985 88.741 87.865 86.290 85.295 84.520 83.974 83.871 83.858 83.301 83.000 83.000 83.000 83.000 83.000 83.000 83.000 83.068 83.654 83.716 83.703 83.472 83.000 83.000 83.000 83.000 83.000 83.000 83.000 83.000 83.000 83.000 83.000 83.000 83.000 83.000 83.000 82.891 82.462 82.012 81.610 81.244 81.000 81.019 81.335 82.038 82.661 83.000 83.000 83.000 83.000 82.656 81.991 81.277 81.265 81.252 81.239 81.152 81.000 81.000 81.000 80.807 80.018 78.711 78.025 78.000 78.000 78.000 78.000 78.000 78.047 78.630 79.000 79.000 79.030 79.836 80.630 80.982 81.000 81.060 81.866 82.000 82.000 82.000 82.000 82.000 82.000 82.000 82.313 83.000 83.000 83.000 83.537 84.000 84.149 84.955 85.761 86.566 87.000 86.878 86.339 85.281 84.789 84.781 85.208 86.019 87.152 88.306 88.244 87.101 86.000 86.000 86.000 86.233 87.026 88.590 89.815 90.375 90.285 89.576 88.525 88.055 87.285 87.000 87.000 87.000 87.000 87.242 87.312 87.299 87.286 87.273 87.260 87.247 87.234 87.371 87.998 88.000 88.000 87.310 86.688 87.976 87.276 87.043 87.000 87.000 87.000 87.000 87.000 87.000 87.000 87.000 87.000 86.990 86.484 86.000 86.000
 114.635 114.773 113.569 112.513 111.636 110.573 109.165 108.289 107.849 107.694 107.722 107.978 108.000 108.897 109.982 110.458 109.639 108.365 108.000 108.000 107.812 107.006 106.200 104.478 102.677 101.514 101.527 101.540 101.201 100.808 100.579 100.623 101.124 101.235 101.261 101.287 101.313 101.339 101.144 100.738 100.199 99.640 99.060 99.000 99.000 98.664 97.970 97.810 97.200 96.440 96.000 96.026 96.133 96.123 95.585 94.837 94.034 93.142 93.069 93.045 93.869 95.463 97.000 97.000 97.649 98.455 99.510 101.008 101.801 101.915 101.465 101.000 101.000 101.000 100.292 99.569 99.119 99.000 99.000 98.842 98.773 98.410 97.630 97.028 97.000 97.000 97.000 96.941 96.672 96.656 96.255 96.000 96.000 95.992 95.662 95.578 95.565 95.552 95.512 95.075 95.000 94.766 94.488 94.475 94.462 94.138 94.000 94.000 94.000 94.000 94.000 94.000 94.000 94.000 94.000 94.000 94.000 94.000 94.000 94.000 94.000 94.142 94.229 94.372 95.001 95.154 95.177 95.164 95.151 95.168 95.861 96.000 96.000 96.000 96.005 96.053 96.047 96.035 96.015 96.094 96.896 96.983 95.946 94.003 91.834 91.130 94.025 97.262 99.766 101.000 101.000 101.000 101.000 101.000 101.000 101.000 101.000 101.000 101.000 101.000 101.000 101.000 101.000 101.000 101.000 100.984 100.709 100.646 100.804 100.897 100.499 99.352 98.473 97.642 97.246 97.494 97.101 97.034 97.008 96.657 95.862 95.057 95.000 95.000 95.000 95.000 95.000 94.221 92.830 91.751 91.280 91.000 91.000 91.000 91.000 91.000 90.976 90.378 90.246 90.233 90.220 90.207 90.194 90.059 89.601 89.111 89.000 89.000 88.378 88.104 88.091 88.190 88.932 89.000 89.000 88.664 88.162 88.957 89.000 88.985 88.572 87.536 85.898 85.114 84.311 83.897 83.698 83.000 83.000 83.000 83.000 83.000 83.000 83.000 83.000 83.000 83.000 83.000 83.000 83.000 83.000 83.000 83.000 83.000 83.000 83.000 83.000 83.000 83.000 83.000 83.000 83.000 83.000 83.000 83.000 83.000 82.805 82.290 81.471 80.652 80.445 80.433 80.550 80.982 80.493 81.023 81.816 82.519 83.000 83.000 82.541 81.826 81.007 80.278 80.265 80.252 80.625 81.000 81.000 81.000 81.594 81.825 81.153 79.576 78.084 78.000 78.000 78.000 78.000 78.000 78.000 78.027 78.422 79.000 79.014 79.815 79.993 80.418 80.966 81.044 81.850 82.000 82.000 82.000 82.000 82.000 82.000 82.000 82.246 82.814 82.801 82.940 83.287 83.680 84.133 84.939 85.745 86.550 87.000 86.949 86.683 85.111 84.271 84.245 84.813 85.606 87.203 88.293 88.235 87.212 86.000 86.000 86.000 86.000 86.375 87.624 89.653 90.669 90.525 89.880 89.498 88.705 87.485 87.000 86.802 86.351 86.338 86.325 86.312 86.299 86.391 86.965 87.000 87.000 87.000 87.039 87.205 87.196 87.184 86.703 86.238 87.143 87.024 87.000 87.000 87.000 86.962 86.210 86.055 86.042 86.029 86.016 86.004 86.000 86.000 86.000 86.000
 113.053 113.859 113.478 112.649 111.446 109.917 109.111 108.305 107.499 107.000 107.077 107.614 107.905 108.341 108.841 109.146 108.635 108.145 108.000 108.000 107.905 107.473 106.690 105.595 104.407 103.539 103.574 103.179 102.485 101.890 101.712 102.219 103.051 103.634 103.890 103.929 103.968 104.007 103.583 102.905 102.125 101.345 100.565 99.436 99.000 98.680 98.000 98.000 97.262 96.007 95.162 95.149 95.136 94.450 93.647 92.815 92.153 92.072 92.809 93.000 93.819 95.430 97.000 97.000 97.633 98.425 99.200 99.993 100.786 100.916 100.903 100.920 101.000 101.000 100.308 99.919 99.574 99.000 99.000 98.278 98.000 97.666 97.000 97.000 96.791 96.708 96.696 96.567 96.016 95.732 95.644 95.631 95.618 95.602 95.112 94.740 94.566 94.553 94.540 94.527 94.514 94.274 94.000 94.000 94.000 94.000 94.000 94.000 94.000 94.000 94.000 94.000 94.000 94.000 94.000 94.000 94.000 94.000 93.890 93.298 93.825 94.000 94.000 94.040 94.201 94.834 95.000 95.000 95.000 95.003 95.104 95.672 96.000 96.000 96.000 96.000 96.000 96.000 96.000 96.001 96.000 95.988 94.964 93.035 91.120 92.039 94.983 98.147 100.332 101.000 101.000 101.000 101.000 101.000 101.000 101.000 101.000 101.000 101.000 101.000 101.000 101.000 101.000 101.000 101.000 100.968 100.162 100.000 100.285 100.268 99.116 97.806 96.908 96.296 96.159 96.452 95.633 95.518 95.505 95.492 95.421 95.034 95.000 95.000 95.000 95.000 95.000 94.237 93.217 92.024 91.000 91.000 90.464 90.311 90.298 90.285 90.268 90.046 90.000 90.000 90.000 90.000 90.000 89.461 89.090 88.772 88.143 88.130 88.037 88.000 88.000 88.008 88.060 88.732 89.000 88.671 88.135 88.941 88.988 88.408 87.220 85.628 84.057 83.940 83.380 83.000 83.000 83.000 83.000 83.000 83.000 83.000 83.000 83.000 83.000 83.000 83.000 83.000 83.000 83.000 83.000 83.000 83.000 83.000 83.000 83.000 83.000 83.000 83.000 83.000 83.000 83.000 83.000 83.000 82.637 82.233 81.622 80.883 80.479 80.096 80.000 80.000 80.087 80.402 80.071 80.239 80.800 81.593 82.314 81.760 80.978 80.147 79.694 80.000 80.000 80.000 80.118 80.227 80.295 80.927 81.134 81.175 80.782 79.734 78.123 78.000 78.000 78.000 78.000 78.000 78.000 78.000 78.013 78.209 78.998 79.000 79.599 79.982 80.222 81.026 81.776 81.918 81.905 81.892 81.886 81.982 82.000 82.000 82.000 82.000 82.000 82.551 82.384 82.474 83.675 84.882 85.729 86.226 86.295 86.003 85.689 84.401 84.000 84.000 84.109 84.598 85.853 86.166 86.140 85.999 85.544 85.531 85.518 85.506 85.728 86.604 89.009 90.820 91.100 90.420 89.929 89.123 88.051 87.319 86.705 86.000 86.000 86.000 86.000 86.000 86.037 86.257 86.261 86.660 87.000 86.876 86.237 86.817 86.528 86.105 86.030 86.145 86.133 86.120 86.107 86.094 86.079 86.012 86.000 86.000 86.000 86.000 86.000 86.000 86.000 85.990 85.957
 112.849 113.642 113.786 112.863 111.301 109.933 109.127 108.321 107.515 107.000 107.000 107.000 107.708 108.000 108.000 108.000 108.000 108.000 108.000 108.000 108.000 108.000 107.596 107.192 106.810 106.538 106.577 105.389 104.500 103.720 103.370 104.190 104.535 105.249 105.630 105.643 105.655 105.668 105.019 104.226 103.627 103.360 102.580 101.108 99.762 98.696 98.000 98.000 96.692 95.555 95.000 94.881 94.184 93.372 92.553 92.062 92.000 92.000 92.046 92.606 93.786 95.398 97.000 96.999 97.605 97.982 98.229 99.033 99.781 99.970 100.000 100.258 100.992 100.882 100.175 99.434 99.000 98.982 98.820 98.231 97.884 97.519 97.000 97.000 96.264 96.000 96.000 96.000 96.000 95.497 95.356 95.230 95.000 95.000 95.000 94.399 94.000 94.000 94.000 94.000 94.000 94.000 94.000 94.000 94.000 94.000 94.000 94.000 94.000 94.000 94.000 94.000 93.807 93.346 93.333 93.809 93.636 93.294 93.243 93.015 93.191 93.663 94.000 94.000 94.000 94.149 94.178 94.165 94.152 94.141 94.833 95.069 95.100 95.087 95.074 95.061 95.662 96.000 96.000 96.000 95.997 95.310 93.531 91.696 91.336 93.822 96.216 98.575 100.316 101.000 101.000 101.000 101.000 101.000 101.000 101.000 101.000 101.000 101.000 101.000 101.000 101.000 101.000 101.000 100.934 100.657 99.838 99.647 99.634 99.141 97.562 96.744 96.199 95.800 95.557 95.503 95.063 95.000 95.000 95.000 95.000 95.000 95.000 95.000 95.000 95.000 95.000 94.710 94.071 92.919 91.436 90.376 90.072 90.000 90.000 90.000 90.000 90.000 90.000 89.680 89.221 89.208 89.195 89.065 89.000 88.746 88.000 88.000 88.000 88.000 88.000 88.000 88.000 88.037 88.040 88.019 88.002 88.001 87.980 86.890 85.620 84.801 83.982 83.221 83.000 83.000 83.000 83.000 83.000 83.000 83.000 83.000 83.000 83.000 83.000 83.000 83.000 83.000 83.000 83.000 83.000 83.000 83.000 83.000 83.000 83.000 83.000 83.000 83.000 82.706 82.575 82.419 82.039 81.638 81.181 80.471 79.818 79.485 79.472 79.878 80.000 80.000 80.000 80.000 80.000 80.000 80.153 80.435 80.659 79.827 78.995 78.473 78.543 79.320 79.900 80.000 80.000 80.000 80.019 80.180 79.621 79.351 79.015 78.265 78.021 78.000 78.000 78.000 78.000 78.000 78.000 78.000 78.000 78.176 78.982 78.999 79.000 79.388 80.162 80.944 80.931 80.969 81.000 81.000 81.036 81.734 81.854 81.841 81.873 82.000 82.000 82.000 82.000 82.000 82.277 84.482 85.241 84.905 84.074 83.503 84.283 84.083 83.807 83.764 84.000 84.000 84.460 84.583 84.570 84.557 84.545 84.532 84.519 84.710 85.108 85.556 87.961 90.366 91.493 91.322 90.529 89.736 88.943 88.150 87.180 86.000 86.000 86.000 86.000 86.000 86.000 86.000 86.000 86.132 86.236 86.191 86.011 86.756 86.896 86.524 86.000 86.000 86.000 86.000 86.000 86.000 86.000 86.000 86.000 86.000 86.000 86.000 86.000 86.000 86.000 85.737 85.065
 111.830 112.461 112.438 111.542 110.335 109.710 109.105 108.338 107.532 107.000 107.000 107.000 107.692 108.000 108.000 108.000 108.000 108.000 108.000 108.000 108.000 108.000 108.000 108.271 108.499 108.512 108.525 107.396 106.192 105.393 105.238 105.590 105.603 105.853 106.266 106.642 106.655 106.668 106.034 105.242 104.524 103.936 103.130 102.152 100.795 99.261 98.000 98.000 96.588 95.488 95.000 94.876 94.070 93.264 92.459 92.000 92.000 92.000 92.000 92.571 93.390 94.387 95.986 96.790 96.993 97.407 98.213 99.000 99.000 99.578 99.904 100.133 100.830 100.011 99.289 99.000 98.953 98.750 98.093 97.853 97.390 96.928 96.748 96.735 96.203 96.000 96.000 96.000 96.000 96.000 96.000 95.772 95.318 95.011 95.000 94.415 94.000 94.000 94.000 94.000 94.000 94.000 94.000 94.000 94.000 94.000 94.000 94.000 94.000 94.000 94.000 93.699 93.257 93.000 93.000 93.226 93.151 93.000 93.000 93.000 93.000 93.131 93.230 93.217 93.204 93.191 93.646 94.000 94.000 94.000 94.100 94.114 94.101 94.088 94.075 94.062 94.677 95.036 95.023 95.010 94.997 94.326 92.593 91.281 92.354 95.535 97.431 99.034 100.299 101.000 101.000 101.000 100.917 100.829 100.816 100.803 100.790 100.777 100.764 100.751 100.738 100.939 101.000 101.000 100.806 100.000 99.194 99.000 98.847 98.258 96.970 96.164 96.000 95.552 95.000 95.000 95.000 95.000 95.000 95.000 95.000 95.000 95.000 95.000 95.000 95.000 95.000 95.000 94.463 93.314 91.702 90.091 90.000 90.000 90.000 89.873 89.284 89.260 89.247 89.140 89.000 89.000 89.000 89.000 88.641 88.119 88.000 88.000 88.000 88.000 88.000 88.000 88.000 88.000 88.000 88.000 87.898 87.092 86.263 85.431 84.611 83.824 83.057 83.000 83.000 83.000 83.000 83.000 83.000 83.000 83.000 83.000 83.000 83.000 83.000 83.000 83.000 83.000 83.000 83.000 83.000 83.000 83.000 83.000 83.000 83.000 83.000 83.000 83.000 82.014 81.147 80.514 79.983 79.151 79.048 79.011 79.000 79.000 79.000 79.349 79.759 79.790 79.421 79.408 79.395 79.382 79.369 79.357 79.340 79.060 78.802 78.695 78.777 79.012 79.226 79.741 80.000 80.000 79.944 79.300 78.506 78.176 78.115 78.000 78.000 78.000 78.000 78.000 78.000 78.000 78.000 78.000 78.000 78.003 78.008 78.773 79.000 79.000 79.182 79.940 79.986 80.558 80.906 80.893 80.883 80.978 81.000 81.000 81.206 81.815 81.803 81.790 81.777 81.830 82.127 83.315 83.451 83.067 82.484 82.114 82.920 83.480 83.116 82.850 83.353 83.961 83.695 83.818 84.000 84.000 84.000 84.000 84.000 84.201 84.597 85.018 86.578 88.435 90.230 91.462 91.545 90.751 89.958 89.165 88.276 87.207 86.166 85.541 85.313 85.301 85.288 85.275 85.262 85.249 85.236 85.323 85.948 86.740 87.000 86.939 86.708 86.031 86.000 85.494 85.108 85.095 85.082 85.069 85.627 86.000 86.000 86.000 86.000 85.995 85.979 85.728 85.000
 110.999 110.838 110.170 109.351 108.761 108.748 108.735 108.076 107.388 107.000 107.000 107.000 107.676 108.000 108.000 108.000 108.000 108.000 108.000 108.000 108.000 108.000 108.348 108.764 109.000 109.000 109.000 108.235 107.172 106.351 106.000 106.000 106.000 106.370 107.035 107.642 107.655 107.668 107.050 106.257 105.293 103.986 103.771 103.085 101.473 99.456 97.939 97.295 96.369 95.912 95.584 94.892 94.086 92.651 92.053 92.000 92.000 92.000 92.000 92.555 93.012 93.355 94.954 95.775 96.567 97.360 98.153 98.943 98.930 98.968 99.000 99.202 99.850 99.140 99.000 99.000 98.744 97.988 97.827 97.257 97.000 96.714 96.000 96.000 96.000 96.000 96.096 96.316 96.329 96.091 96.000 96.000 95.849 95.043 95.000 94.431 93.838 93.554 93.541 93.528 93.515 93.704 94.000 94.009 94.441 94.549 94.562 94.575 94.561 94.089 94.000 93.827 93.467 93.000 93.000 93.000 93.000 93.000 93.000 93.000 93.000 93.000 93.000 93.000 93.000 93.000 93.099 93.166 93.153 93.140 93.127 93.114 93.101 93.088 93.075 93.818 94.030 94.036 94.023 94.010 93.997 93.343 92.076 91.477 93.179 95.597 98.015 99.478 100.283 101.000 101.000 100.898 100.415 100.000 100.000 100.000 100.000 100.000 100.000 100.000 100.000 100.552 100.713 100.700 100.509 99.690 98.871 98.648 98.380 97.792 96.986 96.180 95.739 95.324 95.000 95.000 95.000 95.000 95.000 95.000 95.000 95.000 95.000 95.000 95.000 95.000 95.000 95.000 94.479 93.346 91.821 90.744 90.172 89.621 89.299 89.240 89.009 89.000 89.000 89.000 89.000 89.000 88.353 88.183 88.099 88.000 88.000 88.000 88.000 88.000 88.000 88.000 88.000 88.000 88.000 87.727 86.842 85.218 84.290 83.483 83.000 83.000 83.000 83.000 83.000 83.000 83.000 83.000 83.000 83.000 83.000 83.000 83.000 83.000 83.000 82.908 82.757 82.744 82.731 82.894 83.000 83.000 83.000 83.000 83.000 83.000 83.000 82.973 82.651 81.223 79.598 78.563 78.495 78.050 78.000 78.519 79.000 79.000 79.000 79.000 79.245 79.281 79.000 79.000 79.000 79.000 79.000 79.000 79.000 79.000 79.000 79.000 79.000 79.000 79.000 79.637 80.000 80.000 79.945 79.139 78.333 78.000 78.000 78.000 78.000 78.000 78.000 78.000 78.000 78.000 78.000 78.000 78.326 78.978 78.991 79.000 79.000 79.000 79.000 79.000 79.732 79.919 79.943 80.000 80.008 80.707 80.854 80.909 81.000 81.000 81.000 81.000 81.000 81.201 81.769 81.967 82.000 82.000 82.000 82.068 82.610 82.661 82.314 82.000 82.208 83.504 83.155 83.319 83.722 84.000 84.000 83.640 83.520 83.695 84.093 84.478 85.268 86.336 87.890 89.630 90.838 90.967 90.365 89.559 88.753 87.894 86.283 85.335 85.000 85.000 85.000 85.000 85.000 85.000 85.000 85.112 85.918 86.724 87.000 87.000 86.858 86.052 86.000 85.440 85.000 85.000 85.000 85.000 85.033 85.044 85.226 86.000 86.000 85.378 85.000 84.992 84.954
 110.825 110.006 109.187 108.460 107.949 107.748 107.735 107.092 106.709 106.696 106.714 107.233 108.002 108.355 108.268 108.000 108.000 108.000 108.000 108.000 108.048 108.420 109.192 109.485 109.498 109.441 109.030 108.251 107.445 106.639 106.096 106.573 106.602 107.200 108.019 108.641 108.653 108.128 107.386 106.580 105.707 104.696 104.119 102.876 100.892 98.915 97.938 97.132 96.326 96.000 95.953 95.680 94.191 92.593 92.000 92.284 92.803 92.068 92.000 92.539 93.000 93.302 94.914 94.999 95.569 96.375 97.181 97.987 98.000 98.549 98.905 98.915 99.000 99.000 99.000 98.931 98.629 97.954 97.148 97.000 97.000 96.730 96.000 96.000 96.000 96.000 96.299 97.033 97.299 96.624 96.169 96.000 95.865 95.059 95.000 94.447 93.641 93.000 93.000 93.000 93.000 93.388 94.099 94.523 95.342 95.549 95.562 95.446 95.005 95.168 94.440 94.000 93.909 93.653 93.665 93.223 93.000 93.000 93.000 93.000 93.000 93.000 93.000 92.907 92.265 92.192 92.179 92.452 93.000 93.000 93.000 92.498 92.101 92.089 92.076 92.853 93.050 93.037 93.024 93.011 92.998 92.350 91.093 90.672 93.079 95.539 97.967 99.419 100.162 100.873 100.753 100.026 99.685 99.710 99.817 99.804 99.940 100.000 100.000 100.000 100.000 100.000 100.000 100.000 99.888 99.347 98.302 98.000 97.859 97.503 97.001 96.196 95.390 95.000 95.000 95.000 95.000 95.000 95.000 95.000 95.000 95.000 95.000 95.000 95.000 94.949 94.467 94.390 93.872 92.940 91.883 91.077 90.271 89.465 89.000 89.000 89.000 89.000 89.000 89.000 88.863 88.223 88.042 88.000 88.000 87.827 87.145 87.132 87.668 88.000 88.000 88.000 88.000 88.000 87.560 86.763 85.873 84.249 83.317 83.000 83.000 83.000 83.000 83.000 83.000 83.000 83.000 83.000 83.000 83.000 83.000 83.000 83.000 83.000 83.000 82.704 82.197 82.001 82.215 82.718 83.000 83.000 83.000 83.000 83.000 83.000 82.815 82.176 81.344 79.845 78.608 78.000 77.962 77.589 77.856 78.257 78.654 79.000 79.000 79.000 79.000 79.000 79.000 79.000 79.000 79.000 79.000 79.000 79.000 78.475 78.319 78.306 78.437 79.000 79.000 79.621 80.000 79.820 79.177 78.358 77.539 77.177 77.164 77.210 77.892 78.000 78.000 78.000 78.000 78.000 78.000 78.000 78.322 79.000 79.000 79.000 79.000 79.000 79.000 79.000 79.000 79.000 79.346 79.914 79.999 80.000 80.000 80.346 80.866 81.000 81.000 81.000 81.000 81.000 81.040 81.635 81.726 81.713 81.783 82.000 82.000 82.000 82.000 82.000 82.070 82.560 82.889 83.000 83.192 83.559 83.546 83.131 83.000 83.186 83.581 83.988 84.367 84.725 85.236 86.238 88.259 89.026 88.932 88.596 88.135 87.303 86.211 85.351 85.000 85.000 85.000 85.000 85.000 85.000 85.000 85.096 85.902 86.708 87.000 87.000 86.874 86.068 86.000 85.456 85.000 85.000 85.000 85.000 85.000 85.000 85.006 85.018 85.006 85.000 84.992 84.759 84.000
 109.841 109.022 108.327 107.912 107.612 106.999 106.787 106.279 106.000 106.000 106.064 107.676 108.644 109.000 108.838 108.358 108.052 108.000 108.000 108.124 108.537 109.356 109.843 110.000 110.000 109.941 109.559 108.804 108.011 107.218 106.727 107.545 108.061 108.798 109.160 108.884 108.355 107.541 107.129 106.596 105.790 104.972 103.577 102.000 100.270 98.760 97.954 97.148 96.342 96.000 96.000 95.849 94.237 93.226 92.887 92.930 92.895 92.089 92.000 92.025 92.352 93.138 93.949 94.747 95.553 96.359 97.164 97.970 98.000 98.000 98.000 98.173 98.879 98.866 98.853 98.489 97.961 97.790 97.132 97.000 97.000 96.746 96.000 96.000 96.000 96.000 96.283 97.089 97.895 97.538 96.847 96.252 95.881 95.075 95.000 94.463 93.657 93.000 93.000 93.000 93.000 93.187 93.759 94.976 95.790 96.327 96.561 96.366 95.593 95.928 95.132 94.896 94.974 94.000 94.000 93.345 93.000 93.000 93.000 93.000 93.000 93.000 92.772 92.196 92.019 92.000 92.000 92.054 92.154 92.141 92.128 92.052 92.000 92.000 92.000 92.049 92.601 93.000 93.000 93.000 92.195 90.775 89.596 89.696 92.109 95.279 97.789 98.816 99.041 99.707 98.875 98.043 97.761 98.064 98.650 98.783 99.344 99.669 99.838 100.000 100.000 100.000 100.000 99.898 99.688 99.675 98.402 97.802 97.401 96.934 96.617 96.127 95.406 95.000 95.000 95.000 95.000 95.000 95.000 95.000 95.000 95.000 95.000 95.000 95.000 94.929 94.123 93.584 92.889 92.070 91.316 91.032 90.287 89.481 89.000 89.000 89.000 88.452 88.248 88.236 88.187 88.007 88.000 88.000 88.000 87.810 87.004 87.000 87.072 87.476 88.000 88.000 88.000 87.398 86.599 85.780 84.960 84.139 83.330 83.000 83.000 83.000 83.000 83.000 83.000 83.000 83.000 83.000 83.000 82.919 82.835 82.848 82.990 83.000 83.000 83.000 82.868 82.270 82.843 83.000 83.000 83.000 83.000 83.000 82.785 82.335 81.507 80.193 79.361 78.412 78.000 78.000 77.931 77.125 77.358 77.750 78.293 79.000 79.000 79.000 79.000 79.000 79.000 79.000 79.000 79.000 79.000 78.899 78.369 78.076 78.000 78.000 78.055 78.279 78.853 79.154 79.242 79.012 78.193 77.374 77.069 77.000 77.000 77.008 77.119 77.707 78.000 78.000 78.000 78.000 78.000 78.000 78.011 78.132 78.919 79.002 79.016 79.029 79.036 79.003 79.000 79.000 79.000 79.153 79.861 79.971 80.000 80.000 80.201 81.000 81.000 80.871 80.872 81.000 81.000 81.000 81.000 81.000 81.183 81.709 81.959 82.000 82.000 82.000 82.000 82.000 82.423 82.585 82.572 82.559 82.546 82.534 82.781 83.000 83.077 83.464 83.877 83.688 83.443 83.775 85.237 86.012 86.543 86.758 86.654 86.333 85.514 85.120 85.000 85.000 84.964 84.380 84.263 84.251 84.447 85.080 85.886 86.138 86.592 87.000 86.890 86.084 85.375 84.594 84.109 84.222 84.950 85.000 85.000 85.000 85.000 85.000 85.000 84.996 84.595 84.000 84.000
 108.850 108.039 107.788 107.401 106.762 106.749 105.944 105.723 105.827 106.064 106.342 107.702 108.628 109.000 109.000 108.972 108.484 108.407 108.420 108.585 109.075 109.881 110.000 110.000 109.851 109.436 109.000 108.595 108.215 107.671 107.135 107.941 109.195 109.827 109.642 108.836 108.030 106.707 106.321 105.920 105.101 104.282 102.657 101.032 99.724 98.776 97.970 97.164 96.877 96.454 96.000 95.932 95.014 94.203 93.887 93.645 92.911 92.105 92.000 92.000 92.313 93.119 93.925 94.727 95.529 96.342 97.148 97.954 98.000 98.000 98.000 98.000 98.000 98.000 97.913 97.777 97.519 97.000 97.000 97.000 97.000 96.819 96.239 96.040 96.000 96.000 96.187 96.735 97.263 97.552 97.329 96.703 95.936 95.448 95.116 94.479 93.673 92.941 92.571 92.530 92.783 92.823 92.980 95.425 95.895 96.262 96.439 96.454 96.586 96.118 95.764 95.781 95.698 94.634 94.111 93.794 93.383 93.000 93.000 93.000 93.000 93.000 92.719 92.000 92.000 92.000 92.000 92.000 92.000 92.000 92.000 91.527 91.102 91.089 91.077 91.773 92.029 92.038 92.025 92.012 91.211 90.392 89.973 90.371 91.981 94.333 96.089 96.817 97.026 97.728 97.002 96.297 96.387 96.831 96.889 97.682 97.650 98.047 98.827 99.531 99.716 99.727 99.566 99.078 98.377 98.351 97.833 97.101 96.637 96.524 96.021 96.000 95.662 95.264 95.000 95.000 95.000 95.000 95.000 95.000 95.000 95.000 95.000 95.000 95.000 94.945 94.139 92.927 91.905 91.263 91.000 91.000 90.773 90.184 89.484 88.919 88.333 88.072 88.000 88.000 88.000 88.000 88.000 87.542 87.171 87.131 87.003 87.000 87.000 87.042 87.094 87.081 87.068 85.847 84.657 84.052 83.977 83.159 82.991 82.988 83.000 83.000 83.000 82.950 82.955 83.000 82.989 82.886 82.862 82.411 82.053 82.283 82.947 83.000 83.000 83.000 83.000 83.000 83.000 83.000 83.000 82.943 82.683 82.402 81.496 80.251 79.122 78.602 78.103 78.000 78.000 78.000 77.947 77.141 77.000 77.241 77.777 78.530 78.941 79.000 79.000 79.000 79.000 79.000 79.000 79.000 79.000 78.858 78.052 78.000 77.619 77.307 77.294 77.281 77.478 77.511 77.485 77.413 77.215 77.038 77.000 77.000 77.000 77.000 77.000 77.082 77.517 78.000 78.000 78.000 78.000 77.539 77.316 78.096 78.902 79.710 80.023 80.056 79.951 79.126 79.018 79.000 79.000 79.000 79.000 79.767 80.000 80.000 80.185 80.991 81.000 80.397 80.318 80.766 80.753 80.740 80.727 80.714 80.774 81.051 81.857 82.000 82.000 82.000 82.000 82.000 82.000 82.000 82.000 82.000 82.000 82.336 82.754 83.000 83.000 83.000 82.954 82.659 82.444 82.600 83.393 84.187 84.623 84.759 84.733 84.706 84.406 84.328 84.315 84.302 84.280 84.044 84.000 84.000 84.062 84.290 85.083 85.741 86.090 86.412 86.906 86.100 84.684 84.060 84.000 84.012 84.078 84.071 84.568 85.000 84.703 83.119 84.534 84.420 83.981 83.968 83.955
 107.630 107.005 106.672 106.274 105.724 105.507 105.106 105.000 105.276 105.950 107.000 107.806 108.612 109.000 109.000 109.000 109.000 109.000 109.000 109.109 109.478 109.927 109.684 109.516 109.361 108.911 108.105 107.624 107.451 107.301 107.050 107.381 108.421 109.431 109.872 109.492 108.699 107.146 105.910 104.936 104.117 103.298 101.690 100.065 98.842 98.183 97.986 97.181 96.494 96.102 96.000 95.957 95.151 94.917 94.478 93.733 92.927 92.121 92.000 92.000 92.297 93.002 93.009 93.714 95.041 96.326 97.127 97.887 97.983 98.000 98.000 98.000 98.000 98.000 97.420 96.675 96.330 96.998 97.000 97.000 97.000 97.000 96.973 96.167 96.000 96.000 96.000 96.000 96.000 96.441 96.815 96.822 96.346 96.042 95.301 94.285 93.259 92.491 92.042 92.000 92.276 92.333 92.584 95.808 96.000 96.000 96.000 96.176 96.982 96.684 96.249 96.000 95.926 95.640 94.847 95.099 94.655 93.703 93.686 93.111 93.000 93.000 92.938 92.725 92.098 92.000 92.000 92.000 91.915 91.222 91.129 91.056 91.000 91.000 91.000 91.048 91.051 91.038 91.025 91.012 90.228 89.422 89.000 89.364 90.887 92.420 93.932 94.710 95.057 96.000 96.000 96.000 96.000 96.000 96.045 96.693 96.264 96.368 97.045 97.817 98.400 98.455 97.927 97.187 96.689 96.676 96.663 96.304 96.000 96.000 96.000 96.000 96.000 95.632 95.000 95.000 95.000 95.000 95.000 95.000 95.000 95.000 95.000 95.000 94.867 94.378 93.560 92.486 91.543 91.000 91.000 91.000 91.000 90.847 90.407 89.614 88.821 88.214 88.000 88.000 88.000 88.000 88.000 87.454 87.000 87.000 87.000 87.000 87.000 87.000 87.000 87.000 85.511 84.472 83.632 83.030 82.994 82.175 82.000 82.431 82.965 82.952 82.939 82.311 82.471 83.000 82.927 82.223 82.138 82.151 82.420 83.000 83.000 83.000 83.000 83.000 83.000 83.000 83.000 82.843 82.493 81.911 81.066 80.222 79.194 78.389 77.925 77.617 77.604 77.591 77.578 77.565 77.532 77.085 77.000 76.779 76.761 77.588 78.805 79.000 79.000 79.000 79.000 79.000 79.000 79.000 78.799 78.314 78.024 78.000 77.456 77.000 76.890 76.309 76.269 76.256 76.530 77.000 77.000 77.000 77.000 77.000 77.000 77.000 77.000 77.000 77.050 77.321 78.000 78.000 77.379 77.026 77.274 78.080 78.886 80.386 81.520 82.039 81.780 80.168 79.278 79.000 79.000 79.000 79.000 79.751 80.000 80.000 80.169 80.975 81.000 80.535 80.134 80.000 80.000 80.000 80.000 80.000 80.229 81.035 81.841 82.000 82.000 81.906 81.625 81.612 81.599 81.586 81.573 81.643 82.362 83.171 83.234 83.000 82.938 82.519 82.124 81.706 81.637 82.066 82.402 83.171 83.393 83.380 83.483 83.993 84.523 84.671 84.406 84.000 84.000 84.000 84.000 83.673 83.239 83.274 84.067 84.860 85.566 85.823 85.310 85.166 84.352 84.000 84.000 84.000 84.000 84.000 84.031 83.097 81.122 81.042 82.513 82.989 82.970 82.969 82.956
 105.630 105.460 104.945 104.552 104.449 104.023 104.560 104.880 105.000 105.302 106.658 107.721 108.596 109.000 109.000 109.000 109.000 109.000 109.180 109.566 110.000 110.000 109.345 109.000 109.132 109.437 108.644 107.484 107.000 106.834 106.426 106.413 107.543 108.721 109.374 109.229 108.410 106.847 105.968 105.089 103.724 102.338 100.722 99.528 98.906 98.622 98.002 97.197 96.391 96.000 96.000 95.973 95.167 95.000 94.555 93.975 93.855 93.062 92.311 92.000 92.010 92.108 92.894 93.698 95.001 96.282 96.963 96.996 97.679 97.920 97.907 97.894 97.881 97.868 97.373 97.059 97.171 97.184 97.042 97.000 97.000 97.000 96.989 96.183 96.000 96.000 96.000 96.000 96.000 96.000 96.297 96.731 96.929 96.123 95.317 94.023 92.706 92.000 92.000 92.000 92.000 92.000 92.520 95.744 96.000 96.000 96.000 96.068 96.400 96.401 96.164 96.000 96.000 96.000 95.730 95.873 95.459 94.702 94.690 93.897 93.269 93.000 93.000 92.945 92.139 92.000 92.000 92.000 91.916 91.110 91.000 91.000 91.000 91.000 91.000 91.000 91.000 91.000 90.860 90.062 90.000 89.438 88.990 88.968 88.999 89.734 90.467 91.649 93.506 95.884 95.976 96.000 96.000 96.000 96.000 96.000 96.000 96.000 96.201 96.754 96.741 96.728 96.367 96.000 96.000 96.000 96.000 96.000 96.000 95.952 95.637 95.599 95.586 95.371 95.000 95.000 95.000 95.000 95.000 95.000 95.000 95.000 95.000 95.000 94.659 93.395 92.576 92.143 91.559 91.000 91.000 91.000 91.000 91.000 90.917 90.571 89.193 88.306 87.625 87.237 87.224 87.211 87.198 87.087 87.000 87.000 87.000 87.000 87.000 87.000 86.845 86.103 85.232 84.411 83.605 82.805 82.017 82.001 82.000 82.009 82.034 82.047 82.060 82.073 82.501 83.000 83.000 83.000 83.000 83.000 83.000 83.000 83.000 83.000 83.000 83.000 82.970 82.764 82.340 81.618 80.526 79.234 78.402 78.079 78.000 78.000 77.815 77.009 76.685 76.838 77.172 77.341 77.000 77.000 77.000 76.775 76.621 77.075 78.264 78.819 78.742 78.437 78.424 78.411 78.398 78.079 77.822 78.070 78.599 78.185 77.472 76.769 76.254 76.015 76.000 76.000 76.088 76.361 76.981 77.000 77.000 77.000 77.000 77.000 77.000 77.000 77.000 77.023 77.089 77.076 77.022 77.000 77.010 77.151 78.742 81.027 82.950 83.405 81.812 80.200 79.248 78.921 78.937 79.000 79.000 79.640 79.934 80.000 80.127 80.785 80.805 80.792 80.569 80.191 80.003 80.000 80.000 80.000 80.149 80.708 81.501 81.664 81.651 81.483 81.000 81.000 81.000 81.000 81.116 81.595 83.220 84.155 83.745 82.852 82.443 82.042 81.619 81.217 81.147 81.510 81.967 82.304 82.730 83.224 83.905 85.246 85.582 85.278 84.609 84.000 84.000 84.000 84.000 83.579 83.000 83.032 83.838 84.644 84.719 84.305 84.110 83.410 83.763 84.000 84.000 84.000 84.000 82.041 81.177 81.095 81.000 81.000 81.011 81.000 81.339 81.969 81.956
 103.631 103.032 102.899 103.000 103.132 103.938 104.000 104.550 105.000 105.113 105.663 107.220 108.239 108.783 109.000 109.000 109.000 109.000 109.241 109.664 110.000 110.000 109.061 108.732 109.251 109.943 109.137 107.663 106.740 106.316 106.000 106.000 106.978 107.582 107.748 107.606 106.774 105.698 104.960 104.174 102.902 100.698 99.578 99.112 99.000 98.825 98.019 97.838 97.214 96.493 96.000 95.989 95.183 95.000 94.571 94.000 93.959 93.153 92.347 92.000 92.000 92.002 92.009 93.363 94.480 95.294 96.096 96.857 96.981 97.000 97.000 97.000 97.000 97.000 97.000 97.298 97.829 97.816 97.184 97.000 97.000 97.000 97.000 96.199 96.000 96.000 96.000 96.000 96.000 95.784 95.648 95.883 96.567 95.748 95.199 94.055 92.722 91.963 91.594 91.858 92.000 92.000 92.456 95.680 96.000 96.000 96.000 96.000 96.000 96.000 96.000 96.000 96.000 96.000 96.000 96.000 95.877 95.702 95.706 94.913 94.580 94.186 93.588 92.961 92.155 92.000 92.000 92.000 91.932 91.126 91.000 91.000 91.000 91.000 91.000 91.000 90.511 90.039 90.023 90.001 90.000 89.442 88.632 88.157 88.963 89.000 89.000 90.144 92.542 94.864 95.670 95.858 95.909 96.000 96.000 96.000 96.000 96.000 96.000 96.000 96.000 96.000 96.000 96.082 96.310 96.323 96.103 96.000 96.000 95.888 95.082 95.000 95.000 95.000 95.000 95.000 95.000 95.000 95.000 95.000 95.000 95.000 94.680 94.224 93.689 92.997 92.671 92.232 91.839 91.487 91.000 91.000 91.000 91.000 91.000 90.867 89.256 88.322 87.516 87.000 87.000 87.000 87.000 87.000 87.000 87.000 87.000 87.000 87.000 86.688 85.940 85.121 84.302 83.483 82.664 82.025 82.000 82.000 82.005 82.421 83.000 83.000 83.000 83.000 83.000 83.000 83.000 83.000 83.000 83.000 83.000 82.986 82.833 82.798 82.785 82.703 82.383 81.346 79.758 78.782 78.180 77.598 77.037 77.751 78.000 77.870 77.524 77.015 76.219 76.587 77.228 77.454 77.000 77.000 77.000 77.000 76.886 76.523 77.316 77.762 77.696 77.292 76.848 76.823 76.797 76.585 76.661 77.454 78.247 77.628 76.809 76.210 76.000 76.000 76.000 76.000 76.000 76.035 76.209 76.205 76.192 76.489 77.000 77.000 77.000 77.000 77.000 77.000 77.000 77.000 77.000 77.000 77.000 77.097 78.708 80.318 81.904 82.682 81.804 80.180 78.600 78.000 78.274 78.907 78.990 79.000 79.525 80.000 79.977 79.829 79.806 79.793 80.141 80.639 80.020 80.000 80.159 80.173 80.000 80.002 80.547 80.664 80.651 80.638 80.638 80.937 81.000 81.000 81.365 82.563 84.188 84.825 84.040 82.714 81.954 81.537 81.512 81.542 81.380 81.053 81.389 81.842 82.539 83.559 84.934 86.559 86.156 85.050 84.198 84.000 84.000 84.000 83.560 83.150 83.000 83.016 83.822 84.126 83.754 83.175 83.155 83.022 83.090 83.530 84.000 83.795 81.580 81.068 81.000 81.000 81.000 81.000 81.000 81.000 81.000 81.000 81.000
 101.980 102.000 102.398 102.777 102.880 103.673 103.929 104.387 104.712 104.743 104.985 106.267 107.224 108.016 108.634 108.621 108.608 108.595 108.582 108.774 109.556 109.543 108.285 107.739 108.243 108.942 108.110 106.975 106.245 106.000 106.000 106.000 106.273 106.388 106.375 106.262 105.443 104.624 103.454 102.072 100.775 100.055 99.799 99.742 99.488 98.963 98.789 98.794 98.230 97.437 96.676 96.004 95.199 95.000 94.587 94.000 93.975 93.169 92.363 92.000 92.000 92.000 92.000 92.666 93.937 95.243 95.922 95.940 96.629 96.960 97.000 97.000 97.000 97.000 97.000 97.000 97.000 97.000 97.000 97.000 97.000 97.000 97.000 96.215 96.000 96.000 96.000 96.000 96.000 95.590 95.202 95.148 95.598 95.095 95.000 94.087 92.625 91.519 91.069 91.680 92.000 91.856 91.884 95.095 95.467 95.454 95.441 95.428 95.415 95.844 96.000 96.000 96.000 96.000 96.000 96.000 96.000 96.000 96.000 95.782 96.188 96.096 95.150 93.739 92.307 92.000 92.000 92.000 91.948 91.142 91.000 91.000 91.000 91.000 91.000 90.351 90.026 90.000 90.000 90.000 89.277 88.477 88.017 88.141 88.947 89.000 89.000 90.063 92.222 93.725 94.526 94.884 95.334 95.832 95.821 95.964 96.000 95.907 95.768 95.755 95.742 95.905 96.129 96.480 96.980 96.719 96.214 95.831 95.743 95.904 95.098 94.717 94.587 94.710 95.000 95.000 94.657 94.522 94.509 94.418 93.987 93.941 93.342 92.510 91.968 92.413 92.879 92.397 91.747 91.288 91.000 91.000 90.575 90.315 90.302 90.225 89.184 88.338 87.532 87.000 87.000 87.000 87.000 87.000 87.000 87.000 87.000 87.000 87.000 86.369 84.956 84.137 83.319 82.500 82.028 82.000 82.000 82.000 82.582 82.971 82.940 82.954 82.989 82.956 82.915 82.902 82.889 82.876 82.775 82.633 82.513 82.410 81.565 81.532 81.469 81.031 80.115 78.670 77.432 77.000 77.000 77.000 77.000 77.735 78.000 77.653 77.000 77.000 76.537 76.746 77.000 77.000 77.000 77.000 77.000 77.000 76.787 76.009 76.393 76.463 76.450 76.195 75.452 75.914 76.000 76.000 76.101 76.388 76.654 76.438 76.162 76.000 76.000 76.000 76.000 76.000 75.750 75.231 75.218 75.801 76.000 76.065 76.306 76.977 77.000 77.000 77.000 77.000 77.000 77.000 77.000 77.000 77.000 77.033 77.849 78.644 79.875 80.921 80.763 79.198 78.305 78.000 78.000 78.082 78.793 78.962 79.437 79.845 79.731 79.060 79.000 79.000 79.269 79.803 79.989 80.000 80.569 80.732 80.243 80.004 79.744 79.665 79.652 79.715 80.010 80.504 80.600 80.767 81.378 82.654 84.253 84.536 83.595 82.372 81.962 81.573 82.580 82.816 82.255 81.567 81.580 81.885 82.206 82.836 84.008 85.594 85.430 84.594 84.000 84.000 84.000 83.440 83.111 83.000 83.000 83.000 83.173 83.201 83.110 83.000 83.000 83.000 83.000 83.056 82.660 81.278 81.034 81.000 81.000 81.000 81.000 81.000 81.000 81.000 80.995 80.970 80.957
 101.715 101.804 101.893 102.000 102.100 102.906 103.526 103.726 103.713 103.829 104.622 105.415 106.022 106.648 107.327 107.608 107.609 107.596 107.583 107.759 108.551 108.544 107.318 106.518 106.615 106.972 106.560 106.169 106.000 105.861 105.427 105.414 105.401 105.099 104.750 104.694 104.388 103.640 102.320 100.907 100.000 100.000 100.000 100.000 99.917 99.768 99.781 99.194 98.439 97.633 96.827 96.021 95.215 95.000 94.603 94.000 93.991 93.185 92.380 92.000 92.000 92.000 92.000 92.649 93.442 93.973 94.028 94.821 95.614 96.407 96.935 97.000 97.000 97.000 97.000 97.000 97.000 97.000 97.000 97.000 97.000 97.000 97.000 96.231 96.000 96.000 96.000 96.000 96.000 95.795 95.382 95.000 94.992 94.677 94.597 93.703 92.184 91.000 91.000 91.353 91.519 91.366 91.327 94.551 95.000 95.000 95.000 94.936 94.464 95.558 96.000 96.000 96.000 96.000 96.000 96.000 96.000 96.000 96.000 96.000 96.589 96.902 96.211 93.987 92.375 92.000 92.000 92.000 91.994 91.879 91.306 91.000 91.000 90.940 90.197 90.021 90.000 90.000 90.000 90.000 89.292 89.006 88.688 88.158 88.935 89.000 89.083 89.846 91.257 92.076 92.797 94.065 94.846 94.864 94.998 95.643 95.794 95.462 95.000 95.000 95.000 95.290 95.623 96.031 96.641 95.822 95.665 95.347 95.175 95.576 95.070 94.308 93.795 93.878 94.561 94.548 94.149 93.748 93.346 92.854 92.022 91.942 91.661 91.283 91.169 91.975 92.781 92.413 91.607 90.874 90.352 89.808 89.455 89.316 89.303 89.280 89.044 88.354 87.886 87.565 86.950 86.315 86.200 86.187 86.174 86.239 86.914 87.000 86.551 85.757 84.765 83.219 83.019 82.969 82.624 82.000 82.000 82.000 81.989 81.576 81.084 81.851 82.618 82.184 81.746 81.707 81.669 81.630 80.961 80.116 79.514 79.435 78.743 79.126 78.993 78.337 77.701 77.087 77.000 77.000 77.000 77.000 77.000 77.482 77.657 77.431 77.000 77.000 77.000 77.000 77.000 77.000 77.000 77.000 77.000 77.000 76.803 76.000 76.000 76.000 76.000 75.774 75.032 75.838 76.000 76.000 76.000 76.000 76.000 76.000 76.000 76.000 76.000 76.000 76.000 76.000 75.685 75.000 75.000 75.733 76.000 76.000 76.025 76.148 76.796 77.000 77.000 77.000 77.000 77.000 77.000 77.000 77.000 77.000 77.010 77.628 77.987 77.974 77.961 77.948 77.935 77.958 78.000 78.000 78.000 78.599 78.928 79.000 79.000 79.000 79.000 79.000 79.000 79.104 79.711 79.935 80.403 80.818 80.835 80.029 79.223 79.000 79.000 79.124 79.626 79.614 79.845 80.246 80.799 81.609 82.844 82.775 82.101 81.511 81.558 82.377 83.517 83.781 83.270 82.567 82.580 82.592 82.605 82.544 82.457 83.015 83.510 83.483 83.318 83.305 83.292 83.615 83.318 83.000 83.000 83.000 82.379 82.202 82.189 82.176 82.175 82.847 82.460 81.746 81.170 81.000 81.000 81.000 81.000 81.000 81.000 81.000 81.000 80.996 80.691 80.000 80.000
 101.000 101.000 101.373 101.840 102.064 102.669 102.739 102.726 102.713 102.813 103.606 104.399 104.661 104.985 105.726 106.213 106.218 106.192 106.319 106.669 107.103 107.088 106.158 105.518 105.605 106.000 106.000 105.669 105.453 105.338 104.978 104.506 104.012 103.321 102.751 102.725 102.699 101.993 101.004 100.220 100.000 100.000 100.000 100.000 100.000 100.000 100.000 99.261 98.894 98.181 96.713 95.224 95.033 95.000 94.619 94.000 94.000 93.202 92.396 92.000 91.792 91.047 91.830 92.000 92.440 93.000 93.052 93.858 94.664 95.470 96.250 96.895 96.882 96.960 97.000 97.000 97.000 97.000 97.000 97.000 97.000 97.000 97.000 96.443 96.120 96.000 96.000 96.000 96.000 95.411 94.862 94.636 94.619 94.115 93.502 92.497 91.440 90.984 90.617 90.835 91.000 91.000 91.196 93.581 94.296 94.455 94.442 94.442 94.568 95.589 96.000 96.000 96.000 96.000 96.000 96.000 96.000 96.000 96.000 96.557 96.889 97.000 96.870 96.341 96.042 94.083 92.484 92.000 92.000 92.000 91.368 91.000 91.000 90.950 90.144 90.000 90.000 90.000 90.000 90.000 89.999 89.503 89.000 89.000 89.000 89.046 90.130 91.422 92.227 92.951 93.000 93.478 93.846 94.002 94.795 94.958 95.000 95.000 95.000 94.999 94.792 94.114 93.414 93.549 95.359 94.787 94.665 94.652 94.732 95.000 95.000 94.324 93.518 93.165 93.562 93.549 93.536 93.012 92.193 91.436 91.034 91.000 91.000 91.000 91.153 91.959 92.311 91.823 91.004 90.070 88.729 88.412 88.329 88.594 89.000 89.000 89.000 88.833 88.422 87.758 86.952 86.146 86.000 86.000 86.000 86.013 86.131 86.135 85.627 84.808 83.979 83.094 83.000 83.000 82.669 82.000 82.000 81.256 80.435 79.246 78.129 78.883 79.617 79.243 78.832 78.825 78.890 78.877 78.250 77.494 77.000 77.000 77.000 77.000 77.000 77.000 77.015 77.219 77.265 77.278 77.208 77.000 77.000 77.000 77.000 77.000 77.000 77.000 77.000 77.000 77.000 77.000 77.000 77.000 77.000 77.000 76.819 76.013 76.000 76.000 76.000 75.908 75.581 75.927 75.623 74.855 74.122 74.113 74.600 74.671 75.273 76.000 76.000 76.000 76.000 76.000 75.927 75.768 75.781 75.942 76.000 76.000 76.000 76.000 76.747 77.000 77.000 77.000 77.000 77.000 77.000 77.000 77.000 77.000 77.000 77.000 77.000 77.000 77.000 77.000 77.000 77.413 77.910 77.903 77.984 78.000 78.478 79.000 79.000 79.000 79.000 79.000 79.000 79.000 79.000 79.731 80.000 80.246 80.599 80.031 79.239 79.000 79.000 79.000 79.000 79.000 79.358 79.588 79.784 80.570 81.000 80.737 80.524 80.627 81.066 82.262 83.128 83.460 83.475 83.566 83.579 83.998 83.615 82.703 81.935 81.415 82.059 82.331 82.318 82.398 82.957 83.745 83.853 83.480 83.000 83.000 82.225 82.000 82.000 82.000 82.000 82.121 81.528 81.073 81.000 81.000 81.000 81.000 81.000 81.000 81.000 81.000 80.337 80.000 80.000 80.000 80.000
 101.029 101.000 101.000 101.204 101.766 101.753 101.740 101.727 101.714 101.798 102.591 103.384 103.836 104.208 104.636 104.623 104.610 104.597 104.788 105.141 105.115 105.089 104.758 104.519 104.692 105.485 105.480 104.863 104.230 103.882 103.834 103.002 102.549 101.949 101.223 100.726 100.700 100.450 100.172 100.000 100.000 100.000 100.000 100.000 100.000 99.915 99.285 99.057 99.000 98.605 97.550 95.951 95.212 94.514 94.074 93.847 93.112 92.295 92.027 92.000 91.800 91.000 91.010 91.618 92.424 93.000 93.036 93.842 94.648 95.418 95.932 96.000 96.000 96.589 96.857 96.844 96.831 96.818 96.943 97.000 97.000 97.000 97.000 97.000 96.457 96.000 96.000 96.000 95.751 95.283 94.622 93.933 93.627 93.301 92.233 91.177 90.572 90.548 90.095 90.337 90.520 90.627 91.074 92.267 93.482 94.000 94.000 94.079 94.885 95.279 95.694 96.000 96.000 96.000 96.000 96.000 96.000 96.000 96.000 96.206 96.672 97.000 97.000 97.000 97.000 96.540 96.195 95.491 92.839 92.162 91.384 90.628 90.106 90.089 90.013 90.000 90.000 90.000 90.000 90.000 90.000 89.513 89.000 89.000 89.000 89.705 90.984 92.228 92.911 92.992 92.906 92.784 92.747 92.987 93.780 94.719 95.000 95.000 94.958 94.759 93.949 93.130 92.717 92.917 93.692 93.679 93.455 93.457 93.795 94.272 94.557 94.205 93.343 92.575 92.562 92.549 92.536 92.028 91.357 91.000 91.000 91.000 91.000 91.000 91.059 91.396 91.407 90.504 89.402 88.509 87.393 87.343 87.721 88.124 88.304 88.291 88.278 88.265 88.146 87.774 86.968 86.162 86.000 86.000 86.000 86.000 86.000 85.418 84.643 84.079 83.909 83.103 83.000 83.000 82.685 82.000 82.000 80.539 78.919 77.655 77.000 77.000 77.000 77.000 77.000 77.180 77.986 78.000 77.402 77.000 77.000 77.000 77.000 77.000 77.000 77.000 77.046 77.852 78.000 78.000 77.730 77.023 77.279 77.329 77.173 77.000 77.000 77.000 77.000 77.000 77.000 77.000 77.000 77.000 77.000 77.000 76.835 76.029 76.000 76.000 76.000 76.000 76.000 75.527 74.421 73.451 73.140 73.649 73.943 74.000 74.896 76.000 76.000 76.000 76.000 76.000 76.214 76.767 76.780 76.793 76.806 76.819 76.832 76.845 76.962 77.000 77.000 77.000 77.000 77.000 77.000 77.000 77.000 77.000 77.000 77.000 77.000 77.000 77.000 77.000 77.000 77.000 77.000 77.039 77.752 77.872 78.256 78.733 78.846 78.978 78.868 78.795 78.847 79.000 79.000 79.715 80.000 80.000 79.961 79.711 78.934 78.666 78.653 78.640 78.627 78.913 79.000 79.000 79.111 79.562 79.912 80.000 80.000 80.114 80.527 81.320 82.113 82.701 83.113 83.467 83.921 84.274 83.732 82.719 81.968 81.681 81.896 82.000 81.788 81.423 82.216 83.009 83.659 83.913 83.647 83.037 82.241 82.000 81.700 81.177 81.164 81.151 81.056 81.000 81.000 81.000 81.000 81.000 81.000 80.776 80.036 80.023 80.003 80.000 80.000 80.000 80.000
 101.537 101.143 101.000 100.946 100.778 100.965 101.000 101.000 101.000 101.057 101.610 102.143 102.823 103.405 103.636 103.623 103.610 103.810 103.861 103.571 103.558 103.545 103.532 103.344 103.183 103.962 103.960 103.346 102.515 101.883 101.854 101.493 101.402 101.224 100.914 100.614 100.103 100.000 100.000 100.000 100.000 100.000 100.000 100.000 100.000 99.905 99.099 99.000 99.000 98.681 97.751 96.139 95.263 94.458 94.000 93.846 93.040 92.234 92.000 91.642 91.032 91.000 91.000 91.602 92.408 93.000 93.019 93.783 94.526 94.879 95.131 95.803 95.966 96.000 95.933 95.844 95.845 95.979 96.557 96.793 96.846 97.000 97.000 96.813 96.344 96.000 96.000 96.000 95.250 94.812 94.288 93.469 92.650 91.831 91.012 90.356 90.000 90.000 90.000 90.000 90.000 90.116 90.562 92.192 93.479 94.000 94.000 94.063 94.869 95.000 95.188 95.378 95.365 95.352 95.339 95.326 95.313 95.300 95.287 95.807 96.541 97.000 97.000 97.000 97.000 97.000 97.000 96.876 96.376 93.589 91.747 90.594 90.000 90.000 90.000 90.000 90.000 90.000 89.954 89.160 89.002 88.984 88.983 89.000 89.000 89.646 90.383 91.125 91.905 92.685 92.027 91.269 91.127 91.828 92.754 94.305 94.909 94.922 94.603 93.784 92.965 92.304 92.000 92.138 92.692 92.679 92.052 92.073 92.640 92.647 93.129 93.203 92.648 92.000 92.000 92.000 91.688 91.273 91.000 91.000 91.000 91.000 91.000 91.000 91.000 91.000 91.000 89.923 88.655 87.849 87.044 87.000 87.188 87.317 87.304 87.291 87.278 87.265 87.253 87.189 86.996 86.824 86.297 85.648 85.175 85.162 85.149 85.047 84.537 84.000 83.925 83.119 83.000 82.536 82.032 81.898 81.107 79.573 78.477 77.671 77.000 77.000 77.000 77.000 77.000 77.149 77.865 77.973 77.418 77.000 77.000 77.000 77.000 77.000 77.000 77.000 77.023 77.626 77.736 77.723 77.530 77.059 77.865 77.780 77.344 77.000 77.000 77.000 77.000 77.000 77.000 77.000 77.000 77.000 77.000 77.000 76.851 76.045 76.000 76.000 76.000 76.000 76.000 74.283 73.324 73.000 73.208 74.000 74.000 74.000 74.864 76.000 76.000 76.000 76.000 76.000 76.066 76.289 76.906 77.000 77.396 77.818 77.746 77.077 77.000 77.000 77.000 77.000 77.000 77.000 77.000 77.000 77.000 77.000 77.000 77.000 77.000 77.000 77.000 77.000 77.000 77.000 77.000 77.000 77.000 76.918 76.922 77.252 78.048 78.709 78.267 78.000 78.220 78.789 78.974 79.699 80.000 79.912 79.588 78.769 78.184 78.000 78.000 78.000 78.000 78.466 78.827 79.000 79.000 79.000 79.788 80.000 80.000 80.000 80.006 80.398 81.097 81.658 82.025 82.453 82.779 83.204 82.937 82.282 82.000 82.000 82.000 81.673 81.225 81.031 81.266 81.993 83.166 84.000 83.869 83.063 81.675 81.203 81.123 81.000 81.000 81.000 81.000 81.000 81.000 81.000 81.000 81.000 80.612 80.038 80.000 80.000 80.000 80.000 80.000 80.000 80.000
 103.370 102.080 101.239 100.771 100.027 100.634 100.740 100.851 101.000 100.981 100.729 100.675 101.145 101.837 102.273 102.247 102.771 103.306 103.398 102.947 102.589 102.546 102.533 102.339 102.078 102.474 102.083 101.668 101.283 101.000 101.000 100.535 100.403 100.390 100.377 100.357 100.061 99.582 99.325 99.312 99.333 99.897 100.000 99.654 99.247 99.216 99.025 99.000 99.000 98.450 96.952 95.327 94.423 94.062 94.000 93.862 93.056 92.250 92.000 91.638 91.000 91.000 91.000 91.586 92.392 93.000 93.000 93.000 93.000 93.389 93.910 93.963 95.562 95.871 95.471 95.000 95.052 95.712 95.806 95.893 96.224 96.767 96.754 96.219 96.000 96.000 96.000 96.000 95.266 94.460 93.654 92.848 92.042 91.236 90.659 90.259 90.000 90.000 89.640 89.534 89.715 90.104 90.540 92.135 93.098 93.456 93.443 93.477 94.270 94.797 95.000 95.000 95.000 95.000 95.000 95.000 95.000 95.000 95.000 95.719 96.525 97.000 97.000 97.000 97.000 97.000 97.000 96.725 95.364 92.844 91.471 90.610 90.000 90.000 90.000 90.000 90.000 89.784 88.967 87.354 87.006 87.429 88.209 88.930 88.945 88.980 89.000 89.260 89.990 90.783 90.171 89.861 89.896 90.221 91.688 93.274 94.334 94.439 93.620 92.801 92.177 91.847 91.718 91.705 91.692 91.680 91.268 91.264 91.641 91.628 91.615 91.602 91.589 91.576 91.563 91.550 91.184 91.000 91.000 91.000 91.000 91.000 91.000 91.000 91.000 91.000 90.576 89.666 88.671 87.865 87.060 87.000 87.000 87.000 87.000 87.000 87.000 87.000 87.000 87.000 87.000 87.000 86.388 85.582 85.000 85.000 85.000 85.000 84.553 84.000 83.941 83.135 83.000 82.523 81.730 80.944 80.126 79.301 78.493 77.687 77.000 77.000 77.000 77.000 77.000 77.000 77.000 77.668 77.375 77.000 77.000 77.000 77.000 77.000 77.000 77.000 77.000 77.000 77.000 77.000 77.000 77.030 77.582 77.232 77.000 77.000 77.000 77.000 77.000 77.000 77.000 77.000 77.000 77.000 77.000 77.000 76.867 76.061 76.000 76.000 76.000 76.000 76.000 73.677 73.000 73.000 73.072 73.362 73.872 73.595 74.436 76.000 76.000 76.000 76.000 76.000 76.000 76.013 76.191 76.738 77.093 76.952 76.324 76.173 76.143 76.569 77.000 77.000 77.000 77.000 77.000 77.000 77.000 77.000 77.000 77.000 77.000 77.000 77.000 77.000 77.000 77.000 77.000 77.000 77.000 76.456 76.510 77.236 78.000 78.000 78.000 78.094 78.217 78.301 79.120 79.939 80.137 79.705 78.899 78.093 77.772 77.840 78.000 78.000 78.000 77.714 77.933 78.470 79.000 79.000 79.772 80.000 80.000 80.000 80.000 80.000 80.608 81.000 81.098 81.435 81.422 82.047 81.953 81.384 81.371 81.358 81.345 81.175 81.000 81.000 81.000 81.196 81.906 82.740 83.127 82.309 81.332 81.000 81.000 81.000 81.000 81.000 80.516 80.126 80.114 80.101 80.088 80.075 80.037 80.000 80.000 80.000 80.000 80.000 80.000 80.000 80.000
 104.386 103.476 102.186 100.787 100.000 100.000 100.000 100.318 100.715 100.653 99.834 99.676 100.130 100.650 100.637 100.624 101.723 102.196 102.170 102.036 101.204 101.092 101.066 101.199 101.507 101.494 100.731 100.468 100.455 100.442 100.429 99.637 99.054 99.019 99.377 99.364 99.351 98.723 98.609 99.000 99.010 99.240 99.273 99.143 99.000 99.000 99.000 99.000 99.000 98.427 96.815 95.203 94.296 94.000 93.721 93.092 93.007 92.266 91.496 90.707 90.040 90.027 90.767 91.570 92.371 92.980 93.000 93.000 93.000 93.000 93.000 93.033 94.551 94.952 95.000 95.000 95.000 95.000 95.000 95.465 96.000 96.000 96.000 96.000 96.000 96.000 96.000 96.000 95.282 94.476 93.785 93.226 92.433 91.640 91.179 90.640 89.929 89.573 89.122 89.000 89.390 90.196 91.001 91.807 92.288 92.457 92.569 93.031 93.837 94.260 94.665 95.000 94.961 94.439 94.340 94.649 95.000 95.000 95.000 95.193 95.771 96.485 97.000 97.000 97.000 97.000 97.000 96.576 94.284 91.860 91.057 90.626 90.000 90.000 89.272 88.511 88.492 88.833 87.983 85.566 85.007 85.428 86.234 87.010 87.803 88.596 88.926 88.913 88.967 89.668 89.148 88.861 89.147 89.923 90.571 92.052 93.115 93.310 92.667 92.045 92.000 91.448 91.101 91.294 91.307 91.072 91.000 91.000 91.000 91.000 91.000 91.000 91.000 91.000 91.000 91.000 91.000 91.000 91.000 91.000 91.000 91.000 90.743 90.447 90.434 90.421 90.122 89.187 88.070 87.326 87.027 87.000 87.000 87.000 87.000 87.000 87.000 87.000 87.000 86.865 86.240 86.215 85.606 85.113 85.000 85.000 85.000 85.000 84.569 84.000 83.957 83.151 83.000 82.539 81.733 80.927 80.121 79.315 78.507 77.703 77.000 77.000 77.000 77.000 77.027 77.095 77.108 77.031 77.000 77.000 77.000 77.000 77.000 77.000 77.000 77.000 77.000 77.000 77.000 77.000 77.000 77.000 77.000 77.000 77.000 77.000 77.000 77.000 77.000 77.000 77.000 77.000 77.000 77.000 77.000 77.000 76.883 76.077 76.000 76.000 76.000 75.918 75.455 73.584 73.000 73.000 73.000 73.000 73.276 73.137 74.199 76.000 76.000 76.000 75.546 75.578 76.000 76.032 76.660 76.928 77.000 76.952 76.771 76.104 76.000 76.064 76.378 77.000 77.000 77.000 77.000 77.000 77.000 77.000 77.000 77.000 77.000 77.000 77.000 77.000 77.000 77.000 77.000 77.000 77.000 77.000 77.000 77.186 77.835 77.822 77.931 78.443 79.108 79.502 80.138 80.582 80.259 79.440 78.621 77.802 77.206 77.336 77.654 77.642 77.629 77.168 77.211 77.948 79.000 79.000 79.417 79.798 80.000 80.000 80.000 80.000 80.281 80.676 81.000 81.000 81.000 81.255 81.227 81.000 81.000 81.000 81.000 81.000 81.000 81.000 81.000 81.000 81.131 81.330 81.461 81.252 81.063 81.000 81.000 80.894 80.220 80.153 80.063 80.000 80.000 80.000 80.000 80.000 80.000 80.000 80.000 80.000 80.000 80.000 80.000 80.000 80.000
 105.221 103.830 102.218 100.803 100.000 100.000 99.841 99.728 99.715 99.679 99.111 99.000 99.299 99.650 99.615 99.298 99.635 99.988 100.171 100.053 99.221 99.412 99.534 99.685 100.015 99.989 99.610 99.469 99.456 99.358 98.884 98.515 98.174 98.147 98.378 98.365 98.352 98.136 98.132 98.313 98.312 98.874 99.000 99.000 99.000 99.000 99.000 99.000 99.000 98.459 96.784 94.492 93.456 93.131 93.083 93.000 93.000 92.282 90.987 90.036 90.000 90.000 90.748 91.554 91.993 92.166 92.971 93.000 93.000 93.000 93.000 93.001 93.807 94.613 94.941 94.846 94.833 94.820 94.931 95.356 95.837 96.000 96.000 96.000 96.000 96.000 96.000 96.000 95.298 94.662 94.239 93.880 93.074 92.268 91.678 90.927 89.850 89.044 89.000 89.000 89.195 89.776 90.978 91.382 91.470 91.676 92.093 92.446 93.239 93.778 94.170 94.231 93.745 93.956 94.000 94.152 94.315 94.354 94.915 94.503 94.755 95.548 96.237 96.224 96.211 96.617 96.733 95.659 92.549 91.328 91.000 90.957 90.746 90.027 88.512 87.487 87.077 86.892 86.060 83.618 83.617 84.831 85.983 86.029 86.835 87.641 88.000 88.000 88.000 88.000 88.000 88.000 88.240 88.836 88.823 90.077 91.100 91.635 91.798 91.982 92.000 91.464 91.342 92.000 92.000 91.240 91.000 91.000 91.000 91.000 91.000 90.764 90.590 90.665 91.000 91.000 91.000 91.000 91.000 91.000 91.000 90.655 90.248 89.853 89.435 89.422 89.409 88.711 87.703 87.000 87.000 87.000 87.000 87.000 87.000 87.000 87.000 86.597 86.254 86.079 85.260 85.215 85.085 85.000 84.842 84.166 84.151 84.138 84.073 84.000 83.973 83.167 82.408 81.615 81.035 80.888 79.293 78.340 77.998 77.707 77.000 77.000 77.000 77.035 77.392 78.084 78.008 77.272 77.000 77.000 77.000 77.000 77.000 77.000 77.000 77.000 77.000 77.000 77.000 77.000 77.000 77.000 77.000 77.000 77.000 77.000 77.000 77.000 77.000 77.000 77.000 77.000 77.000 77.000 77.000 76.858 76.454 76.046 76.000 76.000 75.823 75.456 75.563 73.666 73.000 73.000 73.000 73.000 73.000 73.000 73.892 75.442 75.997 76.000 75.392 75.108 75.413 76.025 76.831 77.000 77.000 76.796 76.161 76.022 76.000 76.000 76.033 76.181 76.901 77.000 77.000 77.000 77.000 77.000 77.000 77.000 77.000 77.000 77.000 77.000 77.000 77.000 77.000 77.000 77.000 77.000 77.000 77.000 77.000 77.000 77.503 78.311 79.467 81.000 81.000 80.183 79.152 78.249 77.658 77.087 77.000 77.000 77.000 77.000 77.000 77.000 77.517 78.190 78.632 78.971 79.000 79.294 79.526 79.590 79.982 80.000 80.000 80.382 81.000 81.000 81.000 81.000 81.000 81.000 81.000 81.000 81.000 81.000 81.000 81.000 81.000 81.000 81.000 81.000 81.000 81.000 80.456 80.205 80.192 80.159 80.014 80.000 80.000 80.000 80.000 80.000 80.000 80.000 80.000 80.000 80.000 80.000 80.000 80.000 80.000 80.000 80.000
 105.237 103.862 102.250 100.859 100.242 100.051 99.401 98.890 98.716 98.708 98.945 99.000 99.000 98.916 98.592 97.773 97.612 97.877 98.284 98.529 98.066 98.376 98.534 98.521 98.508 98.495 98.482 98.469 98.456 98.383 98.025 98.000 98.000 98.000 98.000 98.000 98.000 98.000 97.738 97.313 97.301 98.094 98.274 98.571 99.000 99.000 99.000 99.000 99.000 98.284 96.040 94.289 93.903 93.453 93.000 92.920 92.187 91.378 90.525 90.000 90.000 90.000 90.011 90.539 91.343 92.146 92.920 92.988 92.964 92.924 92.927 92.998 93.700 94.469 94.513 94.000 94.000 94.000 94.627 95.000 95.186 95.779 95.963 96.000 96.000 96.000 96.000 96.000 95.535 95.170 94.702 93.896 93.090 92.561 92.191 91.345 89.866 89.060 89.000 89.000 89.000 89.166 89.962 90.367 90.470 90.845 91.445 91.432 92.224 93.017 93.393 93.295 93.011 93.295 93.341 93.328 93.488 94.059 94.864 94.330 94.125 94.321 94.542 95.142 95.211 96.110 96.180 93.971 91.400 91.040 91.000 91.000 90.852 90.046 89.178 88.366 87.593 86.653 85.063 83.425 83.595 84.396 85.216 86.082 86.914 87.670 87.968 87.934 88.000 88.000 88.000 88.000 88.000 87.988 87.845 88.495 89.188 89.865 90.645 91.425 91.673 91.352 91.235 91.745 91.981 91.256 91.000 91.000 91.000 91.000 91.000 90.421 90.000 90.110 90.563 90.552 90.539 90.526 90.728 91.500 91.513 90.887 90.299 89.749 88.968 88.502 88.409 87.922 87.276 87.000 87.000 87.000 87.000 87.000 87.000 87.000 87.000 86.466 86.000 85.854 85.048 84.406 84.203 84.190 84.146 84.003 84.000 84.000 84.000 84.000 83.989 83.183 82.377 81.571 80.776 79.992 79.156 78.347 77.541 77.000 77.000 77.000 77.000 77.455 78.213 78.815 78.084 77.288 77.000 77.000 77.000 77.000 77.000 77.000 77.000 77.000 77.000 77.000 77.000 77.000 77.000 77.000 77.000 77.000 77.000 77.000 77.000 77.000 77.000 76.821 76.687 77.000 77.000 77.000 77.000 76.721 76.000 76.000 76.000 76.000 75.860 75.609 75.966 73.821 73.000 73.000 73.000 73.000 73.000 73.000 73.736 75.054 75.293 75.286 75.112 75.000 75.203 76.009 76.815 77.000 77.000 76.767 76.000 76.000 76.000 76.000 76.000 76.007 76.081 76.080 76.521 77.000 77.000 77.000 77.000 77.000 77.000 77.000 77.000 77.000 77.000 77.000 77.014 77.096 77.026 77.000 77.000 77.000 77.000 77.000 77.000 77.739 79.172 80.542 80.517 79.382 77.968 77.000 77.000 77.000 77.000 77.000 77.000 77.000 77.000 77.000 77.302 77.716 78.112 78.918 79.000 79.000 79.000 79.073 79.475 79.874 80.000 80.366 81.000 81.000 81.000 81.000 81.000 81.000 81.000 81.000 81.000 81.000 81.000 81.000 81.000 81.000 81.000 81.000 80.949 80.328 80.070 80.000 80.000 80.000 80.000 80.000 80.000 80.000 80.000 80.000 80.000 80.000 80.000 80.000 80.000 80.000 80.000 80.000 79.986 79.974 79.992
 105.433 103.980 102.282 101.000 101.000 100.223 99.417 98.611 97.945 97.704 98.497 98.875 99.000 98.776 97.970 97.164 97.000 97.000 97.149 97.548 97.180 97.399 97.757 97.864 97.553 97.947 97.637 97.469 97.457 97.510 97.957 98.000 98.000 98.000 98.000 98.000 98.000 98.000 97.627 96.877 96.311 97.078 97.707 98.105 98.249 98.236 98.223 98.210 98.197 97.664 95.912 94.300 94.000 93.939 93.645 92.926 92.120 91.314 90.050 89.054 89.141 89.912 90.000 90.521 91.327 92.000 92.000 92.708 92.421 92.000 92.163 92.969 93.000 93.581 93.946 93.847 93.834 93.965 94.493 94.795 94.830 95.028 95.834 96.000 96.000 96.000 96.000 96.000 96.000 95.524 94.816 94.273 93.480 93.116 92.494 91.505 90.258 89.110 89.000 89.000 88.837 88.510 88.497 89.243 89.471 89.829 90.445 90.432 91.208 91.648 92.030 92.508 93.000 93.000 93.000 93.000 93.237 94.042 94.848 95.292 94.795 94.000 94.017 94.197 94.212 94.394 94.152 92.952 91.199 91.000 91.000 91.000 90.868 90.062 88.574 87.520 87.036 86.677 85.065 83.454 83.003 83.765 85.569 87.957 88.756 88.331 87.512 87.135 87.901 87.888 87.955 88.000 88.000 87.953 87.290 87.605 87.798 88.005 88.630 89.410 90.013 90.334 90.614 91.082 91.640 91.185 91.000 91.000 91.000 91.000 91.000 90.437 89.849 89.578 89.565 89.552 89.539 89.715 90.310 91.511 92.325 91.575 90.571 89.765 88.959 88.153 87.615 87.215 87.000 87.000 87.000 87.000 87.000 87.000 87.000 87.000 87.000 86.482 86.000 85.870 85.064 84.258 84.000 84.000 84.000 84.000 84.000 84.000 84.000 83.832 83.104 83.017 82.393 81.587 80.781 79.975 79.169 78.363 77.557 77.000 77.000 77.000 77.000 77.000 77.256 77.906 77.893 77.267 77.000 77.000 77.000 77.000 77.000 77.000 77.000 77.000 77.000 77.000 77.000 77.000 77.000 77.000 77.000 77.000 77.000 76.928 76.638 76.930 76.757 76.342 76.136 76.571 76.558 76.841 77.000 76.737 76.000 76.000 76.000 76.000 76.000 75.945 75.483 74.530 74.194 74.220 74.246 74.271 74.297 74.323 74.578 75.000 75.000 75.000 75.000 75.000 75.187 75.993 76.178 76.210 76.197 76.144 76.000 76.000 76.000 76.000 76.000 76.000 76.000 76.000 76.032 76.055 76.121 76.892 77.000 77.000 77.000 77.000 77.000 77.000 77.000 77.000 77.142 77.948 77.246 77.000 77.000 77.000 77.000 77.000 77.000 77.315 77.943 78.543 78.517 78.030 77.421 77.000 77.000 77.000 77.000 77.151 77.344 77.357 77.370 77.123 77.000 77.291 78.097 78.902 79.000 79.000 79.000 79.061 79.465 79.872 80.000 80.350 81.000 81.000 81.000 81.000 81.000 81.000 81.000 81.000 81.000 81.000 81.000 81.000 81.000 80.546 80.270 80.257 80.232 80.033 80.000 80.000 80.000 80.000 80.000 80.000 80.000 80.000 80.000 80.000 80.000 80.000 80.000 80.000 80.000 80.000 80.000 79.636 79.000 79.000 79.751
 106.400 104.582 102.449 101.000 101.000 100.239 99.433 98.628 97.822 97.016 97.546 98.082 98.329 98.168 97.625 96.806 96.855 96.827 96.587 96.530 95.711 96.500 97.462 97.860 97.492 97.497 96.798 96.209 96.075 96.490 96.823 97.252 97.095 96.784 96.758 96.732 97.188 97.340 96.970 96.263 96.009 96.775 97.160 97.547 97.856 97.238 97.223 97.210 97.197 96.740 95.139 94.192 94.000 94.000 93.526 92.049 91.230 90.411 89.560 89.000 89.088 89.893 90.688 90.999 91.311 92.000 92.000 92.000 92.000 92.000 92.147 92.953 93.000 93.493 93.541 93.000 93.000 93.648 93.808 93.877 94.162 94.782 95.575 95.743 95.846 96.000 96.000 96.000 96.000 95.540 94.908 94.594 94.077 93.316 92.510 91.583 90.415 89.144 88.678 88.536 88.353 88.000 88.000 88.360 88.471 88.813 89.445 89.432 90.192 90.407 90.778 91.571 92.364 92.873 93.000 93.000 93.220 94.026 94.832 95.177 94.703 94.000 93.957 93.332 93.212 93.199 92.907 92.144 91.874 91.258 91.000 90.728 89.993 89.174 88.295 87.467 86.680 85.753 84.129 82.504 82.005 83.097 85.305 86.862 87.647 87.264 86.514 86.205 87.000 87.000 87.545 87.922 88.000 87.993 87.851 87.282 87.000 87.000 87.054 87.665 87.746 88.091 88.947 90.152 90.361 90.364 90.338 90.423 90.689 90.976 91.000 90.453 89.647 89.000 89.000 89.000 89.000 89.202 89.703 90.496 91.269 90.530 89.733 89.230 88.425 88.072 87.363 87.000 87.000 87.000 87.000 87.000 87.000 87.000 87.000 87.000 86.500 86.134 85.771 85.129 84.310 84.059 84.000 84.000 84.000 84.000 84.000 84.000 83.679 83.094 83.002 82.283 81.483 81.037 80.797 79.982 78.389 78.004 77.573 77.000 77.000 77.000 77.000 77.000 77.000 77.000 77.000 77.000 77.000 77.000 76.985 76.846 76.947 77.000 77.000 77.000 77.000 77.000 77.000 76.904 76.758 76.989 77.000 77.000 76.871 76.527 76.004 76.498 76.241 76.000 76.000 76.000 76.000 76.635 76.794 76.391 76.000 76.000 75.655 75.468 75.455 75.406 75.048 75.000 75.000 75.000 75.000 75.000 75.000 75.000 75.000 75.000 75.000 75.000 75.000 75.000 75.043 75.231 75.832 76.000 76.000 76.000 76.000 76.000 76.000 76.000 76.000 76.000 76.000 76.000 76.000 76.000 76.003 76.026 76.684 77.000 77.000 77.000 77.000 77.000 77.000 77.023 77.201 77.939 77.345 77.057 77.000 77.000 77.000 77.000 77.000 77.000 77.000 77.000 77.000 77.000 77.000 77.000 77.000 77.000 77.000 77.439 78.084 78.339 78.053 77.337 77.000 77.163 77.660 78.453 78.553 78.769 79.000 79.110 79.916 80.000 80.277 80.692 81.000 81.000 81.000 81.000 80.781 80.490 80.985 81.000 81.000 81.000 80.865 80.309 80.296 80.108 80.000 80.000 80.000 80.000 80.000 80.000 80.000 80.000 80.000 80.000 80.000 80.000 80.000 80.000 80.000 80.000 80.000 80.000 80.000 79.283 79.013 79.000 79.000 79.000 79.000
 106.872 105.246 102.882 101.000 101.000 100.256 99.450 98.644 97.884 97.318 97.070 96.813 96.665 96.585 96.279 95.749 96.223 96.184 95.496 95.074 92.826 93.858 96.364 98.478 98.405 97.205 95.639 94.717 94.586 94.937 95.371 95.711 95.606 95.204 94.832 95.318 95.611 95.681 95.544 95.415 95.967 96.219 96.276 96.360 96.455 96.241 96.836 97.000 96.358 95.126 94.170 94.029 94.000 93.627 92.856 91.958 91.152 90.346 89.540 89.000 89.071 89.877 90.683 91.000 91.292 91.980 91.997 92.000 92.000 92.000 92.119 92.843 92.971 93.000 92.951 92.848 92.835 92.822 92.919 93.306 93.824 93.999 94.607 94.900 95.303 95.780 96.000 96.000 95.795 95.222 94.490 93.980 93.679 92.947 92.128 91.144 89.915 89.109 88.303 88.000 88.000 88.000 88.000 88.000 88.000 88.156 88.526 88.972 89.318 89.407 89.763 90.664 91.968 92.787 93.000 93.000 93.065 93.314 94.107 94.277 94.151 93.825 93.229 93.035 93.000 92.634 92.138 92.000 92.000 91.318 90.578 89.829 89.010 88.191 87.372 86.553 85.734 84.910 84.067 81.790 81.006 81.703 83.139 83.932 84.725 84.975 85.355 86.104 86.897 86.889 86.951 87.356 87.850 87.817 87.140 87.000 87.000 87.000 87.000 87.000 86.831 86.734 86.921 87.500 88.280 88.364 88.505 88.964 89.797 90.890 91.277 90.654 89.663 89.000 89.000 89.000 89.000 89.000 89.089 89.491 89.488 88.885 88.462 88.358 88.000 88.000 87.379 87.000 87.000 87.000 87.000 87.000 87.000 87.000 86.953 86.383 85.602 84.913 84.437 84.219 84.022 84.000 84.000 84.000 84.000 84.000 84.000 84.000 83.649 83.000 83.000 82.231 81.425 81.000 80.813 80.007 78.402 78.000 77.589 77.000 77.000 77.000 77.000 77.000 77.000 77.000 77.000 77.000 77.000 77.000 76.918 76.112 76.694 77.000 77.000 77.000 77.000 77.000 76.862 76.483 76.101 76.664 76.923 76.818 76.420 76.000 76.000 76.000 76.000 76.000 76.000 76.000 76.000 76.338 76.307 76.000 76.000 76.000 75.688 75.290 75.142 75.520 75.073 75.000 75.000 75.000 75.000 75.000 75.000 75.000 75.000 75.000 75.000 75.000 75.000 75.000 75.000 75.000 75.171 75.211 75.198 75.336 75.993 76.000 76.000 76.000 76.000 76.000 76.000 76.000 76.000 76.000 76.000 76.000 76.011 76.471 77.000 77.000 77.000 77.000 77.030 77.355 78.000 78.000 78.000 77.472 77.000 77.000 77.000 77.000 76.895 76.798 76.785 76.773 76.760 76.896 77.000 77.000 77.000 77.000 77.000 77.423 78.150 78.621 78.100 77.353 77.000 77.000 77.037 77.493 77.856 78.261 78.664 79.049 79.452 79.850 80.244 80.464 80.451 80.438 80.425 80.412 80.260 80.059 80.359 80.850 81.000 81.000 80.817 80.011 80.000 80.000 80.000 80.000 80.000 80.000 80.000 80.000 80.000 80.000 80.000 80.000 80.000 80.000 80.000 80.000 80.000 80.000 79.717 79.052 79.039 79.007 79.000 79.000 79.000 79.000 79.000
 106.123 104.391 102.442 101.192 101.018 100.272 99.329 98.482 98.000 98.000 97.476 96.757 96.334 96.171 95.378 95.373 95.521 95.361 94.794 93.942 89.912 90.308 94.078 98.046 97.937 96.299 94.682 94.000 94.000 94.032 94.379 94.816 94.710 94.277 94.038 94.333 94.354 94.341 94.328 94.446 95.239 95.289 95.276 95.263 95.370 95.974 97.371 96.877 95.430 93.995 93.176 93.159 93.665 93.586 92.974 92.890 92.827 91.614 90.075 89.000 89.002 89.026 90.340 91.000 91.000 91.085 91.891 92.000 92.000 92.000 92.000 92.000 92.645 92.874 92.569 92.000 92.000 92.000 92.455 92.871 93.137 93.755 93.948 94.441 94.838 95.147 95.705 95.693 95.058 94.239 93.573 93.256 92.725 91.963 91.144 90.325 89.536 89.070 88.319 88.000 88.000 88.000 88.000 88.000 88.000 88.000 88.058 88.405 88.850 89.000 89.353 90.219 91.320 92.126 92.343 92.330 92.445 92.996 93.233 93.278 93.265 93.197 92.982 92.358 92.213 91.758 91.187 91.174 91.161 91.050 90.121 89.089 88.842 87.307 86.388 85.104 84.098 83.932 83.113 81.555 81.000 81.330 82.123 82.916 83.709 84.502 84.955 85.158 85.883 85.976 86.590 87.000 87.000 87.000 87.000 87.000 87.000 87.000 87.000 87.000 86.350 86.000 86.000 86.048 86.608 86.683 86.995 87.605 88.517 90.402 91.598 90.969 89.679 88.946 88.595 88.553 88.540 88.528 88.515 88.502 88.489 88.202 88.000 88.000 88.000 88.000 87.751 87.355 87.000 87.000 87.000 87.000 87.000 87.000 86.948 86.142 84.859 84.143 84.000 84.000 84.000 84.000 84.000 84.000 84.000 84.000 84.000 83.545 83.084 82.875 82.149 81.335 81.033 81.000 80.829 80.023 78.434 78.000 77.607 77.000 77.000 77.000 76.967 76.962 77.000 77.000 77.000 77.000 77.000 76.963 76.787 76.106 76.554 76.899 77.000 77.000 77.000 76.825 76.360 76.000 76.000 76.000 76.507 76.308 76.000 76.000 76.000 76.000 76.000 76.000 76.000 76.000 76.000 76.000 76.000 76.000 76.000 76.000 76.000 75.794 75.656 75.950 75.144 75.000 75.000 75.000 75.000 75.000 75.000 75.000 75.000 75.000 75.000 75.000 75.000 75.000 75.000 75.000 75.000 75.000 75.000 75.169 75.975 76.000 76.000 76.000 76.000 76.000 76.000 76.000 76.000 76.000 76.000 76.000 76.000 76.452 76.994 77.000 77.000 77.000 77.482 78.021 78.077 78.010 78.000 77.488 77.000 77.000 77.000 76.871 76.372 76.000 76.000 76.000 76.000 76.571 77.000 77.000 77.000 77.000 77.000 77.273 77.657 77.638 77.327 76.847 76.606 76.692 77.000 77.000 77.366 77.755 78.144 78.553 78.942 79.338 79.736 80.000 80.000 80.000 80.000 80.000 80.000 80.000 80.000 80.750 81.000 81.000 80.832 80.027 80.000 80.000 80.000 80.000 80.000 80.000 80.000 80.000 80.000 80.000 80.000 80.000 80.000 80.000 80.000 80.000 80.000 79.557 79.047 79.000 79.000 79.000 79.000 79.000 79.000 79.000 79.000
 105.317 104.116 102.850 101.921 101.302 100.531 99.220 98.269 98.319 98.571 98.616 98.094 97.550 97.243 96.742 96.458 95.808 95.399 95.222 94.429 91.834 91.588 93.407 95.570 95.505 94.665 94.176 94.000 94.000 94.000 94.000 94.280 94.214 94.000 94.000 94.000 94.000 93.669 93.328 93.430 94.223 94.290 94.277 94.264 94.503 95.912 96.926 96.088 94.463 93.012 92.193 93.480 94.445 94.468 93.700 93.000 93.000 91.757 90.145 88.780 88.081 88.850 89.662 90.459 90.993 91.068 91.845 91.985 92.000 92.000 92.000 92.000 92.000 92.000 92.000 92.000 92.000 92.000 92.000 92.281 92.818 92.992 93.584 93.745 94.114 94.719 94.706 94.447 93.948 93.255 92.436 91.641 91.628 90.980 90.336 89.854 89.424 89.437 88.784 88.245 88.000 88.000 88.000 88.000 88.000 88.000 88.000 88.000 88.725 89.000 89.133 89.525 90.318 91.111 91.711 92.000 92.055 92.298 92.291 92.278 92.265 92.253 92.238 92.042 92.000 91.574 91.000 91.031 91.707 90.745 89.619 88.771 87.975 86.350 85.405 84.551 84.000 83.810 82.223 81.297 80.488 80.321 81.124 81.903 82.694 83.518 84.326 84.929 84.996 85.768 86.574 87.000 87.000 87.000 87.000 87.000 87.000 87.000 87.000 87.000 86.366 86.000 86.000 86.000 86.000 85.790 85.670 85.838 86.504 88.598 89.978 89.818 89.004 88.469 87.650 87.554 87.541 87.528 87.515 87.502 87.489 87.476 87.463 87.544 87.987 88.000 88.000 87.606 87.000 87.000 87.000 87.000 86.718 86.321 86.272 85.453 84.452 84.000 84.000 84.000 84.000 84.530 84.795 84.574 84.000 84.000 83.401 83.068 83.000 82.875 82.069 81.263 81.000 81.000 80.845 80.039 78.466 78.566 78.242 77.000 77.000 77.000 76.430 76.448 77.000 77.000 77.000 77.000 77.000 76.756 76.000 76.000 76.000 76.377 76.792 76.779 76.766 76.232 76.000 76.000 76.000 76.000 76.000 76.000 76.000 76.000 76.000 76.000 76.000 76.000 76.000 76.000 76.000 76.000 76.000 76.000 76.000 76.000 76.000 76.000 76.000 75.985 75.638 75.582 75.326 75.000 75.000 75.000 75.000 75.000 75.000 75.000 75.000 75.000 75.000 75.000 75.000 75.000 75.000 75.000 75.000 75.153 75.959 76.000 76.000 76.000 76.000 76.000 76.719 76.917 76.552 76.000 76.000 76.000 76.000 76.002 76.241 76.979 76.967 76.984 77.466 78.272 78.929 78.202 78.034 77.504 77.000 76.984 76.852 76.231 76.000 76.000 76.000 76.000 76.000 76.555 77.000 77.000 77.000 77.000 77.000 77.000 77.000 76.998 76.489 76.147 76.166 76.541 77.000 77.000 77.000 77.244 77.650 78.032 78.437 78.834 79.229 79.618 80.000 80.000 80.000 80.000 80.000 80.000 80.000 80.265 80.349 80.336 80.274 80.013 80.000 80.000 79.727 79.259 79.246 79.233 79.687 80.000 80.000 80.000 80.000 80.000 80.000 80.000 80.000 80.000 80.000 79.963 79.682 79.000 79.000 79.000 79.000 79.000 78.989 78.976 78.963
 105.452 104.628 103.443 102.000 102.000 101.473 100.508 99.723 99.645 100.238 100.307 99.789 99.108 98.643 98.378 97.898 97.426 97.049 96.649 95.869 95.089 94.634 94.279 94.000 94.000 94.000 93.680 93.472 93.459 93.467 93.912 94.000 94.000 94.000 94.000 94.000 94.000 93.514 93.000 93.031 93.274 93.290 93.277 93.264 93.411 94.394 95.190 94.763 93.214 91.471 91.976 94.186 94.938 94.288 92.934 92.115 91.372 90.510 89.247 88.044 88.001 88.025 88.653 89.446 90.245 90.980 90.995 91.633 91.940 91.947 92.000 92.000 91.922 91.875 91.862 91.849 91.836 91.951 92.000 92.000 92.111 92.731 92.941 93.000 93.366 94.000 94.000 93.457 93.320 93.068 92.489 91.714 91.441 90.765 90.397 90.410 90.423 90.436 90.092 89.259 88.351 87.967 87.563 87.486 87.473 87.460 87.501 87.945 88.299 88.408 88.589 89.048 89.345 90.095 90.531 90.896 91.318 91.305 91.836 92.000 91.721 91.253 91.240 91.844 92.000 91.590 90.825 90.197 90.990 90.421 89.181 87.878 87.008 85.383 84.421 84.038 83.741 82.884 81.259 80.327 80.004 80.305 81.002 81.029 81.735 83.027 83.953 84.141 84.946 85.670 86.436 86.865 86.877 86.996 87.000 87.000 87.000 87.000 87.000 87.000 86.382 86.000 86.000 86.000 86.000 85.352 85.000 85.000 85.084 86.101 86.657 86.818 86.779 86.685 86.191 86.109 86.318 86.528 86.516 86.503 86.490 86.477 86.651 87.155 87.961 88.000 87.663 87.248 87.000 87.000 87.000 87.000 86.592 85.855 85.303 85.051 84.368 84.000 84.000 84.000 84.000 84.662 85.000 84.726 83.935 83.262 83.047 83.000 82.736 82.006 81.187 81.025 81.000 81.000 80.861 80.055 79.231 78.445 77.637 77.000 77.000 77.000 76.969 76.934 76.937 77.000 77.000 77.000 76.945 76.661 76.000 76.000 76.000 76.000 76.000 76.000 76.000 76.000 76.000 76.000 76.000 76.000 76.000 76.000 76.000 76.000 76.000 76.000 76.000 76.000 76.000 76.000 76.000 76.000 76.000 76.000 76.000 76.000 76.000 76.000 76.000 76.000 76.000 76.000 75.823 75.608 75.621 75.633 75.646 75.352 75.000 75.000 75.000 75.000 75.000 75.000 75.000 75.000 75.000 75.000 75.265 75.728 75.210 75.160 75.621 76.000 76.000 76.000 76.779 77.000 76.609 76.000 76.000 76.000 76.000 76.000 76.000 76.000 76.000 76.615 77.392 78.185 78.916 78.903 78.216 77.456 76.961 76.773 76.086 76.000 76.000 76.000 76.000 76.000 76.000 76.539 77.000 77.000 77.000 77.000 77.000 77.000 77.000 77.000 77.000 76.629 76.639 77.000 77.000 77.000 77.000 77.000 77.240 78.000 78.000 78.323 78.720 79.126 79.452 79.439 79.821 80.000 80.000 80.000 80.000 80.000 80.000 80.000 80.000 80.000 79.475 79.285 79.174 79.122 79.732 79.767 79.908 80.000 80.000 80.000 80.000 80.000 80.000 80.000 80.000 80.000 80.000 80.000 79.745 79.000 79.000 79.000 79.000 78.716 78.000 78.000 78.000
 106.062 105.088 103.529 102.216 102.229 102.242 102.255 102.054 101.562 101.588 101.614 101.124 100.666 100.564 99.784 99.744 99.770 99.445 98.729 98.293 97.205 96.325 95.368 94.387 94.003 93.599 93.192 93.000 93.000 93.010 93.359 93.420 93.407 93.394 93.381 93.368 93.355 92.872 92.329 92.373 92.922 93.000 93.000 93.000 93.028 93.219 92.828 92.525 91.661 90.328 91.121 92.789 92.819 91.673 90.344 90.220 89.408 88.576 88.085 88.000 88.000 88.000 88.619 89.425 89.994 90.037 90.843 91.000 91.000 91.242 91.914 91.901 91.286 91.000 91.000 91.000 91.000 91.708 92.000 92.000 92.000 92.000 92.738 93.138 93.617 94.324 94.575 94.612 94.638 94.538 94.160 93.367 92.869 92.164 91.469 91.000 91.000 91.000 91.284 90.786 89.472 87.949 87.143 87.000 87.000 87.000 87.036 87.385 87.422 87.704 88.121 88.451 88.947 89.258 89.344 89.442 89.732 90.268 90.512 90.961 90.902 90.253 90.240 91.613 92.000 91.606 90.638 89.177 89.295 88.682 87.792 86.895 86.040 84.416 84.030 84.000 83.741 82.870 81.258 79.660 79.487 80.289 81.095 81.901 82.031 82.570 83.366 84.124 84.930 85.000 85.542 86.000 86.154 86.960 87.000 87.000 87.000 87.000 87.000 86.810 86.298 86.000 86.000 86.000 86.000 85.368 85.000 85.000 85.000 85.000 84.748 84.606 84.594 84.581 84.568 84.555 84.811 85.058 85.032 85.006 85.348 85.477 85.619 86.117 87.352 87.857 87.770 87.383 87.000 87.000 87.000 87.000 86.608 85.802 84.997 84.430 84.109 83.692 83.258 83.270 83.877 84.141 84.206 83.935 83.169 83.022 83.000 83.000 82.713 81.907 81.101 81.000 81.000 81.000 80.877 80.071 78.549 78.006 77.653 77.000 77.000 76.970 76.407 76.000 76.182 76.988 76.917 76.883 76.517 76.000 76.000 76.000 76.000 76.000 76.000 76.000 76.000 76.000 76.000 76.000 76.000 76.000 76.000 76.000 76.000 76.000 76.000 76.000 76.000 76.000 76.000 76.000 76.000 76.000 76.000 76.000 76.000 76.000 76.000 76.000 76.000 76.000 76.000 76.000 76.000 76.000 76.000 76.000 76.000 75.846 75.500 75.000 75.000 75.000 75.000 75.000 75.000 75.000 75.545 75.788 75.611 75.164 75.013 75.000 75.539 76.000 76.000 76.000 76.763 77.000 76.625 76.000 76.000 76.000 76.000 76.000 76.000 76.000 76.000 76.000 76.409 77.152 77.832 77.806 77.195 76.877 76.631 76.000 76.000 76.000 76.000 76.000 76.000 76.000 76.000 76.392 76.823 77.000 77.000 77.000 77.000 77.000 77.000 77.000 77.000 77.000 77.000 77.000 77.000 77.000 77.000 77.000 77.119 77.532 77.919 78.000 78.214 78.601 79.000 79.000 79.287 79.414 79.571 80.000 80.000 79.553 79.350 79.337 79.324 79.311 79.080 79.000 79.250 79.779 79.989 80.000 80.000 80.000 80.000 80.000 80.000 80.000 80.000 80.000 80.000 80.000 80.000 80.000 79.761 79.000 79.000 78.362 78.015 78.002 78.000 78.000 78.000
 106.366 105.120 103.804 103.216 103.229 103.242 103.135 103.000 103.023 103.261 103.307 102.820 102.231 101.927 101.411 101.372 101.384 101.195 100.705 100.045 99.151 98.340 97.026 95.223 94.034 93.217 93.000 93.000 93.000 93.000 93.000 92.642 92.408 92.395 92.382 92.369 91.938 91.530 91.330 91.383 92.176 92.291 92.278 92.265 92.180 91.553 91.292 90.809 90.017 89.211 89.336 89.560 89.512 89.009 88.244 88.219 88.119 87.510 87.070 87.057 87.044 87.803 88.011 88.414 89.207 90.000 90.793 90.954 90.941 90.928 90.919 90.986 91.000 91.000 91.000 91.000 91.000 91.692 92.000 92.000 92.000 92.000 92.722 93.662 94.601 95.380 95.962 96.000 96.000 95.636 94.889 94.373 94.370 93.571 92.214 91.000 91.002 91.353 92.065 92.038 90.787 88.435 87.239 87.000 86.762 86.461 86.484 86.927 86.609 86.892 87.396 87.478 88.271 88.357 88.680 89.000 89.040 89.284 89.293 89.822 90.174 90.000 90.000 90.940 91.215 90.824 89.971 89.012 88.334 87.549 86.730 85.911 85.090 84.192 83.423 82.667 82.105 81.949 80.324 79.346 79.467 80.274 81.097 81.916 82.704 83.497 84.000 84.108 84.914 85.000 85.526 86.000 86.138 86.944 87.000 87.000 87.000 86.964 86.781 86.168 86.000 85.897 85.723 85.710 85.697 85.263 85.000 85.000 85.000 85.000 84.355 84.000 84.000 83.974 83.625 83.555 83.542 83.529 83.516 83.504 83.836 84.222 84.465 84.630 85.775 86.586 87.143 87.262 87.000 87.000 87.000 87.000 86.624 85.818 85.012 84.206 83.570 83.161 83.000 83.004 83.191 83.219 83.206 83.147 83.000 83.000 83.000 83.000 82.729 81.923 81.117 81.000 81.000 81.000 80.792 79.209 78.288 77.482 77.000 77.000 77.000 76.251 76.000 76.000 76.153 76.884 76.199 76.000 76.000 76.000 76.000 76.000 76.000 76.000 76.000 76.000 76.000 76.000 76.000 76.000 76.000 76.000 76.000 76.000 76.000 76.000 76.000 76.000 76.000 76.000 76.000 76.000 76.000 76.000 76.000 76.000 76.000 76.000 76.000 76.000 76.000 76.000 76.000 76.000 76.000 76.000 76.000 76.000 75.595 75.342 75.250 75.000 75.000 75.000 75.000 75.000 75.000 75.000 75.155 75.601 75.701 75.000 75.000 75.000 75.078 75.420 76.000 76.000 76.072 76.084 76.046 76.000 76.000 76.000 76.000 76.000 76.000 76.000 76.000 76.000 76.000 76.000 76.000 76.000 76.000 76.000 76.000 76.000 76.000 76.000 76.000 76.000 76.000 76.000 76.000 76.127 76.495 77.000 77.000 77.000 77.000 77.000 77.000 77.000 77.000 77.000 77.000 77.000 77.000 77.000 77.000 77.000 77.098 77.490 77.909 78.000 78.000 78.238 79.000 79.000 79.000 79.000 79.108 79.389 79.376 79.114 79.000 79.000 79.000 79.000 79.000 79.372 79.816 80.000 80.000 80.000 80.000 80.000 80.000 80.000 80.000 80.000 80.000 80.000 80.000 80.000 79.446 78.697 78.119 78.054 78.042 78.010 78.000 78.000 78.000 78.000 77.976
 106.382 105.312 104.358 104.215 104.228 104.397 104.170 103.732 103.589 103.947 104.000 103.825 103.375 102.690 102.716 102.480 102.384 102.270 101.852 100.926 100.551 99.906 98.576 96.640 95.054 94.235 93.733 93.327 93.000 93.000 93.000 93.095 93.184 93.080 92.605 92.110 91.775 91.657 91.506 91.016 91.261 91.291 91.278 91.064 90.485 90.267 89.691 89.321 89.382 89.723 89.070 89.000 88.551 88.090 88.000 88.000 88.000 87.443 87.000 87.000 87.000 87.025 87.595 88.002 88.199 89.005 89.811 90.000 90.000 90.000 90.034 90.840 91.000 91.000 91.000 91.000 91.000 91.557 91.902 92.000 92.000 92.000 92.706 93.894 95.051 95.721 95.708 95.919 96.000 95.653 95.000 95.000 95.000 93.858 92.246 91.000 91.000 92.141 92.780 92.406 90.888 88.485 87.263 86.677 86.267 86.000 86.022 86.372 86.144 86.191 86.397 86.414 86.699 86.716 87.186 87.664 87.712 88.246 88.802 89.147 89.267 89.254 89.241 89.400 89.431 89.044 88.347 88.181 86.732 85.716 85.222 84.928 84.112 84.019 82.823 81.652 80.847 80.060 79.201 79.008 79.451 80.512 82.046 82.865 83.000 83.480 84.000 84.092 84.898 85.000 85.510 86.000 86.122 86.928 87.000 87.000 87.000 86.848 86.042 86.000 86.000 85.624 85.000 85.000 84.760 84.685 84.672 84.659 84.646 84.633 84.230 84.000 84.000 83.953 83.147 83.000 83.000 83.000 82.963 82.562 82.491 82.973 83.465 83.500 83.840 84.571 85.351 86.197 87.000 87.000 87.000 87.000 86.640 85.722 84.358 83.519 82.700 82.555 83.000 83.000 83.000 83.000 83.000 83.000 83.000 83.000 83.000 83.000 82.745 81.939 81.133 81.000 80.558 80.065 79.956 79.107 78.297 77.491 77.000 77.000 77.000 76.268 76.000 76.022 76.077 76.090 76.025 76.000 76.000 76.000 76.000 76.000 76.000 76.000 76.000 76.000 76.000 76.000 76.000 76.000 76.000 76.000 76.000 76.000 76.000 76.000 76.000 76.000 76.000 76.000 76.000 76.000 76.000 76.000 76.000 76.000 76.000 76.000 76.000 76.000 76.000 76.000 76.000 76.000 75.770 75.394 75.381 74.858 74.493 74.342 74.329 74.316 74.303 74.746 75.000 75.000 75.000 75.000 75.000 75.102 75.144 75.000 75.000 75.000 75.000 75.043 75.123 75.110 75.097 75.084 75.390 76.000 76.000 76.000 76.000 76.000 76.000 76.000 76.000 76.000 76.000 76.000 76.000 76.000 76.000 76.000 76.000 76.000 76.000 76.000 76.000 76.000 76.000 76.000 76.000 76.492 77.000 77.000 77.000 77.000 77.000 77.000 77.000 77.000 77.000 77.000 77.000 77.000 77.000 77.000 77.000 77.000 77.193 77.999 78.000 78.000 78.000 78.104 78.453 78.441 78.428 78.415 78.553 79.000 79.000 79.000 79.000 79.000 79.000 79.000 79.000 79.506 80.000 80.000 80.000 80.000 80.000 80.000 79.882 79.222 79.171 79.634 80.000 80.000 80.000 79.295 78.499 77.680 77.068 77.055 77.042 77.635 78.000 78.000 77.991 77.978 77.334
 106.504 106.189 105.988 105.219 105.416 105.961 106.365 106.290 105.510 104.730 104.409 104.637 104.817 104.345 104.358 103.936 103.576 103.214 102.774 102.458 101.715 100.922 99.950 98.606 96.625 95.750 95.243 94.690 93.988 93.567 94.007 94.743 95.183 95.130 94.848 94.081 93.930 93.969 93.627 92.341 91.807 91.708 91.721 91.476 90.747 90.760 90.620 90.572 90.885 91.531 90.751 89.494 88.489 88.000 88.000 88.000 87.336 87.039 87.000 87.000 87.000 87.000 87.571 88.000 88.183 88.989 89.795 90.000 90.000 90.000 90.017 90.744 90.959 91.000 91.000 91.000 91.000 91.000 91.378 91.854 91.983 91.799 92.450 93.368 94.221 94.751 94.975 95.500 95.849 95.669 95.000 95.000 95.000 93.890 92.278 91.068 91.410 92.654 93.000 92.578 91.449 89.453 87.881 86.583 86.000 86.000 86.000 86.000 86.000 86.000 86.000 85.962 85.454 85.358 85.511 85.665 85.731 86.511 87.291 87.928 88.268 88.255 88.242 88.229 88.216 87.857 87.067 86.389 85.440 84.582 84.138 84.103 84.001 83.286 81.888 81.044 80.591 79.031 78.212 78.637 79.435 80.241 81.093 82.705 83.000 83.438 83.950 84.076 84.882 85.000 85.494 86.000 86.106 86.912 87.000 87.000 86.935 86.682 86.045 86.000 85.862 85.472 84.954 84.720 83.921 83.685 83.672 83.660 83.647 83.929 84.000 84.000 84.000 83.969 83.163 83.000 83.000 82.880 82.486 82.067 82.000 82.229 82.466 82.453 82.440 83.129 83.922 84.841 85.850 86.329 86.829 86.650 85.764 84.347 82.709 82.369 82.123 82.102 82.259 82.246 82.840 83.000 83.000 83.000 83.000 83.000 83.000 83.000 82.761 81.955 81.149 80.403 80.042 79.749 78.977 78.159 78.008 77.507 77.000 77.011 77.002 76.284 76.000 76.328 77.000 77.000 76.330 76.116 76.129 76.141 76.154 76.037 76.000 76.000 76.000 76.000 76.000 76.000 76.000 76.000 76.000 76.000 76.000 76.000 76.000 76.000 76.000 75.749 75.613 75.487 75.175 75.149 75.124 75.098 74.927 74.569 74.531 74.859 74.969 74.762 74.456 74.866 74.866 74.511 74.070 73.788 73.763 72.947 72.711 72.685 72.799 73.326 73.875 74.626 75.312 75.735 75.715 75.114 75.000 75.363 75.799 75.753 75.100 75.574 75.851 75.864 75.877 75.889 75.902 75.915 75.952 76.000 76.000 76.000 76.000 76.000 76.000 76.000 76.000 76.000 76.000 76.000 76.000 76.000 76.000 76.000 76.000 76.000 76.000 76.111 76.103 76.000 76.000 76.000 76.000 76.357 76.737 76.724 76.711 76.909 77.000 77.000 77.000 77.000 77.000 77.000 77.000 77.000 77.000 77.000 77.000 77.000 77.177 77.983 78.000 78.000 78.000 78.000 78.000 78.000 78.000 78.252 78.693 79.000 79.000 79.000 79.000 79.000 79.000 79.000 79.000 79.140 79.488 80.000 80.000 80.000 80.000 80.000 79.869 79.063 78.384 78.707 79.145 78.993 78.268 77.440 77.133 77.050 77.000 77.000 77.000 77.018 77.017 77.004 77.000 77.000 77.000
 107.000 107.000 106.842 106.217 106.853 107.148 107.568 107.833 107.246 106.453 105.660 105.318 105.331 105.366 105.668 105.490 104.902 104.396 104.316 103.523 102.730 101.708 100.683 99.690 97.666 96.765 96.236 95.836 95.469 95.123 95.894 96.397 96.591 96.604 96.617 96.336 96.671 97.234 97.251 95.697 94.383 93.677 93.441 93.226 92.493 92.519 92.545 92.571 92.652 92.797 92.670 91.297 89.785 88.603 88.000 88.000 87.281 86.520 86.072 86.059 86.046 86.757 87.555 88.000 88.166 88.954 89.746 89.981 90.000 90.000 90.000 90.000 90.547 90.929 91.000 91.000 91.000 91.000 91.000 91.204 91.738 91.102 91.835 93.091 94.076 94.344 94.927 95.000 95.348 95.459 95.000 95.000 95.000 94.128 92.705 91.497 91.975 93.094 93.447 93.632 93.670 92.477 89.723 87.214 86.000 85.887 85.449 85.437 85.424 85.411 85.398 85.367 85.055 85.000 85.000 85.000 85.024 85.271 85.982 86.420 86.536 86.510 86.485 87.012 86.806 86.340 86.055 85.236 84.417 84.068 83.691 83.126 83.113 82.323 81.453 81.000 80.610 78.998 77.415 78.234 79.419 80.225 81.061 82.648 82.958 82.969 83.254 84.055 84.785 84.965 85.421 85.905 86.090 86.896 87.000 87.000 86.686 86.000 86.000 86.000 85.596 85.172 84.892 84.320 83.310 83.000 82.878 82.660 82.647 83.425 83.621 83.608 83.595 83.574 83.102 83.000 82.802 82.404 82.000 82.000 82.000 82.000 81.857 81.453 81.440 82.114 82.618 82.923 83.334 84.605 85.441 85.178 84.018 82.471 81.390 81.298 81.285 81.533 82.000 82.000 82.181 82.674 83.000 82.844 82.182 82.169 82.156 82.143 82.101 81.971 81.165 80.359 80.000 79.747 78.997 78.966 78.973 78.509 77.999 77.911 77.105 76.326 76.025 76.293 76.924 76.911 76.972 77.000 76.956 76.859 76.846 76.200 76.000 76.000 76.000 76.000 76.000 76.000 76.000 75.944 75.713 75.462 75.383 75.357 75.252 74.958 74.919 74.470 74.050 73.642 73.146 72.777 72.987 72.878 72.450 72.047 72.021 72.710 72.970 72.617 71.979 72.311 72.300 72.030 71.815 71.789 71.763 71.452 71.356 71.343 71.522 72.315 73.667 74.178 74.394 74.369 73.751 73.520 73.454 73.874 74.804 75.989 75.849 75.946 76.000 76.000 76.000 76.000 76.000 76.000 76.000 76.000 76.000 76.000 76.000 76.000 76.000 76.000 76.000 76.000 76.000 76.000 76.000 76.000 76.000 76.000 76.000 76.000 76.000 76.516 76.465 76.000 76.000 76.000 76.000 76.000 76.000 76.000 76.000 76.478 76.840 77.000 77.000 77.000 77.000 77.000 77.000 77.000 77.000 77.000 77.000 77.000 77.161 77.967 78.000 78.000 78.000 78.000 78.000 78.000 78.348 78.756 79.000 79.000 79.000 79.000 79.000 79.000 79.000 79.000 79.000 79.000 79.280 80.000 80.000 80.000 80.000 80.000 79.885 79.079 78.273 77.636 77.291 77.246 77.126 77.026 77.000 77.000 77.000 77.000 77.000 77.000 77.000 77.000 77.000 77.000 77.000
 107.000 107.000 107.000 107.000 107.180 107.696 108.000 108.000 107.988 107.417 106.676 106.318 106.410 106.718 107.262 106.954 106.123 105.289 104.923 104.117 103.311 102.232 101.022 99.787 98.175 97.282 96.744 96.526 96.539 96.551 97.313 97.577 97.803 98.207 98.233 97.769 98.226 99.045 99.277 97.677 95.518 94.386 94.000 93.940 93.770 94.395 94.544 94.570 94.596 94.573 93.934 92.491 90.485 88.469 87.124 87.111 86.395 86.042 86.000 86.000 86.000 86.733 87.539 88.000 88.000 88.000 88.738 89.524 89.942 89.942 89.999 90.000 90.000 90.355 90.865 90.854 90.971 91.000 91.000 91.000 91.000 91.000 92.315 93.580 94.463 94.979 94.744 94.696 94.839 95.000 95.000 95.000 95.000 94.477 93.472 92.353 92.025 93.170 93.554 93.735 93.968 93.530 91.169 88.181 86.321 85.806 85.000 85.000 85.000 85.000 85.000 85.000 85.000 85.000 85.000 85.000 85.000 85.000 85.198 85.282 85.476 86.000 86.000 85.621 85.324 85.204 85.072 84.253 83.434 82.697 82.231 81.996 81.266 81.124 80.520 80.074 79.704 78.079 77.217 77.610 78.811 80.206 81.015 81.820 82.000 82.409 83.170 83.923 83.986 84.586 84.936 85.233 85.928 86.721 86.946 87.000 86.702 86.000 86.000 86.169 86.249 86.020 85.476 85.035 83.509 82.827 82.433 82.000 82.000 82.492 82.622 82.609 82.674 83.000 82.654 82.557 82.317 82.000 82.000 82.000 82.000 82.000 81.748 81.000 81.000 81.287 81.415 81.402 81.458 82.049 82.790 82.545 81.595 80.611 80.335 80.810 81.000 81.093 81.369 81.965 82.000 82.125 82.208 82.161 82.003 82.000 82.000 82.000 82.000 81.987 81.181 80.943 80.524 79.984 79.947 79.960 79.973 79.525 78.732 77.917 77.119 77.000 76.510 76.000 76.000 76.000 76.642 76.885 76.588 76.000 76.000 75.876 75.821 75.808 75.795 75.782 75.591 75.512 75.487 75.218 74.156 73.310 73.075 73.036 72.850 72.306 72.280 72.254 71.784 71.203 71.144 70.655 70.939 70.839 70.537 70.524 70.511 71.197 71.485 71.326 71.000 71.000 71.000 71.000 70.799 70.395 70.382 70.369 70.356 70.343 70.389 70.630 71.638 72.296 72.270 71.744 71.498 70.860 70.682 71.411 73.062 75.222 75.874 76.000 76.000 76.000 76.000 76.000 76.000 76.000 76.000 76.000 76.000 76.000 76.000 76.000 75.996 75.999 76.000 76.000 76.000 76.000 76.000 76.000 76.000 76.000 76.000 76.000 76.000 76.000 76.000 76.000 76.000 76.000 76.000 76.000 76.000 76.000 76.000 76.000 76.473 77.000 77.000 77.000 77.000 77.000 77.000 77.000 77.000 77.000 77.000 77.000 77.145 77.951 78.000 78.000 78.000 78.000 78.000 78.000 78.592 79.000 79.000 79.000 79.000 79.000 79.000 79.000 79.000 79.000 79.000 79.000 79.264 80.000 80.000 80.000 80.000 80.000 79.821 78.357 77.461 77.077 77.000 77.000 77.000 77.000 77.000 77.000 77.000 77.000 77.000 77.000 76.624 76.192 76.987 76.996 77.000
 107.000 107.000 107.033 107.207 107.828 108.000 108.000 108.000 108.000 108.000 107.573 107.450 107.811 108.343 108.356 108.369 107.656 106.435 105.323 104.190 103.327 102.521 101.431 99.862 98.643 97.797 97.512 97.525 97.603 98.061 98.860 99.154 99.321 99.513 99.027 98.717 98.845 99.129 98.973 97.348 95.481 94.825 95.010 95.466 95.507 96.339 96.543 96.569 96.405 95.765 94.973 93.523 91.461 89.093 87.000 87.000 86.313 85.549 85.073 85.060 85.047 85.750 86.543 87.334 87.995 87.999 88.000 88.528 88.943 89.094 89.887 89.979 89.937 89.878 89.865 89.852 90.645 90.826 90.891 91.000 91.000 91.000 92.130 93.531 94.538 94.680 94.096 93.796 94.161 94.671 94.658 94.645 94.632 94.305 93.564 92.474 91.655 91.981 92.108 92.082 92.056 92.030 90.862 89.091 87.285 85.822 85.016 85.000 85.000 85.000 85.000 85.000 85.000 85.000 85.000 85.000 84.970 84.412 84.295 84.613 85.072 85.256 85.243 84.545 83.833 83.409 83.280 82.448 81.616 81.226 80.858 80.236 80.121 80.101 79.537 79.075 78.736 77.112 77.008 77.581 78.391 79.384 80.981 81.753 81.942 81.945 82.155 82.948 83.741 83.962 84.393 84.901 85.050 85.727 86.499 86.816 86.577 86.000 86.000 86.535 86.751 86.739 86.523 85.131 83.541 82.632 82.104 81.661 81.648 81.635 81.622 81.609 81.702 82.157 81.691 81.557 81.545 81.532 81.519 81.506 81.810 82.000 81.764 81.000 81.000 81.000 80.731 80.402 80.389 80.377 80.612 80.530 80.238 80.000 80.000 80.213 80.286 80.510 81.132 81.938 82.000 82.000 82.000 82.000 82.000 82.000 82.000 82.000 82.166 82.879 83.529 83.723 82.965 81.455 80.000 80.000 79.379 78.132 77.003 77.000 77.000 76.975 76.499 76.000 76.000 76.000 76.000 75.942 75.833 75.704 75.553 74.895 74.642 74.617 74.561 74.358 73.551 73.270 73.231 72.936 71.745 70.918 70.692 70.679 70.666 70.653 70.641 70.628 70.351 70.000 70.000 70.000 70.000 70.000 70.000 70.000 70.000 70.340 70.486 70.473 70.460 70.447 70.434 70.421 70.276 70.000 70.000 70.468 70.996 71.312 71.445 72.022 72.320 72.584 72.613 72.467 72.493 72.325 72.316 72.857 73.904 75.005 75.147 75.697 76.000 76.000 76.000 76.000 75.399 75.086 75.073 75.060 75.048 75.035 75.022 75.009 75.114 75.905 75.992 76.000 76.000 76.000 76.000 76.000 76.000 76.000 76.000 76.000 76.000 76.000 76.000 76.000 76.000 76.000 76.000 76.000 76.000 76.000 76.000 76.000 76.314 76.760 76.977 76.692 76.635 76.623 76.610 76.597 76.584 76.571 76.787 77.000 77.069 77.486 77.872 78.000 78.000 78.000 78.000 78.000 78.248 78.194 77.808 77.782 77.756 77.730 77.705 77.823 78.327 78.314 78.301 78.288 78.523 79.302 79.895 79.492 78.858 78.422 78.296 77.316 77.053 77.000 77.000 77.000 77.000 77.000 77.000 77.000 77.000 77.000 77.000 77.000 76.633 76.001 76.000 76.768 76.967
 106.920 107.000 107.120 107.752 107.946 108.000 108.094 108.265 108.278 108.291 108.304 108.720 109.399 109.686 109.712 109.275 108.567 107.617 106.319 104.720 103.493 102.538 101.587 100.398 99.605 99.155 99.023 99.206 99.661 100.061 100.440 100.577 100.590 100.549 100.254 99.788 99.288 99.000 98.782 97.721 96.680 96.413 96.547 96.732 96.745 97.564 97.300 97.000 96.955 96.781 95.988 94.554 92.508 90.104 87.772 86.352 86.033 85.523 85.000 85.000 85.000 85.024 85.528 86.321 87.118 87.908 87.969 87.956 87.943 88.078 88.871 89.664 89.326 88.924 89.000 89.000 89.663 89.930 90.327 90.842 91.000 91.000 91.476 92.180 92.973 93.723 93.710 93.240 93.315 93.759 93.975 93.688 93.632 93.619 93.130 91.939 91.473 91.433 91.446 91.309 90.938 90.545 90.128 89.450 88.118 86.287 85.049 85.000 85.000 85.000 85.000 85.000 84.496 84.360 84.347 84.334 84.312 84.051 84.000 84.126 84.270 84.257 84.244 84.076 83.525 82.553 81.296 80.465 80.216 80.153 80.097 79.898 79.182 79.101 78.553 78.075 77.907 77.050 76.269 76.588 77.748 79.174 79.967 79.994 80.570 80.946 81.139 81.932 82.725 83.518 83.932 84.236 85.000 85.000 85.654 86.000 86.000 86.000 86.000 86.000 85.879 85.585 85.104 84.492 83.401 83.000 82.455 81.294 81.022 81.000 81.000 81.000 81.000 81.000 81.000 80.744 80.545 80.532 80.519 80.903 81.300 81.480 81.364 81.000 81.000 80.635 80.231 80.000 80.000 80.000 80.000 79.692 79.338 79.325 79.312 79.788 80.000 80.310 81.116 81.922 82.000 82.000 82.000 82.000 82.000 82.628 83.317 84.027 84.628 84.761 85.576 85.814 84.675 82.332 79.990 79.217 79.011 78.987 78.527 77.000 77.000 76.348 75.977 75.938 75.920 75.835 75.798 75.229 74.363 73.621 72.789 72.669 72.643 72.618 72.488 71.833 71.028 70.757 70.744 70.731 70.718 70.161 70.000 70.000 70.000 70.000 70.000 70.000 70.000 70.000 70.000 70.000 70.000 70.000 70.000 70.000 70.000 70.000 70.243 70.527 70.540 70.552 70.959 71.156 71.182 71.208 71.234 71.986 72.817 73.533 74.053 74.347 74.389 74.414 74.705 75.199 75.237 75.276 75.315 75.127 74.839 75.000 75.000 75.102 75.151 75.138 75.125 75.112 75.035 75.000 75.000 75.000 75.000 75.000 75.000 75.000 75.000 75.000 75.711 76.000 76.000 75.991 75.924 75.976 76.000 76.000 76.000 76.000 76.000 76.000 76.000 76.000 76.000 76.000 76.000 76.000 76.000 76.000 76.000 76.000 76.000 76.247 76.947 76.141 75.758 75.801 75.892 75.597 75.584 75.869 76.280 76.546 76.533 76.520 76.875 77.525 78.000 78.000 78.000 77.580 77.430 77.051 76.404 76.391 76.866 77.000 77.000 77.202 78.000 78.000 78.000 78.000 78.064 78.273 78.461 78.320 77.769 77.211 77.185 77.023 77.000 77.000 77.000 77.000 77.000 77.000 77.000 77.000 77.000 77.000 77.000 76.472 76.012 76.000 75.993 75.995 76.000
 106.348 106.875 107.000 107.000 107.745 108.000 108.357 109.043 109.269 109.290 109.303 109.703 110.459 110.999 111.286 110.147 108.965 108.084 106.943 105.331 103.997 103.000 102.207 101.414 100.621 100.498 100.511 100.806 101.537 101.550 101.563 101.285 101.000 101.000 101.000 100.729 100.105 99.431 98.951 98.695 98.460 98.013 97.719 97.732 97.745 97.949 97.864 97.469 97.000 96.998 96.855 95.586 93.922 91.809 88.789 87.190 86.311 85.539 85.000 85.000 85.000 84.339 84.512 85.599 86.992 86.981 86.970 86.957 86.944 87.054 87.779 88.554 88.293 88.192 88.754 88.848 88.840 89.407 89.814 89.993 90.786 90.775 90.907 91.311 91.958 92.731 92.952 93.000 93.000 93.169 93.621 93.089 93.000 93.000 92.830 92.441 92.793 93.166 93.335 92.921 91.771 90.599 90.135 89.466 88.497 87.243 85.644 85.136 85.000 84.783 84.399 84.387 84.079 84.000 84.000 84.000 84.000 84.000 84.000 83.692 83.270 83.226 82.604 82.462 81.977 80.880 79.371 79.201 79.166 79.153 78.887 78.242 78.125 78.102 77.570 77.076 76.932 76.113 76.010 76.549 77.358 78.159 78.966 79.751 79.959 79.946 80.124 80.917 81.710 82.567 83.414 84.191 84.856 84.843 85.468 85.817 85.804 85.803 85.969 85.843 85.279 84.253 83.000 83.000 83.000 83.000 82.691 81.846 80.756 80.636 80.623 80.610 80.597 80.584 80.571 80.244 79.832 79.533 79.520 80.293 80.494 80.688 81.000 80.994 80.545 79.807 79.416 79.403 79.390 79.377 79.365 79.191 79.000 79.000 79.000 79.204 79.287 79.568 80.361 81.154 81.779 82.402 83.046 83.607 83.633 84.400 85.232 85.761 85.730 85.031 84.393 84.186 83.012 80.744 79.065 79.008 79.000 78.594 77.784 77.000 77.000 76.341 75.509 74.923 74.801 74.040 73.833 72.936 71.965 71.789 71.093 71.000 70.911 70.809 70.796 70.783 70.211 70.000 70.000 70.000 70.000 70.000 70.000 70.000 70.000 70.000 70.282 70.371 70.384 70.397 70.410 70.423 70.436 70.449 70.462 70.475 70.488 70.826 71.249 71.664 72.078 72.104 72.426 72.859 73.181 73.207 73.233 73.522 74.158 74.766 75.000 75.000 75.000 75.000 75.099 75.268 75.255 75.825 75.556 75.134 75.000 75.000 75.000 75.000 75.000 75.000 75.000 75.000 75.000 75.000 75.000 75.000 75.000 75.000 75.000 75.000 75.000 75.014 75.703 76.000 75.983 75.828 75.075 75.657 75.894 75.881 75.868 75.855 75.842 75.829 75.817 75.804 75.791 75.778 75.765 75.752 75.792 76.000 76.000 76.000 75.867 75.831 76.312 76.047 75.351 75.284 75.451 75.000 75.000 75.388 75.559 75.678 76.000 76.000 76.000 76.769 77.482 77.469 77.456 77.116 76.690 76.271 76.000 76.000 76.768 77.000 77.000 77.063 77.325 77.315 77.302 77.580 78.000 77.984 77.380 77.238 77.126 77.000 77.000 77.000 77.000 77.000 77.000 77.000 77.000 77.000 77.000 77.000 77.000 77.000 77.000 76.471 76.000 75.860 75.053 75.738 75.968
 105.418 106.125 106.824 106.984 107.729 108.000 108.341 109.147 109.953 110.220 110.303 110.570 111.058 111.336 111.584 110.662 109.600 108.668 107.382 105.783 104.809 103.824 102.872 102.430 101.637 101.498 101.511 101.650 102.000 102.000 102.000 101.792 101.415 101.000 101.000 101.000 100.481 99.887 99.579 99.043 99.000 98.451 98.000 98.000 98.000 98.000 98.000 97.615 97.000 97.000 97.000 96.291 95.019 93.169 90.672 88.371 86.687 85.556 85.000 85.000 85.000 84.332 84.010 84.292 85.082 85.875 85.970 85.979 86.000 86.000 86.000 86.659 86.892 86.879 87.012 87.805 87.841 88.391 88.883 89.141 89.774 89.952 90.453 90.850 91.205 92.011 92.817 93.000 93.000 93.000 93.000 93.000 93.000 93.000 93.104 93.476 94.295 95.114 95.227 94.546 93.223 91.233 90.288 89.746 89.198 88.205 86.163 85.258 84.685 84.267 84.000 84.000 84.000 84.000 84.000 83.874 83.325 83.863 84.000 83.290 82.110 81.508 81.286 81.721 81.211 79.707 78.193 78.180 78.167 78.154 78.102 77.926 77.212 77.102 77.044 77.000 76.885 76.079 75.301 75.557 76.350 77.289 78.887 78.973 78.960 78.966 79.163 79.903 80.694 82.017 83.162 83.765 83.856 83.843 84.452 84.817 84.805 84.831 85.624 85.267 84.543 83.737 83.000 83.000 83.000 83.000 82.707 81.802 80.190 80.000 80.000 80.000 80.000 80.000 79.683 79.559 79.353 79.000 79.000 79.391 79.786 80.184 80.468 80.455 79.642 79.169 79.000 79.000 79.000 79.000 79.000 79.000 79.000 79.000 79.000 79.000 79.000 79.278 80.084 80.890 81.695 83.281 85.130 86.409 86.448 86.010 85.479 84.857 84.122 83.290 83.133 82.585 81.735 80.815 79.967 79.206 79.000 78.603 77.797 76.990 76.959 75.710 74.505 73.659 72.923 72.839 72.215 71.887 71.612 70.861 70.848 70.835 70.423 70.000 70.000 70.000 70.000 70.125 70.255 70.268 70.281 70.294 70.306 70.319 70.332 70.345 70.852 71.000 71.146 71.397 71.410 71.423 71.435 71.448 71.461 71.485 71.891 72.317 72.513 72.643 73.000 73.000 73.375 73.776 74.000 74.000 74.000 74.000 74.179 74.345 74.407 74.944 75.000 75.000 75.000 75.000 75.000 75.183 75.101 75.000 75.000 75.000 75.000 75.000 75.000 75.000 75.000 75.000 75.000 75.000 75.000 75.000 75.000 75.000 75.000 75.000 75.067 75.859 75.972 75.959 75.671 75.000 75.000 75.000 75.000 75.000 75.000 75.000 75.000 75.000 75.000 75.000 75.000 75.000 75.000 75.000 75.137 75.721 75.714 75.701 75.406 75.000 75.014 75.538 75.234 75.000 75.000 75.000 75.000 75.000 75.000 75.150 75.534 75.521 75.508 75.994 76.482 76.528 76.955 76.598 76.203 76.000 76.000 76.000 76.285 76.720 77.000 77.000 77.000 77.000 77.000 77.114 77.277 77.262 77.047 77.000 77.000 77.000 77.000 77.000 77.000 77.000 77.000 77.000 77.000 77.000 77.000 77.000 77.000 77.000 77.000 76.487 75.687 75.006 75.000 75.000 75.000
 104.912 105.240 105.902 106.695 107.488 107.886 108.325 109.131 109.937 110.743 111.000 111.112 111.384 111.648 110.873 110.054 109.381 108.810 108.004 106.732 105.824 104.802 103.816 103.445 102.652 102.497 102.510 102.654 103.073 103.098 103.124 102.878 102.309 101.550 101.067 100.563 100.179 100.000 99.885 99.079 99.000 98.467 98.000 98.000 98.000 98.000 98.000 97.631 97.000 97.000 96.353 96.067 95.541 94.247 91.842 89.437 87.095 85.572 85.000 84.962 84.195 84.012 84.000 84.003 84.070 84.862 84.971 85.446 85.945 85.932 85.919 85.973 86.000 86.000 86.112 86.799 86.841 87.375 88.103 88.636 88.782 89.547 89.763 90.133 90.926 91.719 92.744 92.817 92.685 92.744 93.000 93.000 92.767 92.789 93.151 93.649 94.442 95.235 95.083 94.392 93.787 91.759 90.800 90.253 89.692 88.719 86.744 85.428 84.468 84.000 83.914 83.418 83.374 83.362 83.349 83.277 83.007 83.243 82.881 82.057 81.216 81.007 81.616 81.912 81.479 80.328 78.807 78.820 78.291 77.614 77.141 77.120 77.014 77.000 77.000 77.000 76.901 76.095 75.290 75.516 76.322 77.127 77.920 77.973 77.982 78.334 78.945 78.997 79.700 80.471 81.264 82.057 82.851 82.969 83.503 83.893 83.958 83.816 84.609 84.915 84.559 83.753 83.000 83.000 83.000 82.853 82.488 81.834 80.222 79.748 79.624 79.730 79.955 79.619 79.158 79.000 79.000 78.933 78.545 78.879 79.277 79.482 79.469 79.456 79.096 79.000 79.000 78.880 78.396 78.884 79.000 79.000 79.000 78.975 78.421 78.301 78.288 78.537 79.330 80.123 80.916 82.679 85.023 87.000 87.000 86.291 85.051 83.825 83.006 82.187 81.447 81.137 80.730 79.912 79.093 79.010 78.442 77.636 76.817 75.980 75.135 74.291 73.055 71.878 71.832 71.070 70.900 70.888 70.659 70.000 70.000 70.109 70.177 70.190 70.203 70.216 70.229 70.620 71.000 71.000 71.000 71.000 71.000 71.000 71.000 71.000 71.269 71.371 71.609 72.000 72.000 72.000 72.000 72.000 72.000 72.007 72.813 73.000 73.000 73.000 73.000 73.000 73.283 73.685 74.000 74.000 74.000 74.000 74.000 74.000 74.032 74.289 74.798 75.000 75.000 75.000 75.000 75.000 75.000 75.000 75.000 75.000 75.000 75.000 75.000 75.000 75.000 75.000 75.000 75.000 75.000 75.000 75.000 75.000 75.000 75.000 75.000 75.000 75.000 75.000 75.000 75.000 75.000 75.000 75.000 75.000 75.000 75.000 75.000 75.000 75.000 75.000 75.000 75.000 75.000 75.000 75.000 75.000 75.000 75.000 75.000 75.000 75.000 75.000 75.000 75.000 75.000 75.000 75.000 75.000 75.000 75.000 75.000 75.000 75.000 75.239 75.483 75.565 76.358 76.130 76.000 76.000 76.000 76.000 76.000 76.542 77.000 77.000 77.000 77.000 77.000 77.000 77.000 77.000 77.000 77.000 77.000 77.000 77.000 77.000 77.000 77.000 77.000 77.000 77.000 76.411 76.097 76.084 76.071 76.058 76.046 75.536 75.014 75.000 75.000 75.000 75.000
 104.473 105.000 105.068 105.703 106.629 107.503 108.232 108.852 109.645 110.438 110.859 111.338 111.856 111.050 110.244 109.438 108.860 108.433 107.614 107.124 106.408 105.602 104.889 104.461 103.668 103.497 103.728 104.157 104.536 104.549 104.562 104.380 103.912 103.132 102.352 101.145 100.328 100.000 99.901 99.095 98.508 98.143 98.000 98.000 98.000 98.000 98.000 97.647 97.000 97.000 96.229 95.519 94.446 93.038 92.007 89.599 87.726 86.124 85.000 84.976 84.170 84.000 84.000 84.000 84.000 84.000 84.000 84.452 84.960 85.000 85.000 85.630 85.893 85.917 86.000 86.000 86.000 86.440 86.816 86.946 87.739 88.532 88.764 89.118 89.911 90.704 92.055 92.163 92.000 92.136 92.660 92.647 92.241 92.265 92.699 93.038 93.844 94.370 94.100 93.663 93.896 92.673 91.478 90.514 89.708 88.804 87.192 85.580 84.780 84.398 83.872 83.066 83.000 83.000 83.000 82.895 82.348 81.779 81.423 81.176 81.000 81.000 81.799 82.000 81.589 80.738 79.788 79.140 78.365 77.932 77.646 77.000 77.000 77.000 77.000 77.000 76.840 75.269 74.344 74.526 75.319 76.112 76.905 76.993 77.530 78.000 78.133 78.874 78.909 79.456 80.249 81.042 81.835 82.750 83.000 83.324 83.643 83.006 83.634 84.242 84.187 83.569 83.000 83.000 82.807 82.375 81.915 81.552 80.210 79.321 79.000 79.291 79.903 79.097 79.303 79.214 79.000 78.873 78.068 78.375 78.495 78.664 79.000 79.000 79.000 78.673 78.418 78.329 78.003 78.302 78.749 78.735 78.340 78.320 78.054 78.000 78.000 78.068 78.276 78.464 79.137 80.491 82.458 84.724 86.001 84.905 83.320 81.987 81.156 80.324 79.492 78.710 77.910 77.066 76.221 75.408 74.561 74.062 73.842 72.997 72.170 71.363 70.577 70.000 70.000 70.070 70.099 70.112 70.125 70.138 70.151 70.812 71.177 71.189 71.189 71.028 71.000 71.000 71.000 71.000 71.000 71.000 71.000 71.000 71.000 71.000 71.474 71.831 72.000 72.000 72.000 72.000 72.000 72.000 72.000 72.000 72.409 72.501 72.488 72.588 73.000 73.000 73.000 73.186 73.411 73.428 73.912 74.000 74.000 74.000 74.000 74.000 74.692 75.000 75.000 75.000 75.000 75.000 75.000 75.000 75.000 75.000 75.000 75.000 75.000 75.000 75.000 75.000 75.000 75.000 75.000 75.000 75.000 75.000 75.000 75.000 75.000 75.000 75.000 75.000 75.000 75.000 75.000 75.000 75.000 75.000 75.000 75.000 75.000 75.000 75.000 75.000 75.000 75.000 75.000 75.000 75.000 75.000 75.000 75.000 75.000 75.000 75.000 75.000 75.000 75.000 75.000 75.000 75.000 75.000 75.000 75.000 75.000 75.000 75.000 75.000 75.000 75.037 75.405 75.828 76.282 76.581 76.594 76.607 76.620 76.826 77.214 77.658 77.671 77.684 77.697 77.453 76.879 76.284 76.252 76.685 77.000 77.000 77.000 77.000 77.000 77.000 76.806 76.136 76.123 75.465 75.097 75.085 75.072 75.059 75.046 75.017 75.000 75.000 74.995 74.982 74.985
 104.378 104.864 105.000 105.000 106.209 107.250 107.750 107.836 108.629 109.422 110.215 111.008 111.544 110.725 110.168 109.454 108.648 107.842 107.036 107.000 106.673 106.063 105.372 105.003 104.587 104.496 104.711 105.000 105.000 105.000 105.000 105.000 104.898 104.547 103.754 101.879 100.529 99.819 99.307 99.036 98.305 98.000 98.000 98.000 98.000 98.000 97.592 96.881 96.092 95.426 94.604 93.772 92.573 91.108 90.276 89.265 87.819 86.569 85.738 84.992 84.186 84.000 84.000 84.000 84.000 84.000 83.982 83.959 84.207 84.933 84.920 84.970 85.000 85.257 85.868 85.855 85.842 85.829 85.875 86.102 86.737 87.516 87.893 88.351 89.116 89.698 90.260 90.973 91.492 91.734 91.998 92.000 91.779 91.777 92.132 92.618 93.411 93.570 93.116 92.790 93.479 92.660 91.506 90.769 90.245 89.326 87.286 86.001 85.573 85.280 84.487 83.694 83.173 83.000 83.000 82.859 82.053 81.247 81.000 81.000 81.125 81.724 81.947 82.000 81.913 81.433 79.993 79.187 78.896 78.486 77.769 77.000 77.000 77.000 77.000 77.000 76.929 76.082 74.631 74.013 74.303 75.096 75.889 76.682 77.475 77.948 77.935 77.922 77.909 78.440 79.193 79.897 80.677 82.225 82.760 82.819 82.806 82.793 82.780 82.908 83.000 83.000 82.994 82.765 82.258 82.000 81.755 80.949 80.143 79.337 79.000 79.168 79.551 79.066 79.397 79.281 79.000 78.890 78.084 78.000 78.000 78.161 78.470 78.457 78.862 78.442 78.000 78.000 78.000 78.000 78.215 78.214 78.000 78.000 78.000 78.000 78.000 78.000 77.974 77.369 77.391 78.003 79.207 80.872 81.775 81.069 79.672 78.298 77.440 76.583 75.725 74.867 74.010 73.152 72.295 71.437 71.105 71.053 70.859 70.039 70.016 70.034 70.047 70.071 70.145 70.899 71.099 71.157 71.222 71.137 71.150 71.692 72.000 72.000 71.950 71.144 71.000 71.000 71.000 70.979 70.753 70.910 71.000 71.000 71.000 71.000 71.000 71.527 72.000 72.000 72.000 72.000 72.000 72.000 71.922 71.539 71.514 71.501 71.689 72.199 73.000 73.000 73.000 73.000 73.000 73.014 73.324 73.372 73.649 74.000 74.000 74.000 74.208 74.295 74.282 74.269 74.256 74.244 74.624 75.000 75.000 75.000 75.000 75.000 75.000 75.000 75.000 75.000 75.000 75.000 74.831 74.073 74.805 75.000 75.000 75.000 74.999 74.986 74.990 75.000 75.000 75.000 75.000 75.000 75.000 75.000 75.000 75.000 75.000 75.000 75.000 75.000 75.000 75.000 75.000 75.000 75.000 75.000 75.000 75.000 75.000 75.000 75.000 75.000 75.000 75.000 75.000 75.000 75.000 75.000 74.815 74.548 74.551 74.923 75.000 75.000 75.000 75.033 75.471 75.855 76.753 77.581 77.539 77.062 77.000 77.000 77.112 77.342 77.329 77.818 78.000 77.408 76.236 76.011 76.000 76.136 76.517 77.000 77.000 77.000 76.505 76.162 75.938 75.136 75.124 75.041 75.000 75.000 75.000 75.000 75.000 74.551 74.021 74.008 74.000 74.000 74.480
 103.809 104.247 105.000 105.000 105.516 106.234 106.820 107.082 107.888 108.694 109.500 110.210 110.597 110.054 110.000 109.470 108.791 108.250 107.457 107.418 107.190 106.797 106.285 105.492 105.483 105.204 105.000 105.000 105.000 105.000 105.000 105.000 104.864 104.341 103.027 101.613 100.254 99.257 98.955 98.408 97.630 97.296 97.492 97.929 97.330 96.709 95.948 95.116 94.284 93.453 92.621 91.789 91.200 90.844 90.038 89.232 88.367 87.185 85.814 85.008 84.960 84.381 84.000 84.000 84.000 84.000 83.366 83.000 83.232 83.933 83.920 84.571 84.944 85.000 85.000 85.000 84.891 84.915 85.249 85.803 85.790 86.501 87.294 88.087 88.775 88.985 89.000 89.223 89.738 90.518 91.298 91.296 90.896 90.867 91.296 91.605 92.734 92.469 91.690 91.424 92.512 92.082 91.352 91.000 90.740 89.802 87.385 86.322 86.000 85.880 85.503 84.710 83.475 82.673 82.350 82.295 82.022 81.771 81.702 81.715 81.770 81.990 82.000 82.000 81.705 80.838 79.213 79.037 79.000 78.591 77.785 76.982 76.270 76.671 77.000 77.000 76.950 76.144 75.312 74.518 74.004 74.081 74.885 75.692 76.479 76.949 76.936 76.923 76.910 77.370 77.807 78.011 78.804 80.232 81.128 81.524 81.613 81.587 81.732 82.491 82.903 82.742 82.725 82.135 82.000 81.869 81.522 80.965 80.159 79.353 79.000 79.000 79.000 79.000 78.711 78.561 78.548 78.484 78.052 78.000 78.000 78.000 78.000 78.000 78.327 78.198 78.000 78.000 78.000 78.000 78.000 78.000 78.000 78.000 78.000 78.000 78.000 77.845 77.258 77.044 77.000 77.098 77.507 78.407 78.531 77.311 76.098 74.936 73.458 72.600 71.743 71.335 70.945 70.201 70.118 70.056 70.031 70.018 70.004 70.016 70.792 71.067 71.093 71.277 72.048 72.085 72.098 72.460 72.802 72.000 72.000 72.000 72.000 71.957 71.772 71.126 71.000 70.892 70.747 70.687 70.094 70.478 70.842 71.000 71.000 71.000 71.251 71.880 72.261 72.000 72.000 72.000 72.000 71.845 71.458 71.022 71.000 71.000 71.377 72.087 72.458 72.887 73.000 73.000 73.000 73.000 73.000 73.000 73.157 73.347 73.334 73.321 73.308 73.296 73.283 73.270 73.257 73.765 74.115 74.218 74.205 74.192 74.770 75.000 75.000 75.000 75.000 75.000 74.502 74.089 74.064 74.002 74.779 75.000 75.000 74.806 74.000 74.000 74.598 74.977 75.000 75.000 75.000 75.000 75.000 75.000 75.000 75.000 75.000 75.000 75.000 75.000 75.000 75.000 75.000 75.000 75.000 75.000 75.000 75.000 75.000 75.000 75.000 75.000 75.000 75.000 75.000 75.000 75.000 75.000 74.595 74.000 74.009 74.430 74.510 74.716 75.124 75.551 75.932 76.365 77.233 78.000 77.969 77.652 77.193 77.000 77.000 77.000 77.000 78.209 78.331 77.340 76.000 76.000 75.441 75.661 76.082 76.214 76.201 76.188 75.592 75.163 75.120 75.000 75.000 75.000 75.000 75.000 74.971 74.213 74.047 74.019 74.000 74.000 74.000 74.000 74.000
 102.777 104.004 104.614 104.757 104.922 105.562 106.444 107.066 107.872 108.678 109.339 109.686 109.705 109.967 110.000 109.674 109.257 108.923 108.445 108.418 107.887 107.288 106.844 106.038 106.000 105.711 105.316 105.000 105.000 105.000 105.000 104.765 104.072 102.772 101.628 100.742 99.764 98.840 98.285 97.466 97.104 96.670 96.362 96.461 95.629 94.797 94.348 93.914 93.096 92.277 92.050 91.472 90.717 90.001 89.182 88.363 88.045 87.603 86.911 86.875 86.157 85.375 84.591 84.000 84.000 83.988 83.372 83.000 83.000 83.000 83.000 83.588 84.300 84.794 84.869 84.856 84.272 84.401 84.817 84.823 84.979 85.550 86.398 87.319 88.092 88.676 88.713 88.320 88.240 88.778 89.297 89.297 89.480 89.480 89.403 90.183 91.760 91.195 90.330 90.331 91.541 91.916 91.368 91.000 90.629 89.344 87.354 86.708 86.572 86.425 85.968 85.655 84.241 83.139 82.453 82.000 82.000 82.497 82.701 82.476 82.000 82.000 82.000 81.573 80.858 80.004 79.030 78.361 78.169 77.763 76.945 76.130 76.022 76.064 76.475 77.000 76.998 76.956 76.314 75.081 73.745 73.129 74.718 75.643 75.980 76.000 75.994 75.931 75.910 75.897 76.202 76.979 77.657 78.427 78.665 78.987 79.643 79.785 80.546 81.778 82.318 81.953 81.732 81.716 81.703 81.409 81.000 80.981 80.175 79.141 78.626 78.613 78.600 78.587 78.195 78.000 78.000 77.964 77.578 77.509 77.496 77.640 78.000 78.000 78.000 78.000 78.000 78.000 78.000 78.000 77.648 77.354 77.341 77.328 77.849 78.000 78.000 77.803 76.997 76.394 76.238 76.552 77.048 77.199 77.186 75.883 73.952 71.929 70.396 70.260 70.144 70.096 70.059 70.000 70.000 70.673 70.969 71.292 71.989 72.015 72.760 73.033 73.030 73.000 73.000 73.000 73.000 72.958 72.717 72.010 72.000 72.000 71.929 71.640 71.000 71.000 71.000 70.564 70.000 70.000 70.000 70.000 70.465 71.000 71.000 71.000 71.689 72.495 72.699 72.000 72.000 72.000 71.773 71.371 71.000 71.000 71.000 71.000 71.361 72.000 72.000 72.778 73.000 73.000 73.000 73.000 73.000 73.000 73.000 73.000 73.000 73.000 73.000 73.000 73.000 73.000 73.000 73.165 72.863 72.661 73.279 73.917 74.127 74.591 75.000 75.000 75.000 75.000 74.461 74.000 73.861 73.104 73.814 74.038 74.025 74.010 74.000 74.000 74.000 74.389 74.959 75.000 75.000 75.000 75.000 75.000 74.994 74.879 74.845 74.832 74.868 75.000 75.000 75.000 75.000 75.000 75.000 75.000 75.000 75.000 75.000 75.000 75.000 75.000 75.000 75.134 75.451 75.788 75.504 75.177 74.611 74.000 74.000 74.000 74.000 74.208 74.825 76.000 76.000 76.643 77.194 77.568 78.000 78.000 77.327 76.698 76.356 76.343 76.330 77.243 77.454 76.886 75.913 75.320 75.068 75.129 75.227 75.215 75.202 75.189 75.076 75.000 75.000 75.000 75.000 74.469 74.099 74.086 74.072 74.011 74.000 74.000 74.000 74.000 74.000 74.000 74.000
 102.339 102.817 102.824 103.617 104.551 105.774 106.812 107.050 107.856 108.662 109.000 109.000 109.054 109.585 109.648 109.635 109.548 109.348 109.034 109.000 108.472 107.814 107.317 106.524 106.482 106.495 106.145 105.433 105.013 105.000 104.671 104.034 103.249 102.591 101.305 100.383 99.577 98.771 97.965 97.159 97.000 96.547 95.815 95.254 95.033 94.324 94.000 93.712 92.906 92.100 92.000 91.488 90.682 89.876 89.070 88.915 88.897 88.879 88.989 89.771 88.355 86.803 85.597 84.807 84.010 83.204 83.000 83.000 83.000 83.000 83.000 82.942 82.895 83.125 83.869 83.856 83.947 84.000 84.000 84.063 84.700 84.932 85.877 87.055 87.740 87.727 87.920 88.000 88.000 88.000 88.000 88.264 88.515 88.397 88.103 88.582 89.820 89.807 89.558 89.743 90.536 91.329 91.194 90.786 90.143 88.950 87.779 87.558 87.571 87.327 86.559 86.080 85.070 84.155 83.175 82.000 82.000 82.220 82.299 82.195 82.000 82.000 81.447 81.108 80.653 79.847 79.041 78.235 77.526 76.780 76.117 76.001 76.000 76.000 76.037 76.079 76.066 76.053 75.410 74.155 72.772 72.049 72.832 74.271 75.408 75.950 75.859 75.040 74.911 74.898 75.187 75.872 75.859 76.455 76.754 77.152 77.918 78.544 79.312 80.092 80.961 81.618 81.020 81.000 80.827 80.691 80.678 80.662 79.843 78.631 78.000 78.000 78.000 78.000 78.000 77.802 77.549 77.502 77.069 77.000 77.000 77.139 77.471 77.458 77.445 77.432 77.603 77.928 77.437 77.381 76.828 76.132 75.784 76.301 76.557 76.606 76.314 75.650 74.806 73.961 74.172 75.170 76.213 76.200 76.187 74.916 72.856 71.077 70.865 70.878 70.891 71.324 71.833 71.930 72.716 72.897 72.936 73.263 73.988 74.000 74.000 74.000 73.670 73.000 73.000 73.000 73.000 72.640 72.000 72.000 72.000 71.906 71.504 71.000 71.000 71.000 71.000 70.580 70.000 70.000 70.000 70.000 70.313 70.764 71.000 71.000 71.434 72.111 72.334 71.606 71.593 71.580 71.279 71.000 71.000 71.000 71.000 71.000 71.169 71.556 71.977 72.344 72.758 73.000 73.000 73.000 73.000 73.000 73.000 73.000 73.000 73.000 73.000 73.000 73.000 73.000 73.000 73.000 72.536 72.270 73.016 73.170 73.744 74.493 75.000 75.000 75.000 75.000 74.477 73.701 73.067 73.004 73.747 73.468 73.376 74.000 74.000 74.000 74.000 74.000 74.185 74.936 74.923 74.910 74.940 74.974 74.845 74.141 74.000 74.000 74.208 74.819 74.972 75.000 75.000 75.000 75.000 75.000 75.000 75.000 75.000 75.000 75.000 75.254 75.360 75.845 76.922 77.754 76.749 75.617 74.627 74.000 74.000 74.000 74.000 74.000 74.310 75.480 75.903 76.280 76.434 76.521 76.789 76.276 75.896 75.568 75.356 75.344 75.331 75.536 75.610 75.497 75.250 75.024 75.000 75.000 75.000 75.000 75.000 75.000 75.000 75.000 75.000 75.000 75.000 74.418 74.000 74.000 74.000 74.000 74.000 74.000 74.000 74.000 74.000 74.000 74.000
 102.000 102.000 102.004 102.810 104.233 105.422 106.172 106.773 107.566 108.359 108.836 109.000 109.000 109.000 109.000 109.000 109.179 109.552 109.060 109.000 108.708 108.302 107.933 107.506 107.482 107.227 106.653 105.927 105.553 105.547 104.988 103.980 103.000 103.000 101.410 100.399 99.593 98.787 97.981 97.175 97.000 96.563 95.757 95.000 95.000 94.340 94.000 93.728 92.984 92.829 92.254 91.504 90.953 90.750 89.957 89.884 89.425 89.604 90.984 91.815 90.398 88.812 86.883 84.832 84.027 83.234 83.011 83.000 83.000 83.000 83.000 82.385 82.000 82.200 82.870 82.857 83.489 83.831 83.865 84.000 84.000 84.675 85.368 86.040 86.764 86.972 87.503 87.549 87.475 87.675 87.662 88.384 88.293 88.000 88.000 88.000 88.447 88.572 88.559 88.728 89.521 90.314 90.211 89.787 89.269 88.460 88.080 88.351 88.322 87.900 87.549 86.756 85.963 85.170 84.106 82.611 82.079 81.526 81.646 82.000 81.922 81.325 80.529 80.235 80.148 79.863 79.057 78.251 77.445 76.639 76.000 76.000 76.000 76.000 76.354 76.921 76.931 76.182 75.386 74.160 72.551 71.002 70.992 72.248 73.809 74.863 74.816 74.046 73.911 73.898 74.138 74.756 74.845 74.847 75.343 76.079 76.662 76.970 77.573 78.308 79.362 80.486 80.460 80.434 80.008 79.576 79.357 79.331 78.788 78.257 78.000 77.919 77.601 77.588 77.575 77.318 77.000 77.000 77.000 77.000 77.000 77.000 77.000 77.000 77.000 77.000 76.952 76.771 76.429 75.937 75.213 74.381 73.731 73.969 73.438 73.214 72.803 72.065 71.802 70.978 71.300 72.758 74.733 76.000 76.000 75.280 73.933 72.703 72.729 72.755 73.353 73.753 73.832 73.862 73.934 73.955 73.968 73.986 74.000 74.000 74.000 74.000 73.700 73.058 73.071 72.900 72.858 72.584 72.000 72.000 71.887 71.362 71.000 71.000 71.000 71.000 71.000 70.693 70.199 70.000 70.000 70.000 70.000 70.164 70.686 70.949 71.000 71.293 71.453 71.000 71.000 71.000 71.000 71.000 71.000 71.000 71.000 71.000 71.000 71.135 71.941 72.000 72.552 73.000 73.000 73.000 73.000 73.000 73.000 73.000 73.000 73.000 73.000 73.000 73.000 73.000 73.000 73.000 72.896 72.836 73.000 73.000 73.672 74.080 74.395 75.000 75.000 75.000 74.493 73.687 73.000 73.000 73.038 73.018 73.009 73.160 73.955 73.997 74.000 74.000 74.000 74.000 74.000 74.000 74.361 74.700 74.000 74.000 74.000 74.000 74.000 74.036 74.675 74.925 75.000 75.000 75.000 75.000 75.000 75.145 75.309 75.321 75.334 75.814 76.188 76.906 78.133 78.939 77.816 76.088 74.643 74.000 74.000 74.000 74.000 74.000 74.094 74.472 74.830 75.232 75.434 75.292 74.805 74.461 74.383 74.370 74.357 74.344 74.331 74.775 75.000 75.000 75.000 75.000 75.000 75.000 75.000 75.000 75.000 75.000 75.000 75.000 75.000 75.000 75.000 74.434 74.000 74.000 74.000 74.000 74.000 74.000 74.000 74.000 74.000 74.000 73.988
 102.000 102.000 102.000 102.629 103.846 105.033 105.753 105.753 106.325 107.057 107.837 108.451 108.675 108.662 108.649 108.636 108.623 108.610 108.597 108.871 109.000 108.699 108.000 108.000 108.000 107.475 106.837 106.449 106.030 106.000 105.135 103.913 102.902 102.418 100.831 99.791 99.221 98.803 97.997 97.191 96.577 96.173 95.774 95.000 95.000 94.841 94.422 93.944 93.743 93.106 92.878 92.751 92.689 92.623 91.843 91.145 90.387 90.541 91.932 91.995 90.533 88.921 87.637 86.673 85.086 84.253 83.457 83.024 82.991 82.936 82.922 82.364 82.000 82.000 82.000 82.000 82.531 82.831 83.059 83.814 83.969 84.659 85.000 85.204 85.817 86.610 86.715 86.355 86.207 86.676 86.663 87.116 87.274 87.372 87.664 87.977 88.000 88.000 88.000 88.091 88.518 88.925 88.718 88.494 88.387 88.001 88.440 88.829 88.820 88.583 88.565 87.772 86.579 85.836 85.138 83.560 82.222 81.327 81.144 81.287 81.249 81.027 80.297 80.000 80.000 79.879 79.073 78.267 77.461 76.655 76.000 76.000 75.328 75.614 76.374 77.000 77.000 76.208 75.402 74.585 73.565 71.966 70.356 70.613 71.397 72.190 72.938 72.925 72.912 72.946 73.000 73.056 73.634 73.694 74.161 74.696 75.019 76.618 76.938 77.523 78.249 78.743 78.731 78.718 78.705 78.444 78.000 78.000 77.730 77.640 77.482 77.109 76.601 76.588 76.575 76.562 76.550 76.551 76.922 77.000 77.000 76.869 76.472 76.459 76.074 75.866 75.557 74.761 74.246 73.443 72.919 72.398 71.686 71.660 70.902 70.608 70.482 70.386 70.967 70.808 71.328 72.893 75.004 75.982 76.000 75.896 75.370 74.702 74.728 74.754 74.849 74.903 74.697 74.000 74.000 74.000 74.000 74.000 74.000 74.000 74.000 74.000 73.960 73.827 73.788 71.781 71.522 71.964 71.878 71.865 71.216 71.000 71.000 71.000 71.000 71.000 71.000 71.000 70.806 70.000 70.000 70.000 70.000 70.000 70.020 70.550 70.646 70.633 70.620 70.607 70.594 70.581 70.774 71.000 71.000 71.000 71.000 71.000 71.000 71.119 71.925 72.400 72.796 73.000 73.000 73.000 73.000 73.000 73.000 73.000 73.000 73.000 73.000 73.000 73.000 73.000 73.000 73.000 73.000 73.000 73.035 73.685 73.938 74.000 74.042 74.206 74.895 75.000 74.509 73.703 73.095 73.850 73.947 73.460 73.000 73.002 73.001 73.736 73.989 74.000 74.000 74.000 74.000 74.000 74.000 74.000 74.000 74.000 74.000 74.000 74.000 74.000 74.000 74.501 74.769 74.756 74.758 74.963 75.189 75.631 76.087 76.321 76.334 76.347 76.683 77.196 77.687 78.158 77.748 76.197 74.659 74.000 74.000 74.000 74.000 74.000 74.000 74.000 74.000 74.266 74.435 74.334 74.000 74.000 74.000 74.000 74.152 74.655 74.668 74.890 75.000 75.000 75.000 75.000 75.000 75.000 75.000 75.000 75.000 75.000 75.000 75.000 74.888 74.192 74.776 74.450 74.000 74.000 74.000 74.000 74.000 74.000 74.000 74.000 73.995 73.978 73.568
 102.000 102.000 102.000 101.838 102.363 103.455 104.555 104.740 104.727 105.328 106.121 106.914 107.675 107.662 107.649 107.636 107.719 108.000 108.000 108.393 108.571 108.399 107.959 107.580 107.519 107.249 107.000 106.879 106.073 105.600 104.665 103.458 102.265 101.446 100.330 99.431 99.000 98.819 98.013 97.208 96.402 96.000 95.790 95.000 95.000 95.000 94.899 94.592 93.990 93.834 94.357 94.662 94.688 94.638 93.858 92.471 91.402 91.236 92.000 92.000 91.245 89.914 88.644 87.850 87.058 85.524 84.484 83.679 82.886 82.093 82.017 82.000 82.000 82.000 82.000 82.000 82.000 82.000 82.184 82.836 83.629 84.422 84.871 85.000 85.045 85.631 85.715 85.702 85.777 86.000 86.000 86.000 86.000 86.196 86.731 87.524 87.585 87.802 88.000 88.000 88.000 88.000 88.000 88.000 88.000 88.000 88.791 89.000 89.000 88.878 88.389 87.570 86.514 86.000 85.677 84.571 82.972 81.579 81.000 80.808 80.275 80.262 80.078 80.000 80.000 79.895 79.089 78.283 77.477 76.672 75.885 75.184 75.030 75.059 75.452 76.080 76.067 76.746 76.376 75.206 73.612 72.000 70.398 70.009 70.388 71.126 71.876 71.850 71.824 72.201 72.659 72.575 71.957 71.847 72.312 73.105 73.987 75.586 76.484 77.277 77.757 77.774 77.980 78.000 78.000 77.894 77.679 77.666 76.893 76.437 75.883 75.229 75.203 75.503 75.576 75.563 75.550 75.545 75.954 76.022 75.780 75.341 74.922 74.460 73.684 73.301 72.994 72.193 71.837 71.078 70.738 70.606 70.411 70.939 70.773 71.058 71.417 71.576 72.408 73.051 73.832 74.839 75.821 75.994 76.000 76.000 75.613 75.000 75.000 75.000 74.457 74.098 74.066 74.000 74.000 74.000 74.000 74.000 74.000 73.994 73.982 73.969 73.121 71.000 71.000 71.000 71.458 71.613 71.000 71.000 71.000 70.914 70.827 70.841 70.991 71.000 71.127 71.149 70.822 70.016 70.000 70.000 70.000 70.000 70.000 70.000 70.000 70.000 70.000 70.000 70.000 70.000 70.262 70.674 71.000 71.000 71.000 71.000 71.000 71.103 71.909 72.323 72.731 73.000 73.000 73.000 72.545 72.375 72.589 73.000 73.000 73.000 73.000 73.000 73.000 73.000 73.000 73.000 73.000 73.000 73.028 73.834 74.000 74.000 74.000 74.008 74.112 74.117 74.055 73.719 73.087 73.893 74.000 73.495 73.000 73.000 73.000 73.000 73.535 74.000 74.000 74.000 74.000 74.000 74.000 74.000 74.000 74.000 74.000 74.000 74.000 74.000 74.000 74.000 74.000 74.115 74.565 75.614 76.499 76.749 76.799 77.320 77.333 77.110 76.824 76.738 76.961 76.639 76.297 75.334 74.380 74.000 74.000 74.000 73.732 73.677 74.000 74.000 74.000 74.000 74.000 74.000 74.000 74.000 74.000 74.000 74.221 75.000 75.000 75.000 75.000 75.000 75.000 75.000 75.000 75.000 75.000 75.000 75.000 75.000 75.000 75.000 74.884 74.078 74.092 74.053 74.000 74.000 74.000 74.000 74.000 73.644 72.852 72.040 72.000 72.584 72.972
 101.831 101.819 101.806 101.189 101.443 102.053 102.687 103.467 103.887 104.427 104.985 105.652 106.676 106.663 106.650 106.794 107.149 107.611 107.598 107.585 107.572 107.559 107.505 107.063 107.000 107.000 106.849 106.430 106.042 105.283 104.477 103.530 102.449 101.656 100.408 99.447 99.000 98.942 98.672 97.899 97.106 96.429 95.944 95.727 95.740 95.753 95.446 94.950 94.792 94.805 94.935 95.000 95.000 94.940 94.134 92.657 91.950 91.934 92.000 92.000 90.634 89.025 88.018 87.881 87.075 87.012 85.964 84.733 83.946 83.112 82.316 82.039 82.000 82.000 82.000 82.000 82.000 82.000 81.962 81.821 82.614 83.269 84.068 84.754 84.741 84.728 84.715 84.702 84.958 85.677 85.664 85.651 85.816 86.000 86.064 86.545 86.882 87.299 87.560 87.608 87.972 88.000 88.000 88.000 88.000 88.000 88.354 88.443 88.430 88.224 87.405 86.586 85.767 85.366 85.130 84.301 83.219 81.718 80.688 80.215 80.000 80.000 80.000 80.000 80.000 79.911 79.105 78.299 77.494 76.688 75.983 75.877 75.237 75.000 75.032 75.217 75.957 76.760 76.976 76.227 74.628 73.029 71.428 70.427 69.620 69.188 69.877 69.851 69.880 69.856 69.773 69.791 70.571 70.795 71.296 72.089 72.955 74.554 75.468 76.261 76.757 76.821 77.396 77.437 77.411 77.159 76.637 76.354 75.821 75.090 74.404 74.000 74.000 74.456 74.576 74.395 74.101 74.075 73.667 73.535 73.289 72.857 72.405 71.996 71.254 71.121 71.315 71.000 71.000 70.744 70.630 70.825 71.343 71.634 72.159 72.896 73.416 73.559 74.391 74.678 74.888 75.341 75.884 75.239 75.189 75.176 75.102 75.000 75.000 75.000 74.405 74.000 74.000 74.000 74.000 74.000 73.584 73.021 73.008 73.000 73.000 72.986 72.447 71.053 71.008 71.000 71.000 71.000 71.000 71.000 70.895 70.403 70.000 70.107 70.751 70.946 71.426 71.407 70.629 70.024 70.000 70.000 70.000 70.000 70.000 70.000 70.000 70.000 70.000 70.000 70.000 70.000 70.000 70.140 70.543 70.530 70.517 70.505 70.634 71.041 71.416 71.835 72.222 72.427 72.414 72.401 72.106 72.000 72.123 72.350 72.337 72.324 72.700 73.000 73.000 73.000 73.000 73.000 73.000 73.160 73.794 73.964 74.000 74.000 74.000 74.000 74.000 74.000 74.000 73.735 73.006 73.058 73.700 73.511 73.000 73.000 73.000 73.000 73.519 74.000 74.000 74.000 73.944 73.960 74.000 74.000 74.000 74.000 74.000 74.000 74.000 74.000 74.000 74.000 74.000 74.494 76.314 78.156 79.201 79.145 78.538 78.320 78.333 77.447 76.526 76.176 76.530 75.711 74.892 74.287 74.000 74.000 74.000 74.000 73.467 73.339 74.000 74.000 74.000 74.311 74.565 74.577 74.590 74.129 74.000 74.251 74.715 75.000 75.000 75.000 75.000 75.000 75.000 75.000 75.000 74.653 74.230 74.272 74.901 75.000 74.599 74.165 74.137 74.013 74.000 74.000 74.000 73.882 73.135 72.367 72.620 72.683 72.020 72.000 72.000 72.000 72.000
 101.000 101.000 101.000 101.000 101.000 101.000 101.123 101.719 103.068 103.596 103.818 104.267 105.351 105.597 105.650 106.054 106.708 107.000 107.000 107.000 107.000 107.000 107.000 107.000 107.000 107.000 106.717 106.000 106.000 105.681 105.051 104.436 103.910 102.165 100.539 99.464 99.000 99.000 99.000 98.753 98.121 97.328 96.713 96.726 96.155 96.000 96.213 96.557 96.583 96.609 96.123 95.472 95.000 94.956 94.150 92.689 92.000 91.757 91.079 91.066 89.682 88.529 88.000 87.999 87.999 88.000 87.492 86.711 85.791 84.246 83.408 82.579 82.066 82.000 82.000 82.000 82.000 82.000 81.807 81.001 81.638 81.781 82.504 83.564 83.742 83.729 83.716 83.703 83.942 84.677 84.664 84.885 85.304 85.625 85.646 85.957 86.410 86.573 86.560 86.665 87.458 87.871 88.000 88.000 88.000 88.000 88.000 88.000 87.789 87.241 86.422 85.603 84.784 84.112 83.633 83.327 82.508 81.493 80.569 80.000 80.000 80.000 80.000 80.000 80.000 79.927 79.122 78.316 77.510 76.953 76.767 76.080 75.286 74.536 74.094 74.213 75.006 75.799 76.042 75.318 73.852 73.032 72.233 71.443 70.277 68.895 68.064 68.015 68.557 68.485 67.887 67.898 68.579 69.433 70.281 71.118 72.103 73.551 74.597 75.257 75.516 75.490 75.464 75.438 75.412 75.386 75.281 74.719 74.654 74.107 73.628 73.559 73.224 73.179 73.154 72.757 72.102 72.076 71.636 71.512 71.499 71.386 71.000 71.000 70.721 70.752 71.136 71.591 71.604 72.021 72.260 72.552 73.312 73.338 73.581 74.184 74.708 74.749 74.975 75.000 75.000 75.074 75.187 75.013 75.000 75.000 75.000 75.000 75.000 74.323 74.047 74.000 74.174 74.924 74.186 74.000 73.585 73.000 73.000 72.996 72.982 72.539 71.989 71.891 71.128 71.000 71.000 71.000 70.990 70.881 70.258 70.000 70.000 70.000 70.000 70.574 70.776 70.504 69.964 69.750 69.724 69.874 70.000 70.000 70.000 70.000 70.000 70.000 70.000 70.000 70.000 70.000 70.000 70.000 70.000 70.000 70.000 70.000 70.265 71.000 71.000 71.309 71.441 71.596 72.000 72.000 71.565 71.699 72.000 72.000 72.000 72.501 72.859 73.000 73.000 73.000 73.000 73.000 73.294 73.821 73.999 74.000 74.000 74.000 74.000 74.000 74.000 74.000 73.603 73.069 73.000 73.000 73.036 73.022 73.000 73.000 73.000 73.000 73.491 73.975 73.994 73.943 73.253 73.486 73.933 74.000 74.000 73.895 73.848 73.835 73.853 73.996 74.000 74.000 74.000 74.513 76.517 78.693 79.954 80.236 79.766 78.975 78.438 77.006 75.826 75.258 75.189 74.678 74.188 74.000 74.000 74.000 74.000 74.000 73.483 73.323 74.000 74.000 74.000 74.246 74.635 75.000 75.000 74.694 74.616 74.771 75.000 75.000 75.000 75.000 74.714 74.294 74.282 74.269 74.256 74.136 74.000 74.012 74.176 74.192 74.094 74.000 73.929 73.235 72.520 73.118 73.723 72.975 72.156 72.017 72.027 72.025 72.000 72.000 72.000 72.000 72.000
 101.000 101.000 101.000 101.000 101.000 101.000 101.000 101.000 101.553 102.120 102.887 103.745 103.995 104.524 104.859 105.256 105.832 106.617 106.927 107.000 107.000 107.000 107.000 107.000 106.686 106.508 106.363 106.000 106.000 106.000 105.509 105.000 104.752 102.816 101.180 100.102 99.428 99.000 99.000 99.000 98.828 98.344 97.713 97.726 97.537 97.504 97.916 98.556 98.582 98.608 97.526 96.414 95.656 94.972 94.166 92.721 91.601 91.069 91.000 91.000 90.295 89.484 88.699 88.000 88.000 88.000 88.000 87.701 86.939 86.199 85.479 84.198 82.966 82.329 82.262 82.068 82.000 82.000 81.823 81.018 81.000 81.000 81.308 81.911 82.488 82.680 82.716 82.831 83.163 83.677 83.664 84.305 84.639 84.725 85.044 85.526 85.587 85.574 85.691 86.102 86.908 87.714 88.000 88.000 88.000 88.000 88.000 88.000 87.645 86.839 86.033 84.757 83.800 83.225 82.877 82.343 82.065 81.391 80.585 79.843 79.276 79.263 79.250 79.237 79.224 79.199 79.027 78.332 77.526 77.000 76.914 76.108 75.916 75.388 74.625 74.009 74.063 74.096 73.575 73.069 73.015 73.000 72.991 72.414 71.596 70.609 69.036 68.212 67.949 67.541 67.000 67.000 67.000 68.152 69.265 70.293 71.851 72.644 73.949 74.188 73.758 73.745 73.732 73.719 73.707 73.694 73.681 73.668 73.409 72.951 72.509 72.152 71.641 71.590 71.577 71.364 71.000 71.000 71.000 71.282 71.500 71.513 71.526 71.539 71.552 71.799 72.249 72.591 72.604 73.254 73.630 73.732 74.036 74.576 74.681 74.839 75.000 75.000 75.000 75.000 75.000 75.000 75.000 75.000 75.000 75.000 75.000 74.877 74.180 74.030 74.000 74.000 74.015 74.072 74.013 73.436 73.021 73.000 72.990 72.183 72.000 72.000 71.766 71.000 71.000 71.000 71.000 70.972 70.810 69.991 69.954 70.000 70.000 70.000 70.000 70.000 70.000 69.923 69.653 69.048 69.000 69.390 69.805 70.000 70.000 70.000 70.000 70.000 70.000 70.000 70.000 70.000 70.000 70.000 70.000 70.000 70.000 70.000 70.122 70.480 70.467 70.454 70.441 70.707 71.415 71.402 71.118 71.189 71.364 71.425 71.947 72.726 73.000 73.000 73.000 73.000 73.000 72.577 72.603 73.357 73.984 74.000 74.000 74.000 74.000 74.000 74.000 74.000 73.573 73.000 73.000 73.000 73.000 73.000 73.000 73.000 73.000 73.000 73.000 73.282 73.857 73.089 73.000 73.000 73.290 73.887 73.874 73.223 73.000 73.000 73.130 73.781 73.797 73.908 74.000 74.143 74.741 76.118 77.481 78.411 78.624 77.995 76.344 75.132 74.359 74.000 73.979 73.659 73.591 73.777 74.000 74.000 74.000 74.000 73.499 73.307 74.000 74.000 74.000 74.000 74.337 75.082 75.559 75.602 75.615 75.398 74.889 74.360 74.333 73.919 73.493 73.152 72.564 72.538 72.513 72.487 72.461 72.435 72.410 70.808 70.270 71.321 73.085 72.267 72.041 72.542 73.072 72.902 72.096 72.000 72.000 72.000 72.000 72.000 72.000 72.000 72.000
 100.833 100.820 100.807 100.941 101.000 100.924 100.787 100.984 101.000 100.844 101.414 102.851 103.644 103.924 104.377 104.777 105.119 105.610 106.402 106.838 107.000 107.000 106.988 106.612 105.882 105.727 106.000 106.000 106.000 105.636 105.233 104.840 104.295 103.151 102.028 101.117 100.521 100.145 99.103 99.000 99.000 98.898 98.713 98.726 98.739 98.751 98.852 99.000 99.000 98.367 97.481 96.600 95.794 94.989 94.183 93.303 92.465 91.694 91.000 91.000 90.965 90.500 89.707 88.915 88.123 88.014 88.024 88.048 88.095 88.069 88.022 87.055 85.912 85.198 84.327 82.692 82.069 82.000 81.868 81.220 81.047 81.000 81.000 81.000 81.000 81.585 81.717 82.118 82.759 83.000 83.000 83.194 83.278 83.502 84.226 84.200 84.450 84.776 85.157 85.672 86.841 87.697 88.000 88.000 88.000 88.000 88.000 87.704 87.285 86.855 86.049 84.486 83.437 83.000 82.825 82.019 81.471 81.128 80.601 79.795 79.000 79.000 78.533 78.237 78.225 78.212 78.199 77.533 77.094 77.000 76.990 76.883 76.879 76.404 75.611 74.826 74.088 74.000 73.482 72.686 72.017 72.004 71.994 71.431 70.612 69.793 68.974 68.212 67.423 67.000 67.000 67.000 67.000 67.607 68.481 69.537 70.836 71.629 72.422 72.772 72.759 72.746 72.733 72.720 72.707 72.694 72.654 72.373 71.854 71.642 71.435 71.044 71.365 71.409 71.422 71.435 71.448 71.461 71.474 72.049 72.500 72.424 72.011 72.000 72.326 72.738 73.000 73.006 73.492 73.855 74.000 74.000 74.040 74.845 75.000 75.000 75.000 75.000 75.000 75.000 74.631 74.229 74.216 74.203 74.190 74.177 74.164 74.132 74.009 74.000 74.000 74.000 74.000 74.000 73.276 73.020 73.000 72.816 72.015 72.000 72.000 72.000 71.782 71.000 71.000 71.000 70.958 70.672 69.952 69.254 69.715 70.000 70.000 70.000 70.000 70.000 69.888 69.529 69.000 69.000 69.000 69.000 69.236 69.687 69.674 69.661 69.648 69.635 69.622 69.609 69.596 69.583 69.570 69.647 70.000 70.000 70.000 70.000 69.882 69.480 69.467 69.809 70.000 70.112 70.416 70.403 70.805 71.000 71.000 71.098 71.904 72.231 72.667 73.000 72.909 72.322 72.261 72.113 72.352 73.158 73.964 74.000 74.000 74.000 73.842 73.151 73.826 73.467 72.695 72.093 72.102 72.841 73.000 73.000 73.000 73.000 73.000 73.000 73.000 73.000 73.000 73.000 73.000 73.000 73.000 73.000 73.000 73.000 73.000 73.000 73.000 73.000 73.000 73.560 74.000 74.000 74.000 74.575 75.145 75.414 75.388 75.352 74.249 74.000 74.000 73.914 73.594 73.094 73.000 73.263 73.679 74.000 74.000 74.000 73.751 73.500 73.488 73.475 73.844 74.000 74.140 74.551 75.344 75.843 75.665 75.022 74.203 73.384 72.822 72.067 71.880 72.109 71.290 70.686 70.963 70.934 70.296 69.655 69.616 69.723 69.899 70.328 71.300 71.161 71.707 72.054 72.102 72.082 72.009 71.351 71.525 72.000 72.000 72.000 72.000 72.006 72.000
 100.000 100.000 100.000 100.554 100.781 100.531 100.087 100.684 100.729 100.334 100.477 101.571 102.613 103.422 103.848 104.236 104.625 104.612 105.386 106.179 106.574 106.561 106.537 105.718 105.197 105.218 105.496 105.483 105.470 105.159 105.000 104.736 103.971 103.645 102.511 101.815 101.448 100.865 99.786 99.673 99.331 99.000 99.000 99.000 99.000 99.000 99.000 99.000 99.000 98.228 97.422 96.617 95.970 95.855 95.066 94.273 93.111 91.980 91.897 91.157 91.000 90.982 90.965 90.914 90.134 89.344 89.023 89.315 89.965 89.172 88.379 88.088 88.070 87.797 86.393 84.203 82.764 82.110 82.000 82.000 81.399 81.095 81.000 81.000 81.000 81.000 81.000 81.280 81.895 82.678 82.665 82.031 81.639 81.773 82.227 82.201 82.827 83.607 84.239 84.656 85.880 86.727 87.259 87.645 87.949 87.521 87.458 86.928 86.432 86.290 85.471 84.810 83.734 83.000 82.841 82.035 81.229 80.605 80.187 79.811 79.005 79.000 78.394 78.000 77.831 77.212 77.199 77.068 76.634 76.160 76.147 76.134 76.121 75.636 75.069 74.916 74.110 74.000 73.498 72.692 72.000 72.000 71.272 70.468 69.674 68.910 68.167 68.090 67.524 67.062 67.000 67.000 67.000 67.680 68.958 70.176 70.196 70.852 71.621 72.000 72.000 72.000 72.000 71.818 71.707 71.775 71.953 71.415 71.344 71.357 71.370 71.481 72.300 72.409 72.422 72.435 72.390 72.030 72.000 72.280 72.501 72.411 72.017 72.000 72.576 73.000 73.000 73.000 73.800 74.000 74.000 74.000 74.008 74.276 74.752 75.000 75.000 75.000 75.000 74.504 73.771 73.229 73.216 73.203 73.753 74.000 74.000 74.000 74.000 74.000 74.000 73.697 73.087 73.074 73.015 73.000 72.647 72.019 72.000 72.000 72.000 71.988 71.764 71.000 71.000 71.000 70.574 70.000 70.000 70.000 70.000 70.000 70.000 70.000 70.000 69.857 69.400 69.000 69.000 69.000 69.000 69.000 69.000 68.960 68.696 68.661 68.648 68.763 69.000 69.000 69.000 69.000 69.000 69.104 69.541 69.532 69.810 70.000 69.783 69.012 69.441 69.834 70.000 70.000 70.000 70.000 70.259 70.670 71.000 71.029 71.301 71.794 72.157 72.514 72.888 72.082 72.000 72.000 72.079 72.365 73.158 73.802 74.000 73.697 73.131 73.003 73.104 73.049 72.958 72.724 72.007 72.813 73.000 73.000 73.000 73.000 73.000 73.000 73.000 72.991 72.955 72.992 73.000 73.000 73.000 73.000 73.000 73.000 73.000 73.000 73.000 73.000 73.000 73.427 73.772 73.759 73.746 73.733 73.720 73.819 74.000 74.000 74.000 73.792 73.643 73.494 73.000 73.000 73.000 73.000 73.246 74.000 74.000 74.000 73.772 73.364 73.000 73.000 73.693 74.000 74.000 74.047 74.377 74.687 74.243 73.411 72.669 72.366 71.582 70.763 70.421 70.421 69.589 69.329 69.409 69.392 69.031 68.219 68.206 68.811 69.528 70.038 70.185 70.864 71.083 71.116 71.103 71.090 71.077 71.021 71.025 71.317 72.000 72.000 72.708 72.486 71.992
 100.000 100.000 100.000 100.000 100.000 100.000 100.000 100.000 100.000 100.000 100.000 100.178 101.268 102.071 103.041 103.766 104.000 104.000 104.462 105.164 105.574 105.561 105.548 105.107 104.710 104.509 104.496 104.496 104.910 104.655 104.444 104.324 103.968 103.488 102.870 102.328 101.722 100.916 100.110 100.000 99.498 99.215 99.631 99.058 99.000 99.000 99.000 99.000 99.000 98.245 97.439 96.937 96.841 96.854 95.401 94.409 93.560 92.722 91.999 91.945 91.358 91.000 91.000 90.999 90.998 90.356 90.023 90.289 90.931 90.125 89.319 89.000 88.737 88.125 88.241 86.958 84.909 83.121 82.311 82.025 82.000 81.573 81.149 81.000 81.000 81.000 81.000 81.000 81.130 81.675 81.666 81.257 81.000 81.000 81.000 81.000 81.374 82.204 83.139 83.603 84.396 84.871 85.492 86.272 86.886 86.054 85.917 85.668 85.258 84.858 84.985 84.561 83.648 83.000 82.857 82.051 81.245 80.439 80.000 79.827 79.021 79.000 78.410 78.000 77.798 77.000 77.000 76.496 76.100 76.000 75.968 75.270 75.122 75.059 74.763 74.077 74.009 74.000 73.514 72.708 71.904 71.101 71.008 70.505 70.033 70.046 70.059 69.386 68.625 67.810 67.094 67.005 67.105 68.300 69.925 71.176 71.189 71.202 71.690 72.000 72.000 72.000 72.000 71.543 71.292 71.476 72.000 72.000 72.228 72.357 72.370 72.433 72.933 72.716 72.579 72.566 72.441 71.622 71.527 71.772 72.000 72.000 72.000 72.000 72.560 73.000 73.099 73.576 73.914 74.000 74.000 74.000 74.000 74.000 74.619 75.000 75.000 75.000 75.000 74.351 73.545 73.000 73.000 73.000 73.130 73.178 73.165 73.152 73.139 73.126 73.113 73.068 73.000 73.000 72.307 72.049 72.023 72.000 72.000 71.997 71.984 71.602 71.000 71.000 71.000 71.000 70.590 70.000 70.000 70.000 70.000 70.000 69.958 69.816 69.804 69.266 69.000 69.000 69.000 69.000 69.000 69.000 68.909 68.611 68.056 68.000 68.000 68.213 68.623 68.610 68.597 68.817 69.000 69.000 69.000 69.000 69.306 69.702 69.901 69.522 69.912 70.000 70.000 70.000 70.000 70.000 70.000 70.454 71.000 71.000 71.000 71.221 71.646 72.290 72.904 72.098 72.000 72.000 72.000 72.028 72.196 72.935 73.185 73.112 73.000 73.000 73.000 73.000 73.000 72.983 72.919 72.986 73.000 73.000 73.000 73.000 73.000 73.000 73.000 72.755 72.048 72.805 72.975 73.000 73.000 73.000 73.000 73.000 73.000 73.000 73.000 73.000 73.000 73.000 73.000 73.000 73.000 73.000 73.000 73.258 73.695 73.682 73.669 73.271 73.000 73.000 73.000 73.000 73.000 73.000 73.230 74.000 74.000 74.000 73.547 73.000 73.000 73.000 73.314 73.185 72.875 72.904 73.354 72.974 72.260 71.628 71.281 70.741 69.933 69.469 69.309 69.250 69.011 69.000 69.000 69.000 68.816 68.010 68.000 68.602 69.408 70.000 70.003 70.117 70.129 70.503 71.000 71.000 71.000 71.000 71.000 71.011 71.104 71.887 72.692 72.490 71.679
 100.000 100.000 100.000 100.000 100.000 100.000 100.000 100.000 100.000 100.000 100.000 100.000 100.000 100.482 101.529 102.737 103.680 103.980 104.000 104.329 104.574 104.561 104.548 104.535 104.214 104.000 104.000 104.004 104.383 104.174 104.000 104.000 103.962 103.156 103.000 102.261 101.105 100.330 100.043 100.000 99.847 99.786 99.902 99.096 99.000 99.387 99.763 99.677 99.053 98.261 97.899 97.828 97.709 97.031 96.128 94.799 93.959 93.719 92.926 92.932 92.340 91.958 91.760 91.000 91.000 91.000 91.000 91.000 90.950 90.194 89.459 89.175 89.201 89.300 90.029 89.445 87.651 85.553 83.974 82.530 82.260 82.217 81.894 81.208 81.013 81.000 81.000 81.000 81.000 81.000 81.000 81.000 81.000 81.000 81.000 81.000 81.000 81.851 83.000 83.037 83.843 84.000 84.233 84.628 84.937 84.532 84.459 84.446 84.307 84.041 84.368 84.115 83.485 83.000 82.873 82.067 81.261 80.455 80.000 79.843 79.038 79.000 78.426 78.000 77.814 77.008 77.000 76.396 76.000 75.819 75.145 75.023 75.000 75.000 74.754 74.000 74.000 74.000 73.530 72.724 71.998 71.995 72.000 71.510 71.033 71.046 71.059 71.072 70.600 69.558 68.191 67.423 68.060 69.333 70.833 72.000 72.000 72.000 72.000 72.000 72.000 72.000 72.000 72.000 72.000 72.000 72.000 72.000 72.426 72.644 72.535 72.236 72.210 71.782 71.579 71.566 71.500 71.053 71.000 71.514 72.000 72.000 72.000 72.000 72.544 73.197 73.642 73.984 74.000 74.000 74.000 74.000 74.000 74.000 74.193 74.591 75.000 75.000 75.000 74.367 73.561 73.000 73.000 73.000 73.000 73.000 72.771 72.153 72.140 72.127 72.114 72.101 72.088 72.075 72.017 72.000 71.678 71.023 71.011 71.000 71.000 71.000 71.000 71.000 70.948 70.920 70.550 70.000 70.000 70.000 70.000 69.933 69.639 69.000 69.000 69.000 69.000 69.000 69.000 69.000 69.000 69.000 68.711 68.000 68.000 68.000 68.000 68.000 68.000 68.000 68.000 68.317 68.721 69.000 69.000 69.000 69.000 69.192 69.494 69.482 69.469 69.784 70.000 70.000 70.000 70.000 70.000 70.166 70.365 70.385 70.905 71.000 71.468 72.082 72.265 72.031 72.000 72.000 72.000 72.000 72.000 72.722 73.000 73.000 73.000 73.000 73.000 73.000 73.000 73.000 73.000 73.000 73.000 73.000 73.000 73.000 73.000 73.000 72.991 72.745 72.002 72.050 72.672 73.000 73.000 73.000 73.000 72.907 72.850 72.837 72.824 72.811 72.941 73.000 73.000 73.000 73.000 73.000 73.000 73.000 73.000 73.000 73.000 73.000 73.000 72.932 72.622 72.605 72.838 73.000 73.214 74.000 74.000 74.000 73.563 73.000 73.000 73.000 72.646 71.727 71.030 71.505 72.298 71.709 70.585 69.748 69.683 69.378 68.614 68.322 68.539 69.000 69.000 69.000 69.000 69.000 68.961 68.786 68.793 69.393 69.890 70.000 70.000 70.000 70.000 70.049 70.308 70.969 70.226 70.065 70.481 71.000 71.002 71.012 71.677 71.512 70.993
 100.000 100.000 100.000 100.000 100.000 100.000 100.000 100.000 100.000 100.000 100.000 100.000 100.000 99.763 100.168 101.166 102.428 103.520 103.896 104.000 104.000 103.931 103.566 103.536 103.249 103.206 103.497 103.484 103.471 103.785 104.000 104.000 103.978 103.172 102.615 101.773 100.754 100.000 100.000 100.000 100.322 100.698 100.629 99.836 99.226 99.874 100.530 99.889 99.083 98.856 98.815 98.550 97.859 97.053 96.247 94.882 94.000 93.829 93.023 93.000 92.411 92.000 91.799 91.000 91.000 90.994 90.978 90.973 91.004 91.103 91.148 91.134 91.074 90.993 90.890 90.089 88.317 86.303 84.921 84.270 83.496 83.105 82.680 81.905 81.306 81.070 81.000 81.000 81.000 81.000 81.000 81.000 81.000 81.000 81.000 81.000 81.000 81.645 82.657 83.012 83.444 83.825 83.785 83.621 84.000 84.000 84.000 84.000 84.000 84.000 84.000 84.000 83.501 83.000 82.889 82.083 81.277 80.832 80.463 79.860 79.054 79.000 78.442 78.000 77.961 77.792 77.174 76.890 76.500 75.968 75.846 75.163 75.000 75.000 74.770 74.000 74.000 74.000 73.546 72.740 72.000 72.000 72.002 72.000 72.000 72.000 72.000 72.000 72.000 71.712 70.971 70.077 69.799 70.245 71.082 71.825 71.812 71.953 72.000 72.000 72.000 72.000 71.789 71.722 71.590 71.392 71.366 71.340 71.314 71.288 71.108 70.618 70.605 70.862 71.000 71.000 71.000 71.000 71.327 71.983 72.498 72.455 72.044 72.000 72.528 73.334 74.000 74.000 74.000 74.000 74.000 74.000 74.000 74.000 74.000 74.121 74.295 74.282 74.269 74.098 73.577 73.000 73.000 73.000 73.000 73.000 72.741 71.945 71.251 71.718 72.000 72.000 72.000 72.000 71.338 71.050 71.025 71.000 71.000 70.998 70.985 70.972 70.959 70.946 70.218 70.000 70.000 70.000 70.000 70.000 70.000 69.592 69.000 69.000 69.000 69.000 68.903 68.766 68.753 68.740 68.727 68.714 68.510 68.000 68.000 68.000 68.000 68.000 68.000 68.000 68.000 68.000 68.191 68.559 68.546 68.884 69.000 69.000 69.000 69.000 69.000 69.268 69.443 69.543 70.000 70.000 70.000 70.000 70.000 70.012 70.286 70.762 71.142 71.482 72.000 72.000 72.000 72.000 72.000 72.000 72.000 72.140 72.602 73.000 73.000 73.000 73.000 73.000 73.000 73.000 73.000 73.000 73.000 73.000 73.000 73.000 73.000 73.000 72.593 72.000 72.019 72.825 73.000 73.000 73.000 72.995 72.894 72.293 72.000 72.000 72.000 72.000 72.552 72.892 73.000 73.000 73.000 73.000 73.000 73.000 73.000 73.000 73.000 73.000 72.871 72.526 72.016 72.000 72.586 73.329 73.892 74.000 74.000 74.000 73.578 73.000 73.000 73.000 72.355 71.097 70.113 70.453 70.772 70.125 69.107 68.374 68.361 68.349 68.099 68.346 68.788 69.000 69.000 69.000 69.000 69.000 69.000 69.000 69.000 69.111 69.181 69.320 69.990 70.000 70.000 70.000 70.022 70.090 70.014 70.000 70.023 70.040 70.074 70.856 71.001 70.989 70.711
 100.000 100.000 100.000 100.000 100.000 100.000 99.988 99.781 99.731 99.850 100.000 99.975 99.716 99.205 99.326 99.835 100.476 102.062 102.925 103.394 103.433 102.984 102.152 102.073 101.755 101.696 102.166 102.975 103.000 103.588 104.000 103.887 103.414 102.595 101.776 101.219 100.770 99.977 99.446 99.329 100.080 101.000 100.935 100.129 99.323 99.605 99.948 99.130 98.311 98.199 98.186 97.854 97.140 97.010 95.625 94.512 94.000 93.845 93.039 93.000 92.968 92.594 91.815 91.009 91.000 90.394 90.000 90.214 91.041 92.653 93.046 92.648 91.831 90.938 89.929 88.491 86.983 85.726 85.000 85.000 84.449 83.611 82.766 82.215 82.021 81.472 81.133 81.000 81.000 81.000 81.000 81.000 81.000 81.000 81.000 81.000 81.000 81.393 82.112 82.553 82.913 83.324 83.295 83.114 83.504 83.916 84.000 84.000 83.854 83.421 83.408 83.395 83.198 82.818 82.323 82.034 81.293 81.000 80.682 79.876 79.070 79.000 78.863 78.760 78.654 78.031 77.846 77.348 76.934 76.684 76.009 75.892 75.349 75.000 74.786 74.000 74.000 73.405 73.026 72.756 72.049 72.850 72.339 72.000 72.000 72.004 72.051 72.071 72.084 72.038 71.660 69.935 68.287 68.230 69.343 70.675 70.802 71.551 71.787 71.692 71.482 71.250 70.631 70.444 70.140 69.696 69.683 69.670 69.869 70.000 70.000 70.000 70.000 70.646 71.000 71.112 71.474 71.858 72.620 73.451 73.852 73.417 72.624 72.158 72.512 73.318 74.000 74.000 74.000 74.000 74.000 74.000 74.000 74.000 74.000 74.000 74.000 74.000 74.000 74.000 73.593 73.000 73.000 73.000 73.000 73.000 72.757 71.951 71.145 71.084 71.115 71.102 71.089 71.076 71.020 71.000 70.709 70.024 70.011 70.000 70.000 70.000 70.000 70.000 70.000 70.000 70.000 70.000 70.000 70.000 69.916 69.513 69.000 69.000 69.000 69.000 68.578 68.000 68.000 68.000 68.000 68.000 68.000 68.000 68.000 68.000 68.000 68.000 68.000 68.000 68.000 68.000 68.000 68.054 68.421 68.858 69.000 69.000 69.000 69.000 68.594 68.457 68.653 69.079 69.413 69.405 69.392 69.379 69.501 70.012 70.543 70.879 71.000 71.242 72.000 72.000 72.000 72.000 72.000 72.000 72.000 72.000 72.092 72.173 72.251 72.926 73.000 73.000 73.000 73.000 73.000 73.000 73.000 73.000 73.000 73.000 73.000 73.000 72.609 72.000 72.003 72.809 73.000 73.000 73.000 72.967 72.161 72.000 72.000 72.000 72.000 72.000 72.000 72.378 72.774 72.761 72.748 72.735 72.722 72.709 72.734 72.977 73.000 72.815 72.422 72.000 72.000 72.000 72.570 73.594 74.386 73.567 73.542 73.811 73.594 73.000 72.991 72.570 72.172 71.368 70.426 69.973 69.499 69.137 68.535 68.000 68.000 68.000 68.000 68.495 69.000 69.000 69.000 69.000 69.000 69.000 69.000 69.000 69.000 69.000 69.000 69.166 69.972 70.000 70.000 69.656 69.280 70.000 70.000 70.000 70.000 70.000 70.001 70.012 70.002 70.000 70.000
 100.000 100.000 100.000 100.000 100.000 100.000 99.974 99.374 99.095 99.325 99.706 99.648 99.088 99.000 99.000 99.000 99.119 100.107 100.910 101.690 101.833 101.001 100.169 100.074 100.306 100.681 101.231 102.425 102.876 103.262 103.446 103.249 102.430 101.611 100.792 100.381 100.154 99.348 99.060 98.576 98.892 99.946 100.986 100.763 100.074 99.516 98.965 98.207 98.024 98.000 97.596 97.121 96.908 96.220 95.317 94.936 94.595 93.861 93.055 93.000 92.475 92.028 91.831 91.025 90.223 90.000 90.000 90.198 91.009 92.572 93.543 93.492 92.422 90.677 88.335 87.305 86.616 85.906 85.165 85.025 84.863 83.925 83.000 82.906 82.100 82.000 81.488 81.000 81.000 81.000 81.000 81.000 80.876 80.629 80.616 80.603 80.824 81.377 82.000 82.000 82.428 82.525 82.711 83.000 83.009 83.390 83.801 84.000 83.620 82.393 81.903 82.190 82.671 82.727 82.000 82.000 81.310 80.661 80.003 79.260 79.024 79.000 79.000 79.000 78.969 78.798 78.200 77.895 77.526 76.973 76.854 76.190 75.414 74.652 74.078 73.997 73.249 73.023 73.000 72.992 72.981 72.999 72.358 72.019 72.032 72.102 72.827 72.930 72.917 72.329 70.622 68.291 66.590 66.435 67.422 68.796 69.729 70.388 70.575 70.202 69.407 68.779 68.736 68.881 69.000 69.000 69.000 69.000 69.806 70.355 70.368 70.388 70.718 71.444 71.839 72.212 73.363 73.838 73.980 74.240 74.501 74.432 73.639 72.477 72.496 73.302 74.000 74.000 74.000 74.000 74.000 74.000 74.000 74.000 74.000 74.000 74.118 74.698 74.730 74.308 73.609 73.000 73.000 73.000 73.000 73.000 72.773 71.967 71.161 70.438 70.115 70.102 70.089 70.076 70.064 70.051 70.027 70.000 70.000 69.999 69.986 69.973 69.960 69.947 69.934 69.964 69.968 69.896 69.883 69.870 69.369 69.000 69.000 69.000 69.000 68.876 68.463 68.000 68.000 68.000 68.000 68.000 67.928 67.704 67.953 68.000 68.000 68.000 68.000 68.000 68.000 68.000 68.000 68.060 68.500 68.869 68.749 68.671 68.931 68.513 68.118 68.000 68.160 68.431 68.418 68.868 69.000 69.000 69.196 70.002 70.808 71.000 71.000 71.068 71.289 71.277 71.738 72.000 72.000 72.000 72.000 72.000 72.000 72.000 72.092 72.898 73.000 73.000 72.719 72.096 72.083 72.070 72.058 72.375 73.000 73.000 73.000 72.993 72.613 72.000 72.000 72.747 72.971 73.000 73.000 72.983 72.177 71.915 71.851 71.839 71.826 71.813 71.800 71.886 72.000 72.000 72.000 72.000 72.000 71.913 71.771 72.308 72.579 72.313 72.000 72.000 72.000 72.000 72.329 72.941 73.402 72.584 72.898 73.309 73.127 72.504 72.490 72.092 71.672 71.263 70.775 69.969 69.163 68.615 68.214 68.000 68.039 68.564 68.663 68.831 69.000 69.000 69.000 69.000 69.000 69.000 69.000 69.000 69.000 69.000 69.000 69.150 69.956 70.000 70.000 69.626 69.019 69.091 69.079 69.625 70.000 70.000 70.000 70.000 70.000 69.990 69.982
 100.134 100.002 100.000 100.000 100.000 100.000 100.000 100.000 99.369 99.000 99.000 99.000 99.000 98.780 98.654 98.641 98.628 98.615 99.018 99.471 99.555 99.066 98.598 98.870 99.526 100.332 101.069 101.458 102.618 103.000 102.800 102.266 101.447 101.090 100.414 99.758 99.296 98.998 98.468 98.127 97.845 97.904 98.919 100.045 99.619 98.801 98.177 98.000 98.000 98.000 97.519 96.763 96.146 96.015 95.295 95.000 94.683 93.877 93.071 92.317 92.026 91.669 90.879 90.060 90.001 89.992 89.979 90.142 90.895 91.675 92.499 92.474 91.167 88.745 87.308 87.000 87.000 86.758 85.952 85.146 84.340 83.534 83.000 82.941 82.341 82.083 81.643 81.205 81.000 81.000 81.000 80.819 80.429 80.000 80.000 80.000 80.328 80.939 81.564 81.551 81.539 81.803 82.391 83.000 83.000 83.000 83.283 83.448 83.110 81.967 81.161 81.645 82.451 82.743 82.000 82.000 80.875 80.165 79.714 79.000 79.000 79.000 79.000 79.000 79.000 79.000 78.266 77.562 76.830 76.036 75.336 75.169 74.554 73.735 73.098 73.085 73.015 73.000 73.000 73.000 73.000 73.000 72.995 72.982 72.961 72.867 72.081 71.884 71.796 71.196 69.637 68.098 66.580 66.000 66.301 67.177 68.485 68.601 68.575 68.368 68.000 68.000 68.000 68.555 69.000 69.000 69.000 69.256 70.710 71.709 71.735 71.763 72.595 73.427 73.838 74.121 75.000 75.000 73.750 73.250 73.759 74.460 74.063 73.013 72.765 73.286 74.000 74.000 74.000 74.000 74.000 74.000 74.000 74.000 74.000 74.000 74.045 74.271 74.827 74.431 73.625 73.000 73.000 73.000 73.000 73.000 72.789 71.983 71.177 70.371 70.000 70.000 70.000 70.000 70.000 70.000 70.000 70.000 70.000 69.312 69.000 69.000 69.000 69.000 69.000 69.524 69.670 69.000 69.000 69.000 69.000 69.000 69.000 69.000 69.000 68.416 68.000 68.000 68.000 68.000 68.000 68.000 67.775 67.022 67.567 67.664 67.651 67.638 67.625 67.612 67.869 67.802 67.695 67.960 67.594 68.238 68.256 68.160 68.436 68.035 68.000 68.000 68.000 68.000 68.000 68.310 68.393 68.612 69.180 69.986 70.792 71.000 71.000 71.000 71.000 71.000 71.628 72.000 72.000 72.000 72.000 72.000 72.000 72.000 72.012 72.131 72.135 72.122 72.077 72.000 72.000 72.000 72.000 72.015 72.032 72.019 72.006 72.000 71.993 71.968 71.955 71.942 72.388 72.730 72.826 72.890 72.071 71.335 71.000 71.000 71.000 71.000 71.000 71.353 71.775 71.776 71.966 72.000 71.868 71.508 70.973 70.717 71.143 71.491 71.757 72.000 72.000 72.000 72.000 72.200 72.484 72.025 72.414 72.263 71.661 71.098 71.484 71.479 71.187 71.000 70.791 69.985 69.179 68.748 68.347 68.000 68.045 68.851 69.000 69.000 69.000 69.000 69.000 69.000 69.000 69.000 69.000 69.000 69.000 69.000 69.000 69.023 69.148 69.783 69.520 69.076 69.000 69.000 69.000 69.039 69.054 69.227 70.000 69.207 69.003 69.000 69.219
 100.969 100.032 100.000 100.000 100.000 100.000 100.000 100.000 99.385 99.000 99.000 99.000 99.000 98.356 98.000 98.000 98.000 98.000 98.000 97.803 97.577 97.604 97.954 98.704 99.268 99.828 100.560 100.963 102.081 102.460 102.292 101.848 101.042 101.000 100.430 99.392 98.369 98.356 97.550 97.330 96.912 96.368 96.604 97.608 97.629 97.720 97.817 97.226 97.213 97.200 97.100 96.729 95.936 95.248 95.042 95.000 94.699 93.797 92.251 92.020 91.506 90.714 90.027 90.001 89.256 88.993 88.980 88.967 88.954 89.673 90.982 90.964 89.156 86.889 86.876 86.947 86.937 86.611 85.792 84.973 84.284 83.743 83.455 83.481 83.507 83.039 82.705 82.300 81.583 81.351 81.098 80.491 80.000 80.000 80.000 80.000 80.000 80.199 80.565 80.552 80.539 80.825 81.401 82.000 81.974 82.365 82.784 83.000 82.789 81.983 81.177 81.629 82.167 82.130 81.328 80.786 80.227 80.000 79.917 79.653 79.085 79.000 79.000 78.772 78.146 77.500 76.114 75.469 75.023 74.305 74.159 73.493 73.180 73.071 73.000 73.000 73.000 73.000 72.629 72.034 72.021 72.008 71.992 71.964 71.713 70.911 70.839 70.193 69.423 68.650 67.831 67.012 66.373 66.147 66.399 67.000 67.000 67.000 67.000 67.315 68.000 68.000 68.000 68.390 68.711 68.789 69.288 70.591 72.341 73.354 73.433 73.755 74.267 74.761 75.000 75.000 74.993 74.624 72.646 71.741 72.128 72.519 73.323 72.807 72.706 73.270 74.000 74.000 74.000 74.000 74.000 74.000 74.000 74.000 74.000 74.000 74.000 74.000 74.747 74.857 74.125 73.000 73.000 73.000 73.000 73.000 72.805 71.999 71.193 70.387 70.000 70.000 70.000 70.000 70.000 70.000 69.755 69.026 69.013 69.000 69.000 69.000 69.000 69.000 69.000 69.469 69.624 69.000 69.000 69.000 69.000 69.000 69.000 69.000 68.852 68.343 68.000 68.000 68.000 68.000 68.000 68.000 67.853 67.305 67.058 67.000 67.000 67.000 67.000 67.000 67.394 67.315 67.154 67.519 67.065 67.687 68.000 68.000 68.000 68.000 68.000 68.000 68.000 68.000 68.000 68.000 68.000 68.358 69.060 69.344 70.118 70.329 70.582 70.865 70.290 69.695 70.141 70.816 71.409 72.000 72.000 72.000 72.000 72.000 72.000 72.000 72.000 72.000 72.000 72.000 72.000 72.000 72.000 72.000 72.000 72.000 72.000 71.994 71.638 70.964 70.913 70.885 69.805 69.715 71.066 71.768 71.158 71.000 70.941 70.839 70.829 70.967 71.000 71.000 71.000 71.034 71.637 71.736 71.389 71.000 70.926 70.120 70.000 70.492 71.193 71.633 71.621 71.608 71.595 71.582 71.569 71.556 71.543 70.979 70.333 70.083 70.477 70.479 70.466 70.453 70.355 70.000 69.195 69.000 68.583 68.000 68.011 68.293 68.338 68.627 69.000 69.000 69.000 69.000 69.000 69.000 69.000 69.000 69.000 69.000 69.000 69.000 69.000 69.106 69.061 69.000 69.000 69.000 69.000 69.000 69.000 69.007 69.029 69.003 69.000 69.000 69.000
 101.748 100.424 100.090 100.000 100.000 100.000 100.000 100.000 99.561 99.167 99.000 99.000 99.000 98.372 98.000 98.000 98.000 98.000 98.000 97.536 97.000 97.043 97.486 98.544 99.000 99.300 100.053 100.443 101.191 101.743 102.000 101.864 101.059 100.558 99.842 98.886 98.000 98.000 97.223 97.000 96.611 95.864 95.293 96.086 96.716 97.106 97.186 97.000 97.000 97.000 96.635 95.920 95.152 95.020 95.000 94.580 93.825 92.998 92.112 91.347 90.550 89.731 89.032 89.019 88.274 87.993 87.980 87.967 87.954 87.896 88.384 88.061 86.740 86.013 86.000 86.516 86.447 85.662 84.987 84.333 84.201 84.741 85.455 85.480 85.506 85.357 84.945 84.315 83.535 82.755 81.747 80.681 80.000 80.000 80.000 80.000 80.000 80.000 80.000 80.000 80.000 80.000 80.184 80.501 80.488 80.843 81.506 81.898 81.787 81.422 80.603 81.009 81.384 81.147 80.347 80.057 80.000 80.000 80.000 79.940 79.134 78.508 77.898 77.199 76.298 74.833 73.764 73.380 73.298 73.164 73.151 73.037 73.000 73.000 72.865 72.127 72.073 72.060 71.674 71.034 71.022 71.009 70.392 69.965 69.730 68.899 68.113 67.931 67.918 67.666 66.852 66.131 66.657 67.000 67.000 67.000 67.000 67.000 67.104 67.523 68.237 68.250 68.075 68.000 68.000 68.269 69.881 72.239 73.552 74.000 74.164 74.970 75.000 74.764 74.582 74.485 74.112 73.280 71.800 71.000 71.000 71.044 72.235 72.167 72.448 73.254 74.000 74.000 74.000 74.000 74.000 74.000 74.000 74.466 74.333 74.000 74.000 74.000 74.199 74.259 74.077 73.653 73.035 73.000 73.000 73.000 72.821 72.015 71.209 70.403 70.000 70.000 70.000 70.000 70.000 69.590 69.030 69.000 69.000 69.000 69.000 69.000 69.000 69.000 69.000 69.000 69.000 69.000 69.000 69.000 69.000 69.000 69.000 69.000 68.543 68.299 68.219 68.194 68.007 68.000 68.157 68.284 68.239 68.000 67.195 67.000 67.000 67.000 67.000 67.000 67.000 67.000 67.000 67.000 67.000 67.671 68.000 67.861 67.497 67.484 67.471 67.733 68.000 68.000 68.000 68.000 68.000 68.130 68.368 68.355 68.603 69.039 69.434 69.429 68.598 67.766 67.688 68.159 69.084 70.464 71.072 71.201 71.188 71.175 71.199 71.872 72.000 72.000 72.000 72.000 72.000 72.000 72.000 71.716 71.033 71.020 71.007 70.992 70.642 69.840 69.058 69.000 69.000 69.327 69.920 69.997 70.681 70.866 70.523 70.000 70.000 70.655 70.801 70.877 71.000 71.000 71.000 71.000 71.000 71.000 70.942 70.136 70.000 70.314 70.746 70.968 70.661 70.608 70.800 71.000 71.000 71.000 70.667 70.247 70.000 70.000 70.000 70.000 70.000 70.000 69.901 69.438 69.087 68.644 68.233 68.000 68.000 68.000 68.414 68.815 69.000 69.000 69.000 69.000 69.000 68.799 68.235 68.222 68.751 68.606 68.184 68.171 68.158 68.756 69.000 69.000 69.000 69.000 68.316 68.581 69.000 69.000 69.000 69.000 69.000 68.994 69.000
 102.141 102.010 100.648 100.090 99.923 99.772 99.759 99.943 100.000 99.612 99.000 99.000 99.000 98.591 98.200 98.000 98.000 98.000 97.746 97.326 97.000 97.000 97.000 98.034 98.752 99.284 100.045 100.460 100.859 101.508 102.000 101.881 101.075 100.269 99.463 98.657 97.906 97.386 97.082 96.621 96.199 95.821 95.015 95.221 95.863 96.253 96.399 96.989 96.355 96.201 96.107 95.761 95.000 95.000 94.433 93.661 92.842 92.023 91.204 90.385 89.566 89.032 88.899 88.108 87.290 87.000 87.000 86.996 86.957 86.239 86.000 86.000 86.000 86.000 85.904 85.864 85.521 85.000 85.000 85.000 85.123 85.960 87.051 87.233 87.042 86.359 86.000 85.821 85.245 84.452 82.988 81.389 80.256 80.000 80.000 79.723 79.592 79.579 79.566 79.553 79.540 79.527 79.514 79.575 79.977 80.000 80.262 80.449 80.436 80.423 80.086 80.237 80.384 80.294 80.000 80.000 80.000 79.706 79.142 78.544 77.712 76.400 75.303 74.458 73.653 73.268 73.064 73.000 73.000 73.000 73.000 73.000 73.000 72.709 71.966 71.147 70.383 69.604 69.126 69.070 69.044 68.250 67.996 67.983 67.783 67.001 67.000 66.958 66.918 66.704 66.000 66.000 66.555 66.854 66.841 66.838 66.975 67.133 67.788 68.667 69.216 69.026 68.484 68.276 68.288 68.502 69.872 71.952 73.196 73.647 73.728 74.213 74.216 73.853 73.427 73.037 72.565 71.754 70.935 70.711 71.000 71.007 71.392 71.466 72.121 73.238 74.000 74.000 74.000 74.000 74.000 74.000 74.000 74.685 74.509 74.000 74.072 74.650 74.207 74.000 74.000 73.867 73.061 73.000 73.000 73.000 72.837 72.031 71.225 70.419 70.000 70.000 70.000 70.000 70.000 69.978 69.747 69.000 69.000 69.000 69.000 69.000 69.000 69.000 69.000 69.000 69.000 69.000 69.000 69.000 69.000 68.952 68.853 68.986 69.730 69.575 69.144 68.852 68.046 68.000 68.565 69.000 68.823 68.017 67.211 67.000 67.000 67.000 67.000 67.000 67.000 67.000 67.000 67.000 67.000 67.655 67.780 67.374 67.000 67.000 67.000 67.225 67.446 67.491 67.947 68.000 68.000 68.000 68.000 68.000 68.000 68.182 68.317 68.142 67.323 67.063 67.000 67.098 67.478 68.451 69.232 69.402 69.376 69.351 69.329 69.424 69.410 69.762 70.222 70.248 70.960 71.072 71.059 71.033 70.916 70.125 70.008 69.490 68.982 68.969 68.956 68.985 69.000 69.000 69.133 69.850 69.971 70.000 70.000 70.000 70.000 70.000 69.882 70.274 71.000 71.000 71.000 71.000 71.000 71.000 70.958 70.152 69.786 69.817 70.172 70.589 70.076 70.000 70.292 70.583 70.570 70.557 70.156 70.000 69.843 69.506 69.493 69.480 69.467 69.454 69.370 69.014 69.000 68.421 68.000 68.000 68.000 68.000 68.206 68.606 69.000 68.981 68.406 68.738 68.671 68.186 68.000 68.000 68.140 68.103 68.000 68.000 68.000 68.699 69.000 69.000 69.000 69.000 68.272 68.037 68.056 68.043 68.030 68.017 68.004 68.367 68.982
 103.044 102.251 101.458 100.665 99.872 99.193 99.011 99.568 99.734 99.453 99.000 99.000 99.000 99.000 98.598 98.000 97.995 97.686 97.226 97.000 97.000 96.981 96.619 97.195 97.988 99.041 100.610 101.843 101.691 101.501 101.612 101.897 101.091 100.285 99.479 98.673 97.867 97.061 96.511 95.780 95.075 94.561 94.302 94.279 94.847 95.542 96.046 96.227 96.042 95.512 95.189 95.137 95.000 95.000 94.360 93.554 92.748 91.942 91.136 89.708 89.031 88.731 87.945 87.126 87.002 87.000 87.000 86.882 86.076 86.000 86.000 86.000 86.014 86.105 85.549 85.253 85.093 85.000 85.000 85.000 85.595 86.316 86.981 87.750 87.135 86.375 86.000 86.069 86.261 85.468 84.020 82.421 80.994 79.973 79.664 79.191 79.000 79.000 78.955 78.594 78.212 78.055 78.188 78.634 79.427 79.476 79.463 79.646 80.000 80.000 80.000 80.000 80.000 80.000 80.000 79.474 78.926 77.941 76.546 75.169 74.891 73.993 73.397 73.181 73.000 73.000 73.000 73.000 72.768 72.165 72.152 72.139 72.126 71.802 70.877 69.321 68.419 68.090 67.723 67.071 67.045 67.012 66.998 66.984 66.971 66.958 66.945 66.377 66.000 66.000 66.000 66.000 66.000 66.000 66.038 66.214 67.033 67.981 69.148 70.000 69.945 69.341 69.262 69.275 69.288 69.372 69.937 71.195 72.004 72.295 72.269 72.243 72.217 72.191 71.958 71.570 71.557 70.770 70.223 70.386 71.000 71.000 71.000 71.000 71.604 72.662 73.443 73.903 74.000 74.000 74.000 74.000 74.000 74.226 74.170 74.000 74.087 74.893 74.810 74.740 74.519 73.883 73.077 73.000 73.000 73.000 72.853 72.047 71.241 70.435 70.000 70.000 70.000 70.000 70.000 70.000 69.794 69.000 69.000 69.000 69.000 69.000 68.998 68.957 68.978 69.000 69.000 69.000 69.000 69.000 68.931 68.596 68.085 68.745 69.384 69.590 69.309 68.668 68.047 68.000 68.401 68.717 68.591 68.023 67.227 67.000 67.000 67.000 67.000 67.000 67.000 67.000 67.000 67.000 67.000 67.343 67.291 67.000 67.000 67.000 67.000 67.000 67.000 67.038 67.375 67.821 68.000 68.000 68.000 68.000 68.000 68.000 67.768 67.260 67.014 67.000 67.000 67.000 67.042 67.223 67.383 67.403 67.377 67.352 67.326 67.300 67.274 67.302 67.334 67.374 68.879 69.145 69.120 69.094 69.066 69.024 69.008 68.508 68.000 68.000 68.000 68.713 69.000 69.000 69.012 69.101 69.684 69.867 69.854 69.841 69.828 69.815 69.338 69.526 70.329 70.291 70.252 70.214 70.517 71.000 70.974 70.168 69.362 69.293 69.736 70.000 70.000 70.000 70.000 70.000 70.000 70.000 70.000 69.764 69.209 68.506 68.493 68.480 68.468 68.640 68.919 68.457 68.416 68.176 68.000 68.000 68.000 68.000 68.000 68.130 68.313 68.297 68.053 68.171 68.149 68.000 68.000 68.000 68.000 68.000 68.000 68.000 68.000 68.100 68.557 69.000 69.000 69.000 68.942 68.448 68.000 68.000 68.000 68.000 68.000 68.000 68.157
 103.914 103.250 102.473 101.680 100.887 100.094 99.302 99.065 99.000 99.000 99.000 99.000 99.000 98.808 98.403 97.932 97.631 97.121 97.000 97.000 97.000 96.972 96.166 96.345 96.972 98.146 100.116 101.702 101.632 100.986 100.730 101.447 101.561 100.478 99.190 98.264 97.883 97.077 95.793 94.797 94.210 94.000 94.000 94.000 94.565 95.094 95.241 95.228 95.215 95.082 95.000 95.000 95.000 95.000 94.376 93.193 92.085 91.958 91.152 89.692 88.567 87.780 87.031 87.002 87.000 87.000 87.000 86.901 86.132 86.057 86.070 86.110 86.337 87.259 88.110 87.232 85.835 85.000 85.000 85.000 85.579 86.000 86.148 86.759 86.950 86.552 86.278 86.448 86.981 86.431 85.052 83.453 81.854 80.291 79.189 79.000 79.000 79.000 78.876 77.709 76.842 76.528 76.826 77.619 78.412 78.858 79.000 79.153 79.437 79.424 79.411 79.738 79.772 79.262 78.730 77.905 76.677 75.434 74.346 73.295 73.282 73.557 73.744 73.579 73.000 73.000 73.000 72.628 71.913 71.165 71.152 71.139 70.699 70.193 69.898 68.273 68.021 67.513 67.033 67.000 67.000 67.000 66.450 66.000 66.000 66.000 66.000 66.000 66.000 66.000 66.000 66.000 66.000 66.000 66.221 67.031 67.986 69.348 70.000 70.000 70.000 70.000 70.000 70.000 70.000 70.000 70.000 70.470 70.661 70.648 70.635 70.622 70.609 70.596 70.583 70.570 70.557 70.132 70.000 70.370 71.000 71.000 71.000 71.000 71.400 72.205 73.011 73.817 74.000 74.000 74.000 74.000 74.000 74.433 74.365 74.000 74.071 74.877 75.000 75.000 74.705 73.899 73.093 73.000 73.000 73.000 72.869 72.063 71.257 70.451 70.000 70.000 70.000 70.000 69.460 69.053 69.033 69.000 69.000 69.000 68.995 68.976 68.938 68.160 68.598 68.958 68.978 68.898 68.886 68.873 68.452 68.000 68.000 68.000 68.000 68.000 68.000 68.000 68.000 68.000 68.000 68.000 67.957 67.707 67.165 67.000 67.000 67.000 67.000 67.000 67.000 67.000 67.000 67.000 67.000 67.000 67.000 67.000 67.000 67.000 67.000 67.000 67.000 67.000 67.000 67.682 68.000 67.818 67.370 67.357 67.344 67.331 67.215 67.000 67.000 67.000 67.000 67.000 67.000 67.000 67.000 67.000 67.000 67.000 67.000 67.000 67.000 67.000 67.000 67.028 67.903 68.073 68.477 69.238 69.912 69.136 68.339 68.000 68.000 68.000 68.000 68.697 69.034 69.081 69.188 69.831 69.240 69.000 69.000 69.000 69.000 69.000 68.889 68.499 68.000 68.000 68.000 68.000 68.977 70.425 70.392 69.813 69.052 68.806 69.234 70.000 70.000 69.745 69.597 69.584 69.571 69.558 69.545 69.273 68.706 68.000 68.000 68.000 68.000 68.147 68.385 68.028 68.000 68.000 68.000 68.000 68.000 68.000 68.000 68.000 68.000 68.000 68.000 68.000 68.000 68.000 68.000 68.000 68.000 68.000 68.000 68.000 68.000 68.000 68.473 69.000 69.000 69.000 69.000 68.965 68.652 68.000 68.000 68.000 68.000 68.000 68.000
 104.161 104.174 103.489 102.696 101.903 101.110 100.317 99.524 99.124 99.000 99.000 99.000 98.760 98.292 98.000 97.824 97.018 97.000 97.000 97.000 97.000 96.989 96.183 96.287 96.496 96.756 97.565 98.725 99.243 99.421 99.714 100.507 101.300 100.044 98.714 98.000 97.836 96.511 94.920 93.813 93.319 93.397 93.955 94.000 94.147 94.519 95.000 95.000 95.000 95.000 95.000 95.000 95.000 95.000 94.392 93.534 92.693 91.974 91.168 89.724 88.556 87.750 87.000 87.000 87.000 87.000 87.005 87.034 87.083 87.114 87.140 87.450 88.327 89.952 90.938 89.597 87.129 85.137 85.008 85.000 85.563 86.000 86.000 86.000 86.787 87.000 87.000 87.000 87.000 87.000 85.959 84.484 82.885 81.286 79.687 79.137 79.000 78.889 78.426 76.801 75.546 75.287 75.953 77.101 77.906 78.339 78.464 78.629 79.000 79.000 79.000 78.889 78.417 77.485 76.135 75.269 74.231 73.519 73.381 73.703 73.718 74.339 74.436 73.780 72.980 72.349 72.205 72.107 71.750 71.000 71.000 71.000 70.527 69.752 69.007 68.118 68.000 67.497 67.000 67.000 67.000 66.280 66.000 66.000 66.000 66.000 66.000 66.000 66.000 66.000 66.000 66.000 66.000 66.058 66.362 67.192 68.817 69.697 70.000 70.000 70.000 70.000 70.170 70.274 70.287 70.300 70.313 70.104 70.000 70.000 70.000 70.000 70.000 70.000 70.000 70.000 70.000 70.000 70.000 70.354 71.079 71.489 71.520 71.533 71.720 72.189 72.995 73.801 74.363 74.610 74.487 74.000 74.000 74.637 74.856 74.688 74.717 74.960 75.000 74.650 73.969 73.215 73.024 73.000 73.000 73.000 72.885 72.079 71.273 70.467 70.000 70.000 70.000 70.000 69.438 69.000 69.000 69.000 69.000 69.000 68.595 68.000 68.000 68.000 68.000 68.396 68.699 68.000 68.000 68.000 68.000 68.000 68.000 68.000 68.000 68.000 68.000 68.000 68.000 67.818 67.731 67.718 67.614 67.045 67.000 67.000 67.000 67.000 67.000 67.000 67.000 67.000 67.000 67.000 67.000 67.000 67.000 67.000 67.000 67.000 67.000 67.000 67.000 67.000 67.000 67.272 67.396 67.276 67.000 67.000 67.000 67.000 67.000 67.000 67.000 67.000 67.000 67.000 67.000 67.000 67.000 67.000 67.000 67.000 67.000 67.000 67.000 67.000 67.000 67.001 67.071 67.074 67.890 69.233 69.961 69.155 68.349 67.998 67.988 68.000 68.000 68.719 69.555 70.057 69.901 69.095 68.915 68.868 68.855 68.842 68.829 68.816 68.364 68.000 68.000 68.000 68.000 68.000 68.278 68.713 68.700 68.687 68.265 68.273 68.867 69.636 69.623 69.222 69.000 69.000 69.000 69.000 69.000 69.000 68.856 68.452 68.056 68.000 68.000 68.000 68.000 68.000 68.000 68.000 68.000 67.911 67.398 67.842 68.000 68.000 68.000 68.000 68.000 68.000 68.000 68.000 68.000 68.000 68.000 68.000 68.000 68.000 68.000 68.000 68.061 68.352 68.939 68.209 68.083 68.070 68.040 68.000 68.000 68.000 68.000 68.000 68.000
 105.150 105.022 104.318 103.512 102.769 102.126 101.333 100.361 99.482 99.000 99.000 99.000 98.258 98.000 98.000 97.840 97.034 97.000 97.000 97.000 97.000 97.000 96.199 96.607 96.782 96.379 96.000 95.981 96.588 97.368 98.148 98.866 98.716 98.095 97.607 97.213 96.574 94.936 93.754 93.165 93.210 93.728 93.977 94.000 94.000 94.086 94.242 94.229 94.216 94.203 94.488 94.857 94.181 94.151 94.056 93.950 93.321 91.080 89.524 88.479 88.034 87.766 87.000 87.000 87.000 87.005 87.281 88.102 88.957 89.151 89.174 89.141 89.285 90.821 92.337 90.865 88.077 86.031 85.238 85.186 85.528 85.863 86.000 86.000 86.771 87.152 87.171 87.000 87.000 87.000 86.593 85.516 83.917 82.318 80.719 79.757 79.227 78.647 77.458 75.834 74.209 74.224 75.422 76.587 77.380 77.841 78.000 78.139 78.438 78.425 77.985 77.266 76.227 74.922 73.789 73.432 73.521 73.928 74.437 74.698 74.717 74.890 74.602 73.642 72.229 72.040 72.000 71.655 71.137 71.000 71.000 71.000 70.543 69.737 68.993 68.923 68.295 67.969 67.672 67.000 67.000 66.289 66.002 66.010 66.000 66.000 66.000 66.000 66.000 66.000 66.000 66.000 66.000 66.383 67.189 67.995 69.454 69.923 70.000 70.000 70.000 70.000 70.636 71.000 71.000 71.016 71.269 70.443 70.000 70.098 70.364 70.377 70.390 70.403 70.416 70.429 70.442 70.455 70.219 70.338 71.144 71.950 71.608 71.767 72.000 72.173 72.979 73.785 74.591 75.000 74.797 74.000 74.000 74.621 75.000 75.000 75.000 75.000 75.000 74.543 73.935 73.712 73.097 73.000 73.000 73.000 72.738 70.571 70.794 70.483 70.000 70.000 70.000 70.000 69.963 69.612 69.000 69.000 69.000 68.425 68.000 68.000 68.000 68.000 68.000 68.000 68.000 68.000 68.000 68.000 68.000 68.000 68.000 68.000 68.000 68.000 67.940 67.770 67.757 67.227 67.000 67.000 67.000 67.000 67.000 67.000 67.000 67.000 67.000 67.000 67.000 67.000 67.000 67.000 67.000 67.000 67.000 67.000 67.000 67.000 67.000 67.000 67.000 67.000 67.000 67.000 67.000 67.000 67.000 67.000 67.000 67.000 67.000 67.000 67.000 67.000 67.378 67.746 67.758 67.771 67.204 67.000 67.000 67.000 67.000 67.000 67.000 67.000 67.000 67.000 66.270 66.074 66.111 66.155 66.209 68.504 68.365 67.559 67.243 67.973 67.994 69.330 70.503 70.781 69.917 69.111 68.305 68.000 68.000 68.000 68.000 68.000 68.000 68.000 68.000 68.000 68.000 68.000 68.000 68.000 68.000 68.000 68.000 68.000 68.131 68.639 68.930 69.000 69.000 69.000 69.000 69.000 69.000 69.000 69.000 68.932 68.126 68.000 68.000 68.159 68.502 68.055 68.000 68.000 67.804 67.331 67.024 67.739 68.000 68.000 68.000 68.000 68.000 68.416 68.456 68.000 68.000 68.000 68.000 68.000 68.000 68.000 68.000 68.000 68.000 68.030 68.103 68.014 68.000 68.000 68.000 68.000 68.000 68.000 68.000 67.995 68.000
 105.946 105.140 104.458 103.727 103.153 102.916 102.110 100.608 99.498 99.000 99.000 99.000 98.274 98.000 98.000 97.907 97.400 97.093 97.000 97.000 96.927 96.576 96.119 96.320 96.528 96.410 95.991 95.185 95.296 95.661 96.133 96.857 96.490 96.411 96.123 95.507 94.650 93.529 93.111 93.000 93.094 93.307 93.294 93.281 93.268 93.255 93.242 93.229 93.216 93.203 92.972 92.374 91.529 91.455 91.912 91.917 90.941 89.212 88.304 88.029 88.000 87.990 87.965 87.978 87.991 88.006 88.282 89.167 90.805 91.778 91.666 90.864 90.163 90.805 91.406 90.296 88.430 87.065 86.412 86.102 85.469 85.266 85.808 85.988 86.755 87.561 87.734 87.239 87.006 87.000 87.000 86.342 84.949 83.353 82.060 80.922 79.806 78.632 77.338 75.380 73.699 73.698 74.779 75.572 76.365 77.158 77.464 77.451 77.328 76.387 75.945 75.283 74.327 73.406 73.621 73.652 74.211 75.030 75.691 75.704 75.165 74.580 73.876 73.011 72.008 72.000 72.000 71.921 71.820 71.814 71.144 71.000 70.559 69.972 69.898 69.911 69.259 68.937 68.673 67.963 67.976 67.294 67.001 66.693 66.000 66.000 66.000 66.000 66.000 66.000 66.000 66.000 66.000 66.367 67.173 67.979 68.784 69.590 70.000 70.000 70.000 70.000 70.782 71.273 71.286 71.314 71.629 70.797 70.338 70.521 71.000 71.000 71.000 70.804 70.706 71.000 71.000 71.000 70.484 70.167 70.635 71.428 71.125 71.545 72.000 72.157 72.963 74.218 74.829 74.768 74.307 74.002 74.000 74.605 75.000 75.000 75.000 75.000 74.539 74.146 74.000 73.947 73.141 73.000 73.000 73.000 72.958 72.579 70.884 70.066 70.000 70.000 70.000 70.000 70.000 69.664 69.000 69.000 69.000 68.440 68.000 68.000 68.000 68.000 68.000 68.000 68.000 68.000 68.000 68.000 68.000 68.000 68.000 68.000 67.876 67.797 67.579 67.000 67.000 67.000 67.000 67.000 67.000 67.000 67.000 67.000 67.000 67.000 67.000 67.000 67.000 67.000 67.000 67.000 67.000 67.000 67.000 67.000 67.000 67.000 67.000 67.000 67.000 67.000 67.000 67.000 67.000 67.000 67.000 67.000 67.000 66.686 66.507 67.000 67.000 67.000 67.500 68.000 68.000 68.000 67.276 67.000 67.000 67.000 67.000 67.000 67.000 67.000 67.000 67.000 66.216 66.000 66.000 66.000 66.015 67.645 68.004 67.576 67.012 67.036 67.808 69.209 70.776 71.339 69.840 69.021 68.283 68.000 68.000 68.000 68.000 68.000 68.000 68.000 68.000 68.000 68.000 68.000 68.000 68.000 68.000 68.000 68.000 68.000 68.065 68.361 68.874 69.000 69.000 69.000 69.000 69.000 69.000 69.000 68.882 68.482 68.070 68.000 68.000 68.276 69.009 69.123 69.164 68.595 67.694 67.000 67.000 67.256 67.690 68.000 67.903 67.339 67.289 67.836 68.167 67.872 67.255 67.225 67.212 67.516 67.836 67.174 67.161 67.148 67.503 68.000 68.000 68.000 68.000 68.000 68.000 67.936 67.156 67.019 67.006 67.290 68.000
 105.962 105.156 105.000 104.544 103.738 102.932 102.126 100.641 99.514 99.000 99.000 99.000 98.291 98.000 98.000 98.000 98.000 97.542 97.394 97.264 96.843 96.037 96.000 96.000 96.000 96.091 96.494 96.120 95.414 94.780 94.548 94.888 95.326 95.038 94.356 93.676 93.353 93.051 93.000 92.686 92.321 92.308 92.295 92.282 91.903 91.512 91.486 91.460 91.434 91.408 91.046 90.214 89.382 89.304 89.356 89.332 89.187 89.004 88.216 88.000 88.372 89.144 89.922 89.160 88.991 89.433 90.261 91.104 92.694 93.613 93.476 92.417 90.926 90.033 89.282 89.000 88.709 88.000 88.000 86.582 85.485 85.068 85.323 85.949 86.554 87.282 87.821 87.888 87.328 87.073 87.000 86.619 85.693 84.379 83.278 82.028 80.584 79.021 77.511 75.438 73.731 73.440 74.246 75.052 75.858 76.317 76.465 76.301 75.760 74.586 74.413 73.900 73.456 73.738 74.557 74.652 74.842 75.108 75.309 75.297 74.530 73.711 72.892 72.203 72.005 72.000 72.000 72.000 72.000 71.993 71.187 71.000 70.945 70.680 70.000 70.000 69.950 69.936 69.688 68.962 68.975 68.309 67.516 66.723 66.024 66.004 66.000 66.000 66.000 66.000 66.000 66.000 66.000 66.300 67.000 67.793 68.586 69.491 70.000 70.000 70.000 70.000 71.208 71.888 71.714 71.686 71.118 71.000 71.000 71.000 71.000 71.000 70.742 70.317 70.161 70.572 70.559 70.546 70.267 70.000 70.112 70.918 71.000 71.529 72.000 72.141 72.947 74.067 74.404 74.248 74.000 74.000 74.000 74.589 75.000 75.000 75.000 75.000 74.830 74.425 74.000 73.963 73.157 73.000 73.000 73.000 73.000 73.000 70.964 70.000 70.000 70.000 70.000 70.000 69.521 69.038 69.000 69.000 69.000 68.456 68.000 68.000 68.000 68.000 68.000 68.000 68.000 68.000 68.000 68.000 68.000 68.000 67.996 67.853 67.297 67.000 67.000 67.000 67.000 67.000 67.000 67.000 67.000 67.000 67.000 67.000 67.000 67.000 67.000 67.000 67.000 67.000 67.000 67.000 67.000 67.000 67.000 67.000 67.000 67.000 67.000 67.000 67.000 67.000 67.000 67.000 67.000 67.000 67.000 67.000 66.576 66.182 66.083 66.353 66.910 67.000 67.484 68.000 68.000 68.000 67.292 67.000 67.000 67.000 67.000 67.000 67.000 67.000 67.000 67.000 66.232 66.000 66.000 66.000 66.000 67.595 68.000 68.000 67.785 67.000 67.000 67.633 68.820 69.615 68.856 68.038 67.882 67.869 67.896 68.000 68.000 68.000 67.902 67.792 67.779 67.766 67.931 68.137 68.364 68.531 68.314 68.311 68.324 68.337 68.520 69.339 69.082 69.000 68.842 68.586 68.573 68.560 68.547 68.534 68.401 68.000 68.000 68.000 68.000 68.260 69.139 70.863 71.557 70.816 69.181 67.561 67.062 67.000 67.513 68.000 67.875 67.069 67.000 67.150 67.264 67.212 67.009 67.000 67.000 67.076 67.152 67.002 67.000 67.000 67.055 67.123 67.110 67.097 67.084 67.071 67.058 67.043 67.005 67.000 67.000 67.275 68.000
 105.975 105.029 104.815 104.362 103.595 102.948 102.142 100.673 99.530 99.000 99.000 99.000 98.525 98.164 98.000 98.000 98.000 98.000 98.000 97.665 96.859 96.053 96.000 96.000 96.000 96.171 96.977 97.000 96.130 94.930 94.000 94.003 94.345 93.793 93.230 93.000 92.977 92.461 92.347 92.182 92.000 92.000 92.000 91.513 91.139 91.000 90.927 90.306 90.217 90.204 90.130 89.978 89.846 89.848 89.392 89.306 89.887 89.899 89.145 88.925 88.962 89.186 89.992 90.761 90.981 91.411 92.003 92.050 92.835 93.000 92.561 91.755 90.897 89.285 89.000 89.000 88.765 88.146 88.019 86.614 85.501 85.305 86.000 86.000 86.000 86.529 87.243 87.712 87.699 87.170 87.000 86.884 86.476 85.398 83.814 82.573 81.211 79.399 76.984 75.015 73.589 73.225 73.747 74.540 75.333 75.478 75.223 74.787 74.373 73.554 73.811 73.806 73.725 74.096 74.902 75.000 74.659 74.323 74.310 74.297 73.546 72.727 72.168 72.000 72.000 72.000 72.000 72.000 72.000 72.000 71.877 71.858 71.515 70.975 70.897 70.910 70.923 70.936 70.936 70.875 70.114 69.325 68.531 67.729 66.944 66.118 66.000 66.000 66.000 66.000 66.000 66.000 66.000 66.000 66.140 66.946 67.752 69.008 69.868 70.000 70.000 70.000 71.024 71.441 71.000 71.000 71.000 71.000 71.000 71.000 70.987 70.684 70.215 70.000 70.000 70.000 70.000 70.000 70.000 70.000 70.096 70.901 71.000 71.513 71.826 71.638 72.892 73.737 74.000 74.000 74.000 74.000 74.000 74.195 74.327 74.314 74.301 74.855 75.000 74.591 74.161 74.743 73.950 73.290 73.000 73.000 73.000 73.000 71.578 70.461 70.000 70.000 70.000 70.000 69.502 69.000 69.000 69.000 68.290 68.002 68.000 68.000 68.000 68.000 68.000 68.000 68.000 68.000 68.000 68.000 68.000 67.970 67.831 67.155 67.000 67.000 67.000 67.000 67.000 66.835 66.733 66.720 66.726 66.961 67.000 67.000 67.000 67.000 67.000 67.000 67.000 67.000 67.000 67.000 67.000 67.000 67.000 67.000 67.000 67.000 67.000 67.000 67.000 67.000 67.000 67.000 67.000 67.000 67.000 67.000 66.368 66.000 66.000 66.050 66.856 67.000 67.468 67.796 67.243 67.230 67.067 67.000 67.000 67.000 67.000 67.000 67.000 67.000 67.000 67.000 66.248 66.000 66.000 66.000 66.000 67.563 68.000 67.998 67.789 67.000 67.000 67.584 67.934 67.921 67.876 67.142 67.000 67.000 67.222 67.844 67.831 67.818 67.416 67.060 67.221 67.234 67.953 68.772 69.678 70.446 69.666 69.393 69.148 69.000 69.100 69.612 69.146 68.778 68.372 68.000 68.000 68.000 68.000 68.000 68.000 68.000 68.000 67.673 67.934 68.919 70.233 72.218 72.858 72.342 70.786 68.491 67.187 67.000 67.170 67.329 67.281 67.026 67.000 67.000 67.000 67.000 67.000 67.000 67.000 67.000 67.000 67.000 67.000 67.000 67.000 67.000 67.000 67.000 67.000 67.000 67.000 67.000 67.000 67.000 67.000 67.263 68.000
 105.989 104.377 103.771 103.264 102.789 102.741 101.922 100.617 99.547 99.000 99.000 99.000 99.000 98.675 98.341 98.354 98.367 98.380 98.393 98.087 97.294 96.501 96.445 96.209 96.164 96.564 96.980 97.000 96.427 95.243 94.000 94.000 94.000 93.397 93.000 93.000 92.992 92.702 92.652 92.374 92.000 92.000 92.000 91.338 91.000 91.000 90.980 90.796 90.782 90.795 90.808 90.821 90.834 90.847 90.332 90.207 90.762 90.049 89.934 89.925 89.938 90.121 90.939 91.758 91.990 92.003 92.215 93.029 93.042 93.055 92.673 91.913 91.023 89.424 89.042 89.000 88.962 88.777 87.958 86.586 85.517 85.228 85.798 85.977 86.000 86.378 86.725 86.712 86.699 86.686 86.673 87.127 87.745 86.430 84.846 83.247 81.648 79.864 77.460 75.408 74.036 73.278 73.214 74.010 74.406 74.479 74.262 73.866 73.418 73.061 73.662 74.000 74.000 74.030 74.321 74.349 74.169 73.795 73.310 73.297 73.079 72.472 72.000 72.000 72.000 72.000 72.000 72.000 72.000 72.000 72.000 72.000 71.949 71.884 71.897 71.910 72.492 72.475 71.949 71.893 70.314 69.353 68.547 68.010 67.872 66.293 66.017 66.000 66.000 66.000 66.000 66.000 66.000 66.045 66.261 66.942 67.736 68.542 69.348 70.000 70.000 70.000 70.424 70.728 70.715 70.702 70.937 71.000 71.000 70.925 70.625 70.109 70.000 70.000 70.000 70.000 70.000 70.000 70.000 70.000 70.080 70.885 71.000 71.234 71.318 71.219 72.831 73.721 74.000 74.000 74.000 74.000 74.000 74.000 74.000 74.000 74.000 74.225 74.276 74.160 74.199 74.995 74.189 73.383 73.000 73.000 73.000 73.000 72.811 71.888 70.879 70.835 70.117 69.379 69.036 69.000 69.000 69.000 68.294 68.000 68.000 68.000 68.000 68.000 68.000 68.000 68.000 68.000 68.000 68.000 67.948 67.693 67.009 67.000 67.000 67.000 67.000 66.996 66.801 66.115 65.733 65.789 66.049 66.855 67.000 67.000 67.000 67.000 67.000 67.000 67.000 67.000 67.000 67.000 67.000 67.000 67.000 67.000 67.000 67.000 67.000 67.000 67.000 67.000 67.000 67.000 67.000 67.000 67.000 67.000 66.786 66.385 66.155 66.703 66.953 67.000 67.122 67.190 67.000 67.000 67.000 67.000 67.000 67.000 67.000 67.000 67.000 67.000 67.000 67.000 66.935 66.424 66.000 66.000 66.000 66.784 67.011 67.000 67.000 67.000 67.000 67.000 67.000 67.000 67.000 67.000 67.000 67.000 67.000 67.000 67.000 67.000 67.091 67.424 68.017 68.206 68.937 69.756 70.795 71.922 71.358 70.590 69.797 69.224 68.952 68.658 68.344 67.884 67.599 67.587 67.574 67.561 67.548 67.535 67.522 67.509 67.496 67.186 67.621 69.161 71.642 73.724 73.786 73.142 71.677 68.833 66.711 66.791 66.683 66.329 66.380 66.930 67.000 67.000 67.000 67.000 67.000 67.000 67.000 67.000 67.000 67.000 67.000 67.000 67.000 67.000 67.000 67.000 67.000 67.000 67.000 67.000 67.000 67.000 67.433 67.995 67.982
 106.146 104.580 102.982 102.117 101.955 101.757 100.938 100.119 99.415 99.000 99.000 99.000 99.000 99.000 99.000 99.000 99.000 99.000 99.000 98.820 98.309 97.516 97.124 96.714 96.647 97.000 97.000 96.618 96.212 95.469 94.456 94.014 94.000 93.758 93.365 93.000 93.000 93.000 93.000 92.859 92.678 92.667 92.113 91.817 91.730 91.743 91.756 91.769 91.782 91.795 91.808 91.821 91.834 91.847 91.348 90.913 90.986 90.906 90.912 90.925 90.937 90.958 90.999 91.765 92.565 93.002 93.199 94.018 94.041 94.054 94.067 93.671 92.148 90.562 89.532 89.132 88.902 88.101 87.170 86.339 85.625 85.153 85.061 85.676 85.751 85.738 85.725 85.712 85.699 85.687 85.674 86.213 87.206 86.670 85.121 83.714 82.275 80.495 78.077 76.440 74.828 73.608 73.103 73.507 73.904 74.000 74.000 73.897 73.560 73.573 73.853 74.000 74.000 73.960 73.446 73.350 73.337 73.231 72.936 72.368 72.285 72.133 72.000 72.000 72.000 72.000 72.000 72.000 72.000 72.000 72.000 72.490 73.199 73.767 73.793 73.818 73.891 73.909 73.492 71.980 71.154 70.356 69.563 68.757 67.951 67.145 66.339 66.000 66.000 66.000 66.000 66.000 66.000 66.259 66.862 66.986 67.720 68.526 69.332 70.000 70.000 70.000 70.000 70.000 70.000 70.000 70.538 70.677 70.664 70.522 70.000 70.000 70.000 70.000 70.000 70.000 70.000 70.000 70.000 70.000 70.063 70.869 71.000 71.000 71.000 71.135 72.287 73.534 74.000 74.000 74.000 74.000 74.000 74.000 74.000 74.000 74.000 74.000 74.000 74.000 74.046 74.235 74.046 73.399 73.000 73.000 73.000 73.000 73.000 72.505 71.879 71.843 71.050 70.257 69.497 69.000 68.925 68.143 68.006 68.000 68.000 68.000 68.000 68.000 68.000 67.976 67.915 67.902 67.972 67.931 67.551 67.000 67.000 67.000 67.000 67.000 67.000 66.996 66.191 65.385 65.000 65.227 66.033 66.839 67.000 67.000 67.000 67.000 67.000 67.000 67.000 67.000 67.000 67.000 67.000 67.000 67.000 67.000 67.000 67.000 67.000 67.000 67.000 67.000 67.000 67.000 67.000 67.000 67.000 67.000 67.000 66.864 66.747 67.000 67.000 67.000 67.000 67.000 67.000 67.000 67.000 67.000 67.000 67.000 67.000 67.000 67.000 67.000 67.000 67.000 67.000 66.960 66.937 66.949 66.962 66.994 67.000 67.000 67.000 67.000 67.000 66.969 66.960 67.000 67.000 67.000 66.928 66.870 66.890 67.000 67.000 67.000 67.451 68.053 68.283 69.102 69.755 70.356 70.937 71.458 71.673 71.204 70.489 69.577 68.529 67.710 67.166 67.000 66.861 66.650 66.982 67.000 67.000 67.000 67.000 67.000 67.000 67.000 67.191 68.077 70.390 72.770 72.995 71.861 69.902 67.678 66.254 66.234 66.183 66.000 66.025 66.269 66.291 66.278 66.265 66.253 66.240 66.783 67.000 67.000 67.000 67.000 67.000 66.528 66.449 67.000 67.000 67.000 67.000 67.000 67.000 67.000 67.000 67.000 67.003 67.000 67.000
 106.793 105.270 103.645 102.412 101.634 100.997 100.191 99.538 99.152 99.000 99.000 99.000 99.000 99.000 99.000 99.000 99.000 99.000 99.000 99.000 98.946 98.488 97.739 97.224 97.000 97.000 97.000 96.265 96.000 95.654 94.931 94.579 94.135 94.000 93.849 93.501 93.007 93.000 93.000 93.000 93.000 92.994 92.756 92.716 92.729 92.742 92.755 92.768 92.781 92.794 92.588 92.000 92.000 92.000 91.930 91.872 91.790 91.078 91.656 91.924 91.626 91.000 91.000 91.749 93.105 94.001 94.180 94.974 95.000 95.000 95.000 94.819 94.087 92.573 91.007 90.152 89.806 89.092 87.493 86.420 86.000 85.797 85.208 85.031 85.000 85.000 84.921 84.713 84.700 84.687 84.674 84.870 85.296 85.270 84.331 83.460 82.447 80.897 78.143 76.133 74.664 73.624 73.088 73.489 73.899 74.000 74.000 74.000 74.000 74.000 74.000 73.739 73.389 73.358 73.053 73.000 72.691 72.324 72.287 72.035 72.000 72.000 72.000 72.000 72.000 72.000 72.000 72.267 72.818 72.831 73.476 74.269 75.101 75.913 76.663 76.726 76.765 76.073 74.554 72.958 72.165 70.765 69.579 68.776 67.993 67.200 66.407 66.035 66.000 66.000 66.000 66.000 66.000 66.000 66.092 66.898 67.704 68.510 69.316 70.000 70.000 70.000 70.000 70.000 70.000 70.000 70.000 70.000 70.000 70.000 70.000 70.000 70.000 70.000 70.000 70.000 70.000 70.000 70.000 70.000 70.047 70.853 71.000 71.000 71.000 71.077 71.883 72.978 73.700 74.000 74.000 74.000 74.000 74.000 74.000 74.000 74.000 74.000 74.000 74.000 74.000 74.000 74.000 73.415 73.000 73.000 73.000 73.000 73.000 72.580 71.801 71.076 70.257 69.439 69.038 69.000 68.938 68.132 68.000 68.000 68.000 68.000 68.000 68.000 67.970 67.635 67.000 67.000 67.653 67.403 67.000 67.000 67.000 67.000 67.000 67.000 67.000 67.000 66.207 65.401 65.000 65.211 66.017 66.823 67.000 67.000 67.000 67.000 67.000 67.000 67.000 67.000 67.000 67.000 67.000 67.000 67.000 67.000 67.000 67.000 67.000 67.000 67.000 67.000 67.000 67.000 67.000 67.000 67.000 67.000 67.000 67.000 67.000 67.000 67.000 67.000 67.000 67.000 67.000 67.000 67.000 67.000 67.000 67.000 67.000 67.000 67.000 67.000 67.000 67.000 67.000 67.000 67.000 67.000 67.000 67.000 67.000 67.000 67.000 67.000 66.970 66.408 66.351 66.922 66.909 66.896 66.354 66.000 66.181 66.848 66.970 66.886 67.325 68.191 68.817 69.422 69.348 69.226 69.261 69.487 70.027 70.071 69.698 68.829 67.582 67.056 66.731 66.613 66.402 66.080 66.541 66.890 67.000 66.833 66.602 66.986 67.000 67.000 66.794 66.639 67.343 69.265 69.325 68.275 67.005 66.369 66.060 66.000 66.000 66.000 66.000 66.000 66.000 66.000 66.000 66.000 66.000 66.160 66.214 66.202 66.189 66.176 66.163 66.069 66.047 66.124 66.112 66.099 66.086 66.421 67.000 67.000 67.000 67.000 67.000 67.000 67.000
 105.656 104.262 102.782 101.625 101.000 101.000 100.394 100.249 99.962 99.491 99.283 99.053 99.000 99.142 99.340 99.336 99.054 99.000 99.000 99.000 99.000 99.000 98.311 97.505 97.000 97.000 97.000 96.282 96.000 95.846 95.473 95.032 94.681 94.261 94.000 93.834 93.028 93.000 93.000 93.000 93.000 93.000 93.000 93.000 93.000 93.000 93.000 93.000 93.000 93.000 92.951 92.820 92.833 92.276 92.000 92.000 91.989 91.908 91.973 91.530 91.043 91.115 91.893 92.709 93.534 94.345 95.000 95.000 95.031 95.053 95.041 95.000 95.000 94.207 92.873 91.321 90.114 89.966 88.354 86.858 86.196 86.159 85.953 85.147 84.837 84.739 84.530 84.000 84.000 84.000 84.000 84.000 84.000 84.000 84.000 83.476 82.537 81.039 77.802 75.314 74.243 73.808 73.487 73.506 73.493 73.784 74.000 74.000 74.000 74.000 74.000 73.580 73.000 72.980 72.467 72.351 72.186 72.000 72.000 72.000 72.000 71.651 71.471 72.000 72.000 72.000 72.403 73.120 73.917 74.601 75.420 76.252 77.084 77.916 78.748 78.817 78.318 77.185 75.586 73.987 72.409 70.803 69.595 69.000 68.983 68.177 67.371 66.565 66.000 66.000 66.000 66.000 66.000 66.000 66.076 66.882 67.688 68.494 69.300 70.000 70.000 70.000 70.000 70.000 69.961 69.721 69.691 69.856 70.000 70.000 70.000 70.000 70.000 70.000 70.000 70.000 70.000 70.000 70.000 70.000 70.031 70.837 71.000 71.000 71.000 71.061 71.867 72.673 73.479 74.000 74.000 74.000 74.000 74.000 74.000 74.000 74.000 74.000 74.000 74.000 74.000 74.000 74.000 73.431 73.000 73.000 73.000 72.335 72.148 72.080 71.790 70.984 70.178 69.372 69.000 69.000 68.954 68.148 68.000 68.000 68.000 68.000 68.000 67.968 67.476 67.000 67.000 67.000 67.000 67.000 67.000 67.000 67.000 67.000 66.896 66.799 66.822 66.994 66.409 65.669 65.162 65.195 66.001 66.807 67.000 67.000 67.000 67.000 67.000 67.000 67.000 67.000 67.000 67.000 67.000 67.220 67.337 67.000 67.000 67.000 67.000 66.831 66.517 66.959 67.000 67.000 67.000 67.000 67.000 67.000 67.000 67.000 67.000 67.000 67.000 67.000 67.000 67.000 67.000 67.000 67.000 67.000 67.000 67.000 67.000 67.000 67.000 67.000 67.000 67.000 67.000 67.000 67.000 67.000 67.000 66.301 66.530 67.000 66.987 66.974 66.243 66.000 65.977 65.923 65.910 65.897 65.884 65.871 65.886 66.001 66.807 66.387 66.676 67.588 67.562 67.536 67.025 66.742 66.915 67.433 67.408 67.382 67.510 67.381 66.652 66.639 66.186 66.000 66.000 66.000 66.000 66.732 67.000 66.656 66.079 66.488 66.498 66.485 66.296 66.000 66.000 66.687 66.590 66.243 66.000 66.000 66.000 65.596 65.343 65.491 66.000 66.000 65.534 65.613 65.802 65.310 65.910 66.000 66.000 66.000 66.000 66.000 66.000 66.000 66.000 66.000 66.000 66.000 66.000 66.026 66.216 66.972 67.000 67.000 67.000 66.999 66.983
 104.207 103.423 102.630 101.837 101.209 101.222 101.235 101.248 101.261 101.079 100.286 99.251 99.000 99.419 100.000 99.980 99.469 99.135 99.000 99.000 99.000 99.000 98.625 97.977 97.336 97.000 97.000 96.298 96.000 96.000 95.946 95.592 95.153 94.777 94.393 93.850 93.044 93.000 93.370 93.664 93.677 93.690 93.703 93.716 93.729 93.742 93.754 93.767 93.780 93.449 93.000 93.000 93.000 92.342 92.000 92.000 92.000 92.000 92.000 91.962 91.936 92.054 92.873 93.692 93.994 94.330 95.016 95.052 95.797 96.053 95.707 95.066 95.003 94.304 93.535 92.353 90.949 90.155 88.556 87.458 87.000 86.822 86.191 85.398 84.605 84.144 84.000 84.000 84.000 84.000 84.000 83.904 83.649 83.636 83.094 82.322 81.037 78.906 75.978 74.449 74.000 74.000 73.850 73.044 73.000 73.273 73.468 73.455 73.442 73.881 73.651 73.240 72.872 72.371 72.065 72.000 72.000 72.000 72.000 72.000 72.000 71.873 71.810 72.000 72.000 72.000 72.493 73.540 74.922 75.741 77.165 78.235 78.781 78.898 78.994 79.000 78.956 78.216 76.617 75.018 73.419 71.820 70.222 69.009 68.999 68.224 67.438 66.645 66.059 66.000 66.000 66.000 66.000 66.000 66.060 66.866 67.672 68.478 69.226 69.801 69.976 70.000 70.000 69.830 69.314 68.482 68.608 69.389 70.000 70.000 70.000 70.000 70.000 70.000 70.000 70.000 70.000 70.000 70.000 70.000 70.008 70.408 70.808 71.000 71.000 71.045 71.851 72.657 73.463 74.000 74.000 74.000 74.000 74.000 74.000 74.000 74.000 74.000 74.000 74.000 74.000 74.000 73.422 73.095 73.000 72.866 72.198 72.036 71.504 71.135 70.928 70.110 70.019 69.388 69.000 69.000 68.970 68.164 68.000 68.000 68.000 67.999 67.972 67.313 67.000 67.000 67.000 67.000 67.000 67.000 67.000 67.000 67.000 66.872 66.376 66.000 66.150 66.956 67.000 66.575 65.891 65.407 65.990 66.791 67.000 67.000 67.000 66.995 66.698 66.619 66.606 66.593 66.580 66.568 66.847 67.463 67.858 67.375 66.184 65.980 66.212 66.166 65.556 66.349 66.014 66.439 67.000 67.000 67.000 67.000 67.000 67.000 67.000 67.000 67.000 67.000 67.000 67.000 67.000 67.000 67.000 67.000 67.000 67.000 67.000 66.458 66.526 67.000 66.947 66.224 66.091 66.078 66.065 66.052 66.039 66.008 66.007 66.000 65.999 65.977 65.962 65.949 65.615 65.000 65.000 65.000 65.000 65.000 65.179 65.985 66.791 66.403 66.000 65.957 65.781 65.769 65.756 65.743 65.730 65.717 65.704 65.691 65.992 66.152 65.653 65.640 65.627 65.614 65.601 65.631 65.962 66.403 66.550 66.361 66.000 66.000 66.000 66.000 66.000 66.000 66.000 66.000 66.000 66.000 66.000 66.000 65.492 65.138 65.000 65.074 65.318 65.305 65.105 65.125 65.199 65.015 65.209 65.228 65.590 66.000 66.000 66.000 66.000 66.000 66.000 66.000 66.000 66.000 66.000 66.000 66.149 66.955 67.000 67.000 67.000 66.821 66.015
 105.000 104.393 103.646 102.920 102.386 102.232 102.235 102.248 102.163 101.821 101.015 99.892 99.439 99.597 100.000 100.000 100.000 99.610 99.391 99.307 99.000 99.000 99.000 98.538 97.857 97.446 97.059 96.314 96.000 96.000 96.000 96.000 95.694 95.585 95.467 95.089 94.309 94.274 94.493 94.663 94.676 94.689 94.702 94.715 94.728 94.741 94.754 94.767 94.303 93.582 93.000 93.000 93.000 92.900 92.858 92.650 92.000 92.000 92.611 92.923 92.936 92.953 92.996 93.701 94.501 95.313 96.119 96.925 97.000 97.000 96.657 95.851 95.045 95.079 94.550 93.433 92.082 91.174 89.588 87.989 87.195 87.208 87.206 86.413 85.466 84.568 84.000 84.000 84.000 84.000 83.850 83.394 82.623 82.317 80.617 79.148 77.736 75.944 74.193 74.000 74.237 74.314 73.930 73.524 73.129 73.000 73.000 73.000 73.000 73.333 73.174 72.769 72.315 72.000 72.000 72.000 72.000 72.000 72.000 72.000 72.000 72.000 72.000 72.045 72.662 72.778 73.645 74.946 75.979 77.467 78.497 78.929 79.000 79.000 79.000 79.000 79.000 78.634 77.508 75.134 73.479 71.867 70.627 69.821 69.015 69.000 68.404 67.598 66.792 66.000 66.000 66.000 66.000 66.000 66.037 66.709 67.477 68.270 68.795 68.856 69.649 69.756 69.743 69.135 67.614 66.795 67.407 68.722 69.666 69.653 69.640 69.627 69.614 69.744 70.000 70.000 70.000 70.000 70.000 70.000 70.000 70.000 70.611 70.780 70.580 71.013 71.362 72.433 73.447 74.000 74.000 74.000 74.000 74.000 74.000 74.000 74.000 74.000 74.000 74.000 73.911 73.296 73.061 73.000 73.000 72.731 71.258 70.524 70.213 70.136 70.101 70.002 69.286 69.034 69.000 69.000 68.986 68.180 68.000 68.000 67.999 67.938 67.145 67.000 67.000 67.000 67.000 67.000 67.000 67.000 67.000 66.985 66.853 66.235 66.000 66.000 66.105 66.728 66.939 67.000 66.737 66.277 66.290 66.843 67.000 67.000 66.934 66.646 66.123 66.000 66.000 66.000 66.000 66.000 66.356 66.785 67.297 67.823 65.406 65.000 65.228 65.333 65.040 65.393 65.128 66.013 67.000 67.000 67.000 67.000 67.000 67.000 67.000 67.000 66.466 66.690 67.000 67.000 67.000 67.000 67.000 67.000 66.832 66.181 66.168 66.058 66.062 66.130 66.112 66.016 66.000 66.000 66.000 66.000 66.000 66.000 66.000 66.000 65.886 65.088 65.000 65.000 65.000 65.000 65.000 65.000 65.000 65.000 65.163 65.969 66.517 66.269 65.926 65.641 65.001 65.000 64.851 64.743 64.730 64.718 64.705 64.692 64.679 64.750 65.000 65.000 65.000 64.816 64.602 64.641 65.091 65.432 65.550 65.537 65.524 65.512 65.499 65.486 65.473 65.460 65.447 65.434 65.422 65.409 65.396 65.383 65.078 64.617 64.344 64.332 64.319 64.306 64.293 64.280 64.267 64.254 64.242 64.229 64.677 65.203 65.190 65.177 65.164 65.568 66.000 66.000 66.000 66.000 66.000 66.000 66.008 66.046 66.754 67.000 67.000 66.835 66.031
 105.000 105.000 104.574 104.195 104.103 103.490 103.294 103.247 102.811 101.882 101.309 101.299 100.913 100.399 100.000 100.000 100.000 100.000 100.000 99.778 99.000 99.000 99.000 98.554 98.000 97.942 97.136 96.670 96.272 96.000 96.000 96.000 96.000 96.000 96.186 96.565 96.276 95.809 95.650 95.663 95.676 95.689 95.702 95.715 95.728 95.741 95.754 95.161 94.405 93.917 93.638 93.000 93.000 93.000 93.000 92.969 92.883 92.896 92.969 93.000 93.000 93.000 93.000 93.685 94.491 95.297 96.115 96.911 97.028 97.052 96.738 95.945 95.152 95.771 95.514 94.727 93.675 92.063 90.451 88.944 88.119 88.000 88.000 87.383 86.026 84.843 84.212 84.000 84.000 83.801 83.374 82.663 81.551 80.145 78.114 76.270 75.027 74.534 74.061 74.309 74.960 75.155 74.423 74.038 73.270 73.000 73.000 73.000 73.000 73.000 73.000 72.628 72.000 72.000 72.000 72.000 72.000 72.000 72.009 72.573 72.713 72.726 72.739 72.795 73.614 74.287 75.139 76.285 77.719 78.688 78.950 79.000 79.000 79.000 79.000 79.000 79.000 78.673 77.727 76.084 74.482 72.883 71.285 69.848 69.055 69.036 68.469 67.652 66.808 66.002 66.000 66.000 66.000 66.000 66.000 66.000 66.526 67.254 67.795 67.828 68.434 68.513 68.609 68.243 66.912 66.106 66.700 67.849 68.666 68.653 68.640 68.627 68.614 68.807 69.238 69.556 69.563 69.804 70.000 70.000 70.000 70.000 70.289 70.283 70.207 71.000 71.000 71.888 72.839 73.538 74.000 74.000 73.578 73.343 73.330 73.367 73.916 74.000 74.000 73.782 73.227 73.022 73.000 73.000 72.739 72.138 71.846 71.093 70.851 70.556 69.858 69.139 69.022 69.000 69.000 68.819 68.048 68.006 68.000 68.000 67.774 67.000 67.000 67.000 67.000 67.000 67.000 67.000 67.000 66.942 66.865 66.778 66.089 66.000 66.000 66.000 66.000 66.000 66.556 66.749 66.826 67.000 67.000 67.000 67.000 66.878 66.542 66.011 66.000 66.000 66.000 65.916 65.581 65.568 65.833 65.803 65.781 66.463 64.808 64.491 64.719 65.000 65.000 65.000 65.000 65.694 66.401 66.388 66.375 66.818 67.000 67.000 67.000 67.000 66.778 66.872 67.000 67.000 67.000 67.000 67.000 66.694 66.157 66.000 66.000 66.000 66.000 66.000 66.000 66.000 66.000 65.589 65.066 65.053 65.040 65.027 65.014 65.001 64.988 64.976 64.989 65.000 65.000 65.000 65.000 65.000 65.000 65.000 65.147 65.953 65.241 65.464 65.508 65.000 65.000 64.818 64.306 64.000 64.000 64.000 64.000 64.000 64.000 64.158 64.654 64.641 64.628 64.332 64.000 64.000 64.000 64.386 64.551 64.538 64.525 64.512 64.499 64.486 64.645 65.000 65.000 65.000 65.000 65.000 64.902 64.403 64.371 64.150 64.253 64.540 64.001 64.000 64.000 64.000 64.000 64.000 64.000 64.000 64.096 64.203 64.191 64.178 64.724 65.072 65.381 66.000 66.000 66.000 66.000 66.000 66.000 66.000 66.026 66.023 66.011 66.000 66.000
 105.000 105.000 105.000 105.000 105.000 105.000 104.442 104.247 103.667 102.546 102.571 102.597 102.623 101.908 100.556 100.012 100.000 100.000 100.000 99.794 99.000 99.000 99.000 98.570 98.000 97.958 97.152 97.000 96.779 96.532 96.545 96.558 96.571 96.584 96.716 97.000 97.000 96.740 96.649 96.662 96.586 96.043 96.000 96.393 96.727 96.740 96.753 95.993 95.200 94.487 93.963 93.819 93.163 93.000 93.000 93.000 93.000 93.000 93.000 93.000 93.000 93.000 93.000 93.669 94.943 96.280 97.001 97.023 97.710 97.974 97.645 96.892 96.161 96.103 96.054 95.319 93.728 92.243 90.779 89.696 88.824 88.207 88.220 88.049 86.958 85.859 85.010 83.997 83.756 83.259 82.722 81.775 79.825 77.368 75.811 74.660 74.107 74.444 74.803 75.263 75.721 75.842 75.377 74.584 73.791 73.518 73.358 73.000 73.000 73.000 73.000 72.856 72.609 72.622 72.635 72.648 72.661 72.802 73.371 73.640 73.712 74.026 74.476 74.529 75.361 76.193 77.025 77.906 78.826 78.977 79.000 79.000 79.000 79.000 79.000 79.000 79.000 78.979 78.822 77.997 75.778 73.915 72.316 70.862 70.049 70.000 69.436 68.282 66.898 66.105 66.021 66.000 66.000 66.000 66.000 66.000 66.000 66.348 66.796 66.783 66.770 66.757 67.086 67.268 66.647 65.828 66.376 67.012 67.333 67.307 67.281 67.521 67.615 67.602 67.720 68.514 68.563 69.100 69.537 69.601 69.984 70.000 70.000 69.797 69.651 70.444 70.889 71.609 72.415 73.087 73.382 73.369 73.129 73.000 73.000 73.018 73.263 73.292 73.279 73.191 73.000 73.000 73.000 72.604 72.139 72.000 72.000 72.492 72.246 71.523 70.602 69.090 69.000 69.000 68.657 68.049 68.001 68.000 68.000 67.603 67.000 67.000 67.000 67.000 67.000 67.000 67.000 67.000 66.929 66.475 66.000 66.000 66.000 66.000 66.000 66.000 66.000 66.000 66.000 66.000 66.240 66.724 66.711 66.698 66.685 66.433 66.000 66.000 65.717 65.620 65.608 65.481 65.002 65.000 65.339 65.318 64.896 64.503 64.084 64.000 64.445 65.000 65.000 65.000 65.000 65.197 65.569 66.000 66.000 66.253 66.678 67.000 67.000 67.000 66.489 66.285 66.272 66.259 66.247 66.234 66.221 66.131 66.000 66.000 66.000 66.000 66.000 66.000 65.990 65.268 65.092 65.045 65.000 65.000 65.000 65.000 65.000 64.735 64.000 64.000 64.683 65.000 65.000 65.000 65.000 65.000 65.000 65.000 65.131 65.937 65.257 64.902 64.809 64.829 64.993 64.227 64.000 64.000 64.000 64.000 64.000 64.000 64.000 64.000 64.000 64.000 64.000 64.171 64.397 64.387 64.058 64.000 64.000 64.000 64.000 64.000 64.000 64.000 64.147 64.461 64.448 64.435 64.422 64.410 64.427 64.605 65.106 65.284 65.437 65.492 64.699 64.147 64.000 64.000 64.000 64.000 64.000 64.000 64.000 64.000 64.000 64.000 64.108 64.152 64.405 65.127 65.114 65.101 65.534 66.000 66.000 66.000 66.000 66.000 66.000 66.000 66.000
 105.000 105.000 105.089 105.137 105.000 105.000 105.000 105.000 104.760 104.272 104.285 104.298 104.311 103.616 102.017 100.418 100.083 100.000 100.000 99.810 99.004 99.000 99.000 98.774 98.364 97.974 97.168 97.000 97.000 97.000 97.000 97.000 97.000 97.277 97.430 97.000 97.000 97.000 97.000 97.000 96.962 96.712 96.701 96.866 97.000 97.000 97.000 96.823 96.215 95.422 94.664 94.015 93.213 93.000 93.000 93.000 93.000 93.000 93.000 93.000 93.000 93.039 93.813 94.626 95.451 96.265 97.058 97.830 97.950 97.485 96.981 96.923 96.910 96.897 96.366 95.306 93.993 93.073 92.258 91.002 89.839 89.173 89.007 88.407 87.667 86.874 85.891 84.292 83.257 83.000 82.306 80.528 77.573 75.142 74.226 74.000 74.350 75.493 76.657 76.880 76.691 76.466 76.393 75.600 74.807 74.518 74.221 73.606 74.069 74.139 73.854 73.797 74.217 74.242 74.268 74.294 74.320 74.521 75.353 75.398 75.424 75.849 76.476 76.512 77.344 77.692 78.218 78.849 79.000 79.000 79.000 79.000 79.000 79.000 79.000 79.000 79.000 79.000 78.899 78.093 76.554 74.947 73.348 71.740 70.148 70.009 69.452 68.646 67.840 67.034 66.305 66.048 66.000 66.000 66.000 66.000 66.000 66.000 66.000 66.000 66.000 66.000 66.000 65.933 65.679 65.098 65.668 66.000 66.000 66.000 66.000 66.438 66.615 66.602 66.705 67.498 67.564 68.084 68.538 68.670 69.463 69.499 69.486 69.298 69.175 69.981 70.787 71.593 72.399 73.000 73.000 73.000 73.000 73.000 73.000 73.000 73.000 73.000 73.000 73.000 73.000 73.000 72.473 72.110 72.000 72.000 72.000 72.116 72.072 71.676 70.739 69.127 69.000 69.000 68.646 68.000 68.000 68.000 67.434 67.005 67.000 67.000 67.000 67.000 67.000 67.000 67.000 67.000 66.362 66.000 66.000 66.000 66.000 66.000 66.000 66.000 65.982 65.800 65.763 65.750 65.737 65.724 65.711 65.918 66.000 66.000 65.951 65.664 65.154 65.000 65.000 65.000 65.000 65.000 65.000 64.818 64.422 64.000 64.000 64.000 64.205 64.591 65.000 65.000 65.000 65.000 65.265 66.000 66.000 66.000 66.171 66.337 66.324 66.311 66.086 66.000 66.000 66.000 66.000 66.000 66.000 66.000 66.000 66.000 65.359 65.644 65.671 65.131 65.118 65.021 65.000 65.000 64.795 64.054 64.041 64.028 64.015 64.002 64.000 64.000 64.643 64.951 64.955 65.000 65.000 65.000 65.000 65.000 65.083 65.641 65.183 64.467 64.000 64.116 64.745 64.187 64.000 64.000 64.000 64.000 64.000 64.000 64.000 64.000 64.000 64.000 64.000 64.429 65.093 65.369 64.576 64.151 63.794 63.539 63.526 63.513 63.500 63.738 64.000 64.000 64.000 64.000 64.000 64.000 64.209 65.512 66.837 66.931 66.423 65.840 65.034 64.228 64.000 64.000 64.000 64.000 64.000 64.000 64.000 64.000 64.000 64.000 64.000 64.000 64.035 64.176 64.877 65.000 65.042 65.334 66.000 66.000 66.000 66.000 66.000 66.000 66.000
 104.845 104.944 105.387 105.636 105.207 105.220 105.071 105.000 105.000 105.000 105.000 105.000 105.000 104.433 103.097 101.782 100.695 100.165 100.000 99.826 99.020 99.000 99.000 99.000 98.891 98.470 97.677 97.506 97.519 97.407 97.000 97.000 97.372 97.774 97.894 97.567 97.077 97.000 97.000 97.000 97.000 97.000 97.498 97.713 97.726 97.644 97.049 97.000 96.453 95.926 95.645 94.852 94.059 93.843 93.856 93.869 93.882 93.895 93.908 93.921 93.934 93.948 93.993 94.637 95.006 95.250 95.988 95.975 96.629 96.973 96.721 95.994 95.920 95.826 95.325 94.872 94.646 93.147 92.274 91.468 90.662 89.885 89.258 89.057 88.438 87.727 86.876 85.046 83.428 82.817 82.408 81.186 78.013 75.342 74.516 74.553 75.175 76.493 78.118 78.439 78.202 77.808 77.409 76.616 76.166 76.034 75.922 75.675 76.070 76.138 75.948 75.916 76.294 76.822 76.901 76.940 76.979 77.070 77.360 77.397 77.833 78.556 79.212 79.251 79.479 79.552 79.339 79.000 79.000 79.000 79.000 79.000 79.000 79.000 79.000 79.000 79.000 79.000 78.995 78.962 77.577 75.978 74.072 71.894 71.081 70.274 69.468 68.682 67.930 67.137 67.024 66.438 66.000 66.000 66.000 66.000 66.000 66.000 65.959 65.784 65.771 65.908 65.891 65.561 65.000 65.000 65.452 65.680 65.667 65.655 65.642 65.629 65.616 65.719 66.059 66.522 66.564 67.068 67.538 67.655 68.448 68.499 68.487 68.474 68.620 69.413 70.642 71.577 72.157 72.510 72.997 73.000 73.000 73.000 73.000 73.000 73.000 72.550 72.280 72.267 72.254 72.241 72.076 72.000 71.778 71.189 71.176 71.164 71.151 70.829 69.996 69.089 69.000 69.000 68.662 68.000 68.000 67.270 67.009 67.000 67.000 67.000 67.000 67.000 67.000 67.000 67.000 67.000 66.378 66.000 66.000 66.000 66.000 66.000 66.000 65.948 65.734 65.097 65.000 65.000 65.000 65.000 65.000 65.497 65.686 65.673 65.575 65.042 65.000 65.000 65.000 65.064 65.403 65.099 65.000 64.617 64.000 64.000 64.000 64.000 64.000 64.102 64.467 64.905 65.000 65.000 65.249 66.000 66.000 66.000 65.693 65.338 65.325 65.312 65.299 65.645 66.000 66.000 66.000 66.000 66.000 66.000 65.884 65.224 64.414 64.719 64.776 64.131 64.119 64.106 64.093 64.080 64.053 63.991 63.218 63.632 64.000 64.000 64.000 64.000 64.000 64.000 64.263 65.000 65.000 65.000 65.000 64.963 64.762 63.943 64.429 64.219 63.809 63.797 63.784 63.941 64.000 64.000 63.957 63.729 63.706 63.870 64.000 64.000 64.000 63.713 63.854 64.254 64.822 65.566 64.747 63.928 63.308 63.000 63.000 63.000 63.000 63.230 63.475 63.462 63.449 63.436 63.713 64.182 64.831 66.455 67.624 67.468 66.662 65.856 65.050 64.244 64.000 63.736 63.269 63.256 63.838 64.000 64.000 64.000 64.000 64.000 64.000 64.000 64.000 64.040 64.845 65.000 65.417 65.944 66.000 66.000 66.000 66.000 66.000 66.000 66.000
 103.976 104.651 105.000 105.212 105.808 105.972 105.478 105.126 105.000 105.000 105.000 105.000 105.000 104.782 104.208 103.415 101.882 100.829 100.115 99.504 99.021 99.000 99.000 99.000 99.000 99.000 98.200 98.000 98.000 97.898 97.544 97.557 97.843 98.000 98.000 97.979 97.675 97.635 97.648 97.478 97.056 97.611 98.395 99.070 99.452 99.364 98.584 97.975 97.247 96.791 96.661 95.868 95.075 94.370 94.000 94.000 94.000 94.000 94.000 94.000 94.000 94.000 94.000 94.621 95.000 95.000 95.000 95.000 95.651 96.434 96.674 95.855 95.037 94.218 93.885 93.872 93.775 93.081 92.290 91.484 90.678 90.000 90.000 89.260 88.454 87.909 87.213 84.551 82.639 81.852 81.801 81.687 80.358 77.740 76.517 76.414 77.018 77.864 79.158 79.439 79.452 79.332 78.928 78.544 78.511 78.550 78.589 78.628 78.667 78.706 78.744 78.783 78.867 79.210 79.267 79.292 79.318 79.344 79.370 79.396 79.983 80.815 81.474 81.500 80.927 80.317 79.603 79.000 79.000 79.000 79.000 79.000 79.000 79.000 79.000 79.000 79.000 79.000 79.000 79.000 78.299 77.010 75.119 72.821 71.235 70.334 69.531 69.041 68.872 68.066 67.260 66.515 66.081 66.000 66.000 66.000 66.000 66.000 65.812 65.006 65.000 65.459 65.439 65.000 65.000 65.000 65.000 65.000 65.000 65.000 65.000 65.000 65.000 65.167 65.590 65.577 65.867 66.277 66.539 66.639 67.432 67.500 67.487 67.651 68.143 68.949 70.084 70.983 71.626 72.069 72.375 72.371 72.358 72.345 72.332 72.319 72.306 72.111 72.000 72.000 72.000 72.000 72.000 72.000 71.738 71.000 71.000 71.000 70.587 70.098 69.902 69.096 69.000 68.528 68.050 68.000 68.000 67.260 67.000 67.000 67.000 67.000 67.000 67.000 67.000 67.000 67.000 66.925 66.352 66.000 66.000 66.000 66.000 66.000 66.000 65.752 65.000 65.000 65.000 65.000 65.000 65.000 65.000 65.000 65.000 65.000 65.000 65.000 65.000 65.000 65.000 65.085 65.553 65.140 65.000 64.800 64.387 64.010 64.000 64.000 64.000 64.000 64.004 64.360 64.428 64.665 65.094 65.390 65.377 65.364 65.191 65.000 65.000 65.000 65.000 65.139 65.274 65.261 65.248 65.235 65.222 65.209 65.171 65.012 64.260 64.086 64.094 64.000 64.000 64.000 64.000 64.000 64.000 64.000 63.967 63.989 64.000 64.000 64.000 64.000 64.000 64.000 64.232 64.926 64.913 64.900 64.887 64.632 63.917 63.111 63.000 63.000 63.000 63.000 63.000 63.725 64.000 64.000 63.895 63.317 63.072 63.389 63.681 63.668 63.655 63.138 63.372 63.617 63.726 64.177 63.685 63.214 63.000 63.000 63.000 63.000 62.675 62.488 62.475 62.426 61.968 61.873 62.334 63.114 63.934 65.023 66.719 67.174 66.678 65.872 65.066 64.260 63.615 63.183 63.000 63.000 63.188 63.231 63.517 64.000 64.000 64.000 64.000 64.000 64.000 64.024 64.830 65.000 65.441 66.000 66.000 66.000 66.000 66.000 66.000 66.000 66.000
 103.802 104.528 104.820 104.855 105.063 106.046 106.232 105.890 105.445 105.271 105.284 105.297 105.310 105.224 104.888 104.082 102.814 101.845 100.716 99.344 99.022 99.000 99.000 99.000 99.000 99.000 98.602 98.505 98.313 98.000 98.000 98.000 98.000 98.000 98.000 98.000 98.000 98.000 98.000 97.911 97.741 98.560 99.379 99.852 100.000 99.903 99.097 98.833 98.663 98.327 97.676 96.883 96.090 95.297 94.855 94.732 94.033 94.000 94.000 94.000 94.000 94.000 94.000 94.605 95.000 95.000 95.000 95.020 95.648 95.978 95.706 94.948 94.142 93.336 93.000 93.000 92.988 92.864 92.139 91.321 90.560 89.977 89.800 89.045 87.967 86.806 85.352 82.076 79.554 79.497 80.636 81.551 81.015 79.998 79.158 78.773 78.920 79.420 80.239 80.439 80.451 80.464 80.477 80.490 80.503 80.516 80.529 80.542 80.555 80.568 80.581 80.594 80.607 80.620 80.633 80.646 80.659 80.672 80.685 80.698 80.868 81.351 82.000 82.000 81.817 81.200 80.407 79.801 79.814 79.167 79.000 79.000 79.000 79.000 79.000 79.000 79.000 79.000 79.000 79.000 78.980 78.042 76.441 74.844 73.245 71.669 70.570 69.754 68.961 68.168 67.303 67.000 66.664 66.000 66.000 66.000 66.000 65.931 65.661 65.017 65.000 65.000 65.000 65.000 65.000 65.000 65.000 65.000 65.000 65.000 65.000 65.000 65.000 65.000 65.000 65.000 65.384 65.552 65.673 66.051 66.464 66.500 66.751 67.152 67.589 68.382 69.592 70.545 71.351 72.000 72.000 72.000 72.000 72.000 72.000 72.000 72.000 72.000 72.000 72.000 72.000 72.000 72.000 71.655 71.153 71.000 71.000 70.445 70.080 69.762 69.115 69.013 69.000 68.500 68.000 67.895 67.126 67.708 67.459 67.000 67.000 67.000 67.000 67.000 67.000 66.988 66.921 66.196 66.000 66.000 66.000 66.000 66.000 66.000 65.922 65.617 65.000 65.000 65.000 65.000 65.000 65.000 65.000 65.000 65.000 65.000 65.000 65.000 65.000 65.000 65.000 65.000 65.000 65.000 65.000 65.000 64.843 64.037 64.000 64.000 64.000 64.000 64.000 64.000 64.000 64.171 64.403 64.390 64.377 64.768 65.000 64.837 64.326 64.313 64.765 65.000 65.000 65.000 65.000 65.000 65.000 65.000 65.000 65.000 64.276 64.000 64.000 64.000 64.000 64.000 64.000 64.000 64.000 64.000 64.000 64.000 64.000 64.000 64.000 64.000 63.978 63.972 64.000 64.000 64.000 64.000 64.000 64.000 63.933 63.127 63.000 63.000 63.000 63.000 63.000 63.547 63.883 64.000 64.000 64.000 63.261 63.000 63.000 63.000 63.000 63.000 63.000 63.000 63.000 63.000 63.000 62.737 62.553 62.540 62.527 62.514 61.867 61.489 61.476 61.410 60.592 60.437 60.624 60.937 61.278 62.045 64.201 65.720 66.041 65.222 64.403 63.084 62.435 62.042 61.540 61.514 62.058 62.231 62.584 63.342 63.982 63.357 63.658 64.000 64.000 64.008 64.814 65.556 65.948 66.000 66.000 66.000 66.000 66.000 66.000 66.000 66.011
 103.346 103.770 103.897 104.275 105.270 106.719 107.150 107.245 107.064 106.541 106.567 106.593 106.469 106.126 105.575 104.795 103.759 102.861 101.872 100.625 99.510 99.426 99.200 99.000 99.000 99.000 99.000 99.000 98.817 98.530 98.543 98.556 98.569 98.582 98.595 98.608 98.621 98.233 98.000 98.162 98.724 99.543 99.899 100.334 100.526 99.979 99.779 99.235 99.000 98.695 97.978 97.831 97.106 96.313 95.855 95.727 94.934 94.894 94.400 94.000 94.000 94.000 94.000 94.017 94.404 95.000 94.996 95.789 95.964 95.547 94.986 94.891 94.144 93.352 92.948 92.873 92.794 91.975 91.269 90.516 89.944 89.680 88.684 87.504 85.358 82.995 80.947 78.104 76.041 76.471 78.519 80.718 80.987 81.000 80.641 80.386 80.399 80.412 80.884 81.000 81.000 81.000 81.000 81.000 81.000 81.000 81.000 81.000 81.000 81.000 81.000 81.000 81.000 81.000 81.000 81.000 81.000 81.000 81.000 81.504 81.710 81.816 82.000 82.000 81.426 81.099 80.635 80.000 80.000 79.864 79.345 79.000 79.000 79.000 79.000 79.000 79.000 79.000 79.000 79.000 79.000 78.537 77.474 75.875 74.276 73.333 72.032 70.710 69.904 69.098 67.654 67.054 66.680 66.000 66.000 66.000 66.000 65.716 65.202 65.215 65.053 65.000 65.000 65.000 65.000 65.000 65.000 65.000 65.000 65.000 65.000 65.000 65.000 65.000 65.000 65.000 65.000 65.000 65.148 65.527 65.514 65.847 66.243 66.475 66.573 67.366 68.474 69.681 70.745 71.482 71.967 72.000 72.000 72.000 72.000 72.000 72.000 72.000 72.000 72.000 72.000 72.000 72.000 71.576 71.000 71.000 71.000 69.810 68.767 68.242 68.126 68.113 68.100 68.045 67.731 67.056 67.005 67.025 67.011 67.000 66.997 66.984 66.971 66.958 66.945 66.787 66.035 66.000 66.000 66.000 66.000 66.000 66.000 65.897 65.482 65.000 65.000 65.000 65.000 65.000 65.000 65.000 65.000 65.000 65.000 65.000 65.000 65.000 65.000 65.000 65.000 65.000 65.000 65.000 65.000 65.000 64.859 64.053 63.629 63.494 63.481 63.468 63.455 63.442 63.429 63.416 63.523 64.000 64.000 64.619 64.725 64.261 64.000 64.000 64.195 64.611 65.000 65.000 65.000 64.482 64.223 64.210 64.197 64.184 64.050 64.000 64.000 64.000 64.000 64.000 64.000 64.000 64.000 64.000 64.000 64.000 64.000 64.000 64.000 63.983 63.383 63.410 64.000 64.000 64.000 64.000 64.000 64.000 63.949 63.143 63.000 63.000 63.000 63.000 63.000 63.000 63.379 63.824 63.970 63.744 63.196 63.000 62.894 62.669 62.656 62.912 63.000 63.279 63.723 63.417 63.091 62.411 61.824 61.541 61.528 61.515 60.883 60.489 60.476 60.427 59.608 59.438 59.425 59.412 59.465 60.258 61.558 63.050 63.942 63.573 62.742 61.691 61.296 61.193 61.000 61.000 61.181 61.232 61.296 61.568 62.348 62.222 62.741 63.155 63.142 63.129 63.914 65.248 66.000 66.000 66.000 66.000 66.000 66.000 66.000 66.051 66.859
 101.612 102.436 103.229 104.277 106.020 106.826 107.632 108.000 108.063 108.270 108.283 108.100 107.677 107.234 106.920 106.114 104.866 103.876 103.083 102.224 100.960 100.544 99.911 99.301 99.000 99.000 99.000 99.000 99.000 99.000 99.000 99.000 99.000 99.229 99.595 99.604 99.117 98.383 98.274 98.738 99.035 99.841 100.452 100.842 100.929 100.690 100.097 99.840 99.776 99.501 98.726 98.081 97.879 97.329 96.854 96.743 95.950 95.235 94.949 94.599 94.000 94.000 94.000 94.000 94.006 94.003 94.000 94.778 94.964 94.951 94.724 93.925 93.912 93.331 92.562 91.969 91.817 91.122 90.890 90.354 89.482 88.415 86.601 84.074 81.036 78.142 76.032 74.839 74.409 75.526 77.870 80.474 81.293 81.089 81.208 81.386 81.399 81.412 81.425 81.438 81.451 81.464 81.474 81.092 81.000 81.000 81.000 81.000 81.000 81.000 81.000 81.000 81.000 81.000 81.000 81.000 81.000 81.064 81.616 81.911 82.000 82.000 82.000 82.000 81.263 81.000 80.651 80.000 80.000 80.000 79.908 79.530 79.000 79.000 79.000 79.000 79.000 79.000 79.000 79.000 79.000 78.562 77.754 76.907 75.308 73.687 72.085 70.769 69.926 69.189 68.406 67.613 66.820 66.122 66.013 66.000 66.000 66.000 66.000 66.000 65.419 65.106 65.000 65.000 65.000 65.000 65.000 65.000 65.000 65.000 65.000 65.000 65.000 65.000 65.000 65.000 65.000 65.000 65.000 65.000 65.000 65.339 65.735 66.000 66.044 66.405 67.144 68.450 69.730 70.523 71.316 71.835 72.000 72.000 72.000 72.000 72.000 72.000 72.000 72.000 72.000 72.000 72.000 71.911 71.625 70.983 70.321 68.901 67.714 67.139 67.127 67.114 67.101 67.088 67.054 67.000 67.000 67.000 67.000 66.699 66.000 66.000 66.000 66.000 66.000 66.000 66.000 66.000 66.000 66.000 66.000 66.000 66.000 65.412 65.000 65.000 65.000 65.000 65.000 64.895 64.739 64.726 64.714 64.701 64.829 65.000 65.000 65.000 65.000 65.000 65.000 65.000 65.000 65.000 64.774 64.401 63.999 63.556 63.133 63.000 63.000 63.000 63.000 62.573 62.756 63.000 63.075 63.387 63.874 64.220 64.208 63.858 63.327 63.314 63.743 64.126 64.452 65.000 65.000 64.338 64.000 64.000 64.000 64.000 64.000 64.000 64.000 64.000 64.000 64.000 64.000 64.000 64.000 64.000 64.000 64.000 64.000 64.000 63.992 63.214 63.000 63.375 63.952 64.000 64.000 64.000 64.000 64.000 63.969 63.285 63.057 63.000 63.000 63.000 63.000 63.000 63.000 63.216 63.664 63.071 63.000 62.844 62.465 62.000 62.000 62.475 63.032 63.946 64.845 64.039 62.911 61.994 61.344 60.915 60.533 60.515 60.200 60.000 60.000 59.969 58.720 58.438 58.677 59.000 59.020 59.331 60.036 60.699 61.223 61.643 61.359 61.095 60.650 60.284 60.271 60.258 60.245 60.232 60.219 60.235 60.377 60.978 61.262 61.003 60.572 61.238 63.396 65.175 66.000 66.000 66.000 66.000 66.000 66.000 66.226 66.999 67.000
 100.441 101.323 102.175 103.594 106.004 106.810 107.616 108.103 108.426 109.000 109.000 108.545 108.169 107.742 106.936 106.130 105.324 104.518 103.824 103.306 102.513 102.020 101.365 100.442 99.407 99.034 99.000 99.000 99.000 99.000 99.000 99.000 99.000 99.158 99.406 99.393 99.078 98.780 98.790 99.140 99.691 100.510 100.889 101.000 101.000 100.987 100.786 100.763 100.414 99.727 98.984 98.836 98.256 97.503 97.000 96.891 96.085 95.279 95.000 94.973 94.803 94.053 94.000 94.000 94.000 94.000 94.000 94.000 93.979 93.952 93.753 93.000 93.000 92.938 92.513 91.772 90.995 90.872 90.082 89.112 87.862 85.993 83.523 80.533 77.462 75.060 74.025 74.253 75.624 77.765 80.031 81.708 81.978 81.529 81.712 82.000 82.000 82.000 82.000 82.000 82.000 82.000 82.000 81.594 81.502 81.515 81.528 81.541 81.554 81.567 81.580 81.449 81.000 81.000 81.000 81.000 81.000 81.079 81.885 82.000 82.000 82.000 82.000 82.000 81.279 81.000 80.667 80.000 80.000 80.000 80.000 79.638 79.000 79.000 79.000 79.000 79.000 79.000 79.000 79.000 79.000 78.992 78.766 77.932 76.320 74.083 72.573 71.499 70.067 70.011 69.390 68.628 67.800 66.919 66.234 66.162 66.085 66.000 66.000 66.000 66.000 65.588 65.253 65.266 65.279 65.291 65.304 65.317 65.270 65.004 65.000 64.778 64.774 65.000 65.000 65.000 65.000 65.000 65.000 65.000 65.000 65.000 65.467 66.000 66.000 66.000 66.691 67.422 68.304 69.507 70.300 71.093 71.360 71.564 72.000 72.000 72.000 72.000 72.000 72.000 72.000 72.000 72.000 71.693 71.006 70.184 68.703 67.613 67.088 67.000 67.000 67.000 67.000 67.412 67.925 67.998 68.777 68.275 67.035 66.008 65.998 65.985 65.972 65.959 65.946 65.933 65.920 65.908 65.952 66.000 66.000 66.000 66.000 65.428 65.000 65.000 65.000 65.000 65.000 64.593 64.000 64.000 64.000 64.000 64.301 64.675 64.662 64.649 64.637 64.624 64.611 64.598 64.585 64.276 63.621 62.927 62.533 62.520 62.508 62.495 62.654 63.000 63.000 62.249 62.240 62.629 62.900 62.407 62.674 63.104 63.353 63.272 63.000 63.000 63.186 63.589 64.228 64.975 64.370 63.591 63.224 63.415 64.000 64.000 63.440 63.565 64.000 64.000 64.000 64.000 64.000 64.000 64.000 64.000 64.000 63.475 63.359 63.847 63.032 62.979 62.966 62.971 63.184 63.990 64.000 64.000 64.000 64.000 63.997 63.877 63.309 63.000 63.000 63.000 63.000 63.000 63.000 62.931 62.735 62.722 62.910 62.654 62.221 62.000 62.000 62.000 62.666 63.570 64.073 63.241 61.974 61.251 60.838 60.450 60.013 60.000 60.000 60.000 59.896 59.460 58.720 58.215 58.422 59.000 59.000 59.000 59.242 59.650 60.090 60.336 60.323 60.310 60.154 60.000 60.000 60.000 60.000 59.607 59.220 59.305 59.944 59.531 59.337 59.257 59.165 59.255 60.855 62.456 63.617 64.326 65.056 65.806 66.000 66.000 66.214 67.000 67.009
 99.576 99.929 101.061 103.354 105.759 106.749 107.600 108.406 109.054 109.269 109.282 109.295 108.872 108.002 106.952 106.146 105.578 104.908 104.386 104.322 103.529 103.132 102.722 101.984 100.771 99.605 99.138 99.000 99.000 99.000 99.000 99.000 99.000 99.000 99.000 99.000 99.000 99.000 99.000 99.197 100.003 100.809 101.000 101.299 101.559 101.000 101.000 101.000 100.549 99.946 99.801 99.814 99.153 98.360 97.609 96.908 96.102 95.924 95.443 95.000 94.878 94.072 94.000 94.000 94.000 94.000 94.000 94.000 93.430 93.000 93.000 93.000 93.000 92.400 91.954 91.636 90.702 89.748 88.247 86.518 84.513 82.043 79.573 77.406 75.344 74.069 74.408 75.910 78.935 81.411 82.749 82.928 82.403 82.101 82.000 82.000 82.000 82.000 82.000 82.000 82.000 82.000 82.000 82.000 82.293 82.514 82.527 82.540 82.553 82.566 82.335 81.907 81.605 81.618 81.224 81.000 81.000 81.063 81.869 82.000 81.659 81.278 81.265 81.252 81.071 81.000 80.683 80.000 80.000 80.000 80.000 79.654 79.000 79.000 79.000 79.000 79.000 79.000 79.000 79.000 79.000 79.000 78.788 77.964 76.368 74.772 73.173 71.816 71.023 70.230 70.097 69.644 68.579 67.136 67.149 67.162 66.679 66.188 66.200 66.213 66.226 66.239 66.252 66.265 66.278 66.291 66.304 66.202 65.833 65.027 64.723 64.478 64.624 65.078 65.407 65.420 65.167 65.000 65.000 65.000 65.000 65.000 65.221 65.611 66.000 66.000 66.295 66.425 66.817 67.946 69.222 70.078 70.687 71.110 71.334 71.321 71.308 71.676 72.000 71.889 71.287 70.666 70.023 69.277 68.433 67.588 67.253 67.066 67.000 67.000 67.000 67.000 67.000 67.436 68.448 69.832 69.131 67.704 66.092 65.011 64.998 64.985 64.973 64.940 64.910 64.934 64.921 64.908 65.421 65.882 65.869 65.856 65.843 65.369 65.000 65.000 65.000 65.000 64.863 64.458 64.000 64.000 64.000 64.000 63.869 63.676 63.663 63.650 63.637 63.455 63.322 63.573 63.225 62.759 62.290 62.000 62.000 62.000 61.653 61.495 61.799 62.469 62.456 61.709 61.431 61.563 61.748 61.408 61.379 61.575 61.950 62.340 62.328 62.315 62.302 62.695 63.335 63.521 63.294 63.088 63.000 63.051 63.199 63.186 63.059 63.075 63.379 64.000 64.000 64.000 64.000 64.000 63.900 63.138 63.044 63.015 63.006 62.868 62.048 61.980 61.985 62.362 63.168 63.974 64.000 64.000 64.000 63.976 63.861 63.162 63.000 63.000 63.000 63.000 63.000 63.000 63.000 62.743 61.950 61.275 62.195 62.696 62.487 61.969 61.692 61.645 61.820 62.076 62.138 61.636 61.154 61.000 60.653 60.000 60.000 60.000 60.000 60.000 59.817 59.011 59.000 58.736 58.747 59.000 59.011 59.505 59.231 59.158 59.507 59.968 59.422 59.310 59.297 59.285 59.272 59.259 59.246 59.118 59.000 59.022 59.178 59.051 59.000 59.000 59.000 59.000 59.176 59.326 59.729 60.792 63.057 64.624 65.602 66.000 66.198 67.004 67.801
 98.344 99.480 100.656 102.307 104.712 106.339 107.488 108.390 109.196 110.001 110.455 110.409 109.888 108.942 107.625 106.566 106.128 105.718 105.386 105.337 104.544 103.751 103.228 102.715 101.902 101.061 100.276 99.749 99.353 99.000 99.000 99.000 99.000 99.000 99.000 99.000 99.000 99.000 99.242 99.720 99.996 100.793 101.000 101.405 101.789 101.000 101.000 101.000 100.565 100.000 99.963 99.306 98.515 97.696 97.107 96.990 96.893 96.278 95.506 94.724 94.062 94.005 94.000 94.000 94.000 94.000 94.000 94.000 93.446 93.000 93.000 93.000 92.933 92.317 91.498 90.459 88.719 86.838 85.015 82.930 80.563 78.106 75.985 75.193 74.768 74.961 76.585 79.874 82.767 84.105 83.943 83.000 83.000 82.549 82.371 82.384 82.397 82.410 82.423 82.201 82.000 82.000 82.000 82.000 82.569 83.000 83.000 83.000 83.000 83.000 82.829 82.592 82.605 82.618 82.002 81.364 81.000 81.015 81.271 81.305 81.156 81.000 81.000 81.000 81.000 81.000 80.700 80.000 80.000 79.407 79.162 79.100 79.000 79.000 79.000 79.000 79.000 79.000 79.000 79.000 79.000 79.000 78.804 77.998 77.192 75.792 74.205 72.832 72.039 71.246 71.097 70.660 69.642 68.271 68.297 68.214 67.694 67.187 67.200 67.213 67.226 67.117 67.000 67.000 67.000 67.213 67.303 66.971 66.128 65.057 64.237 64.569 65.143 65.575 66.394 66.420 66.093 65.711 65.362 65.000 65.000 65.000 65.000 65.115 65.464 65.451 65.438 65.692 66.112 66.507 67.610 68.435 69.532 70.348 70.335 70.322 70.309 70.082 69.849 69.674 68.829 67.984 67.566 67.358 67.171 67.005 67.000 67.000 67.000 67.000 67.000 67.000 67.000 67.420 68.034 68.095 67.263 65.787 64.588 64.012 63.999 63.986 63.973 63.499 63.271 63.928 63.851 63.881 64.352 64.802 64.870 64.857 64.958 65.000 65.000 65.000 65.000 64.832 64.330 64.000 64.000 64.000 64.000 63.821 63.410 63.000 63.000 63.000 63.000 62.565 62.147 62.571 62.086 61.719 61.560 61.547 61.534 61.521 60.820 60.496 60.628 60.940 60.914 60.569 60.730 61.000 61.000 61.000 61.000 61.000 61.128 61.341 61.328 61.848 62.000 62.113 62.276 62.265 62.856 63.000 63.000 63.000 63.000 63.000 63.000 63.000 63.256 64.000 64.000 64.000 64.000 63.738 62.978 62.159 62.044 62.032 61.709 61.011 61.000 61.000 61.522 62.316 63.152 63.958 64.000 64.000 63.959 63.718 63.011 63.000 63.000 63.000 63.000 63.000 63.000 63.000 62.896 62.386 61.115 59.555 60.885 61.697 61.684 61.619 61.077 61.000 61.313 61.433 61.000 61.000 60.699 60.568 60.372 60.000 60.000 60.000 60.000 60.000 59.920 59.548 59.548 59.233 59.224 59.586 59.600 59.926 59.386 59.000 59.079 59.326 59.052 59.000 59.000 59.000 59.000 59.000 59.000 59.000 59.000 59.073 59.723 59.818 59.407 59.000 59.000 59.000 59.000 59.000 59.032 59.255 60.152 61.688 63.239 64.421 65.376 66.975 66.987
 97.423 99.075 100.344 101.392 103.478 105.255 106.906 108.131 108.970 109.982 111.360 111.284 110.597 109.858 109.302 107.703 106.732 106.372 106.385 106.353 105.560 104.767 103.974 103.181 102.463 102.476 102.138 101.758 101.092 100.000 99.589 99.157 99.296 99.580 99.513 99.036 99.000 99.000 99.359 100.000 100.000 100.777 101.000 101.389 101.805 101.000 101.000 100.534 100.131 100.000 99.970 99.164 98.358 97.552 97.000 96.948 96.239 96.036 95.522 94.976 94.846 94.098 94.000 94.000 94.000 94.000 94.000 94.000 93.462 93.000 93.000 93.000 92.238 91.376 90.431 89.064 86.494 83.350 80.716 78.663 76.882 74.788 74.317 74.856 75.989 78.037 81.507 84.569 85.910 85.701 84.461 83.000 83.000 83.000 83.183 83.384 83.397 83.410 83.423 83.141 82.898 82.923 82.949 82.247 82.276 82.486 82.474 82.461 82.877 83.000 83.000 83.000 83.000 83.000 82.773 82.224 81.509 81.000 81.000 81.000 81.000 81.000 81.000 81.000 81.000 81.000 80.716 79.928 79.273 79.052 79.000 79.000 79.000 79.000 79.000 79.000 79.000 79.000 79.000 79.000 79.000 79.000 78.820 78.014 77.208 76.402 75.210 73.847 73.055 72.330 72.072 71.614 70.882 70.135 70.148 69.503 68.710 68.187 68.184 68.025 68.000 67.624 67.251 67.264 67.277 67.799 68.000 67.775 67.147 66.103 65.052 65.085 65.740 66.494 66.983 67.326 67.432 67.056 66.174 65.000 64.609 64.503 64.490 64.477 64.464 64.451 64.799 65.191 65.413 65.424 65.722 66.420 67.373 68.230 68.670 68.644 68.133 67.738 67.341 66.779 66.534 66.310 66.232 66.219 66.206 66.193 66.180 66.167 66.154 66.296 66.988 67.000 67.000 66.668 66.153 66.112 65.280 64.424 63.591 63.012 62.999 62.986 62.956 62.939 62.948 62.859 62.040 62.597 62.896 63.148 63.754 63.845 64.450 64.751 64.819 64.779 64.598 63.977 63.638 63.596 63.741 63.728 63.715 63.293 63.000 63.000 63.000 63.000 62.778 62.363 62.000 61.988 61.654 61.205 61.000 60.885 60.535 60.522 59.836 59.496 59.483 59.470 59.457 59.444 59.940 60.419 60.478 60.955 61.000 61.000 61.000 61.000 61.000 61.241 61.303 61.290 61.407 61.990 62.199 62.238 62.225 62.378 63.000 63.000 63.000 63.000 63.240 64.000 64.000 64.000 64.000 63.483 61.995 61.176 61.045 61.032 61.013 61.000 61.000 61.000 61.000 61.645 63.078 63.871 63.979 63.946 63.570 63.000 63.000 63.000 63.000 63.000 63.000 63.000 63.000 62.862 62.242 60.935 59.023 59.605 60.353 60.833 60.919 60.672 60.659 60.646 60.633 60.620 60.607 60.594 60.173 60.000 60.000 60.000 60.000 60.000 60.000 60.000 60.000 60.000 60.000 59.750 59.518 59.520 59.992 59.515 59.151 59.000 59.000 59.000 59.000 59.000 59.000 59.000 59.000 59.000 59.000 59.000 59.000 59.076 59.882 60.000 59.506 59.000 59.000 59.000 59.000 59.000 59.000 59.136 59.942 60.081 60.659 61.794 63.363 64.949 65.755
 97.147 99.043 100.328 101.134 101.940 103.915 105.772 107.202 108.285 109.679 110.495 110.706 110.425 109.938 109.668 108.601 107.967 107.588 107.299 106.971 106.165 105.631 104.990 104.197 103.463 103.476 103.816 103.764 103.094 101.919 100.702 99.853 99.786 100.000 99.881 99.075 99.000 99.000 99.122 99.343 99.330 100.077 100.698 101.108 101.228 101.004 101.000 100.404 99.688 99.213 99.197 99.034 98.374 97.568 97.000 96.956 96.150 96.000 95.538 95.000 94.995 94.950 94.956 94.969 94.689 94.000 94.000 93.985 93.462 93.000 92.992 92.932 92.105 90.700 88.744 86.201 82.851 80.256 77.860 75.941 74.654 74.000 75.152 76.486 78.975 82.527 86.124 87.690 87.171 85.800 84.255 83.000 83.000 83.000 83.654 84.384 84.396 84.409 84.126 84.000 84.000 83.945 83.561 82.763 82.232 81.824 81.552 81.976 82.761 83.000 83.000 83.000 83.000 83.000 83.000 82.856 82.447 81.659 81.122 81.000 81.000 81.000 80.967 80.365 80.241 79.871 79.372 79.187 79.023 79.000 79.000 79.000 79.000 79.000 79.000 79.000 79.000 79.000 79.000 79.000 79.000 79.000 78.836 78.030 77.210 76.387 75.585 74.817 74.070 74.016 72.835 72.063 71.776 71.000 71.000 70.358 69.630 69.139 68.952 68.318 68.074 68.000 68.000 68.000 68.000 68.000 68.000 68.000 68.000 68.000 66.797 66.367 66.723 67.393 67.406 67.861 68.000 67.627 66.724 65.494 64.310 64.296 64.509 64.522 64.527 64.098 64.275 64.674 65.000 65.000 65.000 65.246 65.529 65.966 66.671 66.645 66.407 66.297 66.199 66.000 66.000 65.459 64.831 64.182 63.619 63.580 64.153 64.335 64.612 65.306 66.099 66.116 66.103 66.055 65.821 65.064 64.245 63.426 62.608 62.013 62.000 61.987 61.349 61.430 61.948 61.879 61.124 61.611 61.896 61.884 61.960 62.753 62.845 63.254 63.638 63.516 62.852 62.620 62.122 62.014 62.522 62.717 62.716 62.703 62.690 62.677 62.664 62.651 62.257 62.000 62.000 61.985 61.179 61.000 60.810 60.417 59.979 59.594 59.175 59.000 59.000 59.000 59.000 58.619 58.645 59.012 59.449 59.752 60.205 60.368 60.567 61.000 61.000 60.489 60.303 60.545 61.046 61.257 61.833 62.000 62.000 62.041 62.200 62.187 62.680 63.000 63.033 63.162 63.856 64.000 63.595 62.809 61.940 61.134 61.000 61.000 61.000 61.000 60.994 60.981 60.968 61.255 62.004 62.785 63.504 63.225 62.782 62.756 62.730 62.704 62.679 62.588 62.474 62.598 62.576 61.953 60.813 59.540 58.736 58.723 59.338 60.131 60.521 60.000 60.000 60.000 60.000 60.000 60.000 60.000 60.000 60.000 60.000 60.000 60.000 60.000 60.000 60.000 60.000 60.000 60.000 60.000 59.847 59.557 59.408 59.087 59.000 59.000 59.000 59.000 59.000 59.000 59.000 59.000 59.000 59.000 59.000 59.000 59.000 59.013 59.170 58.634 58.656 58.761 58.222 58.910 59.000 59.000 59.000 59.010 59.062 59.055 59.064 59.411 60.348 61.921 63.504
 97.099 99.011 100.311 101.117 101.923 102.572 104.378 106.524 108.147 108.953 109.546 109.872 110.000 109.823 109.017 109.000 109.000 108.748 108.177 107.384 106.591 106.159 105.569 104.869 104.442 104.072 104.335 104.269 103.596 102.366 101.177 100.315 100.000 100.000 99.897 99.091 99.000 99.000 99.000 99.000 99.000 99.236 99.855 100.291 100.278 100.265 99.673 98.898 98.365 98.213 98.200 98.187 97.564 97.094 96.811 96.132 96.020 96.000 95.957 95.685 95.000 95.000 95.000 94.539 94.013 94.000 94.001 93.314 93.016 93.000 92.875 92.010 90.456 88.778 87.019 84.766 80.685 77.590 75.727 74.694 74.256 74.598 77.351 80.790 84.498 87.732 89.512 88.282 86.384 84.658 83.520 83.000 83.000 83.000 83.752 84.719 85.000 85.000 84.315 84.214 84.315 83.897 83.091 83.000 82.479 81.841 81.658 82.477 82.886 83.311 83.371 83.000 83.000 83.000 83.000 83.000 82.807 82.001 81.195 81.000 81.000 81.000 80.972 80.166 79.514 79.126 79.000 79.000 79.000 79.000 79.000 79.000 78.924 78.217 78.112 78.555 79.000 79.000 79.000 79.000 79.000 78.665 78.007 77.996 76.476 75.434 75.000 75.000 75.000 74.210 73.404 72.598 71.817 71.134 71.147 70.534 70.173 69.948 69.190 69.032 68.345 68.000 68.000 68.000 68.000 68.000 68.000 68.000 68.000 68.000 67.538 67.367 67.583 68.000 68.000 68.000 68.000 67.643 66.762 65.575 64.716 64.789 65.000 65.000 65.000 64.636 64.218 64.178 64.544 65.000 65.000 65.000 65.000 65.253 66.000 66.000 66.000 66.000 65.798 65.207 64.595 63.791 62.959 62.127 61.507 62.133 62.313 62.782 63.497 64.290 65.083 65.116 65.103 65.091 64.735 63.160 62.314 62.055 62.016 61.795 61.000 61.000 61.000 61.000 61.000 61.000 61.000 61.000 61.000 61.000 61.064 61.755 61.845 61.832 61.819 61.807 61.794 61.222 60.879 60.755 60.875 61.668 61.716 61.703 61.690 61.730 61.990 62.000 62.000 62.000 62.000 62.000 60.863 60.574 60.327 59.899 59.520 59.086 59.000 59.000 58.870 58.471 58.458 57.775 57.432 57.538 57.866 58.330 58.648 59.056 59.668 60.342 60.329 60.085 60.000 60.100 60.278 60.265 61.012 61.239 61.514 61.860 61.213 61.188 61.279 61.661 62.149 62.138 62.224 62.221 62.153 61.846 61.068 61.009 61.000 61.000 60.737 60.007 60.000 60.000 59.985 59.956 60.041 60.776 60.834 60.808 60.783 60.757 60.731 60.705 60.591 60.185 59.761 60.379 60.365 59.875 59.230 58.605 58.000 58.000 58.611 59.291 59.685 59.672 59.660 59.647 59.798 60.000 60.000 60.000 60.000 60.000 60.000 60.000 60.000 60.000 60.000 60.000 60.000 60.000 60.000 60.000 60.000 59.938 59.616 59.146 59.353 59.399 59.000 59.000 59.000 59.410 59.701 59.714 59.726 59.739 59.281 58.669 58.407 58.965 58.317 57.527 57.633 58.116 58.011 58.116 58.119 58.106 58.364 59.000 59.000 59.000 59.000 59.010 59.153 59.947 61.475
 97.050 98.899 100.171 101.101 101.907 102.153 103.549 105.735 107.877 108.670 108.720 109.095 109.497 109.571 109.022 109.000 109.000 109.000 108.809 108.003 107.197 106.391 105.585 105.000 104.973 104.167 104.000 103.777 103.114 101.913 100.672 100.148 100.000 100.000 99.913 99.107 98.569 98.370 98.357 98.420 98.948 99.000 99.163 99.292 99.279 99.266 98.494 97.676 97.227 97.214 97.201 97.188 97.071 97.000 96.969 96.864 96.877 96.890 96.903 96.680 95.929 95.942 95.955 95.508 94.981 94.922 94.129 94.006 93.510 92.987 92.738 91.113 89.368 87.098 84.220 80.774 77.014 75.325 74.927 75.187 75.979 78.122 82.152 86.576 89.839 91.156 90.735 88.311 85.449 83.585 83.000 83.000 83.000 83.000 83.281 83.772 84.209 84.183 83.770 84.040 84.397 83.913 83.107 83.000 82.747 82.671 83.106 83.502 83.551 83.797 83.659 83.000 83.000 83.000 83.000 83.000 82.939 82.673 81.892 81.281 81.000 81.000 80.988 80.182 79.376 79.000 79.000 79.000 79.000 79.000 79.000 78.774 78.128 78.015 78.000 78.490 79.000 79.000 79.000 79.000 78.498 78.015 77.869 77.062 76.256 75.450 75.000 75.000 75.000 74.226 73.420 72.614 72.000 72.000 72.000 71.488 71.172 70.964 70.171 69.378 68.585 68.131 68.000 68.000 68.000 68.000 68.000 68.000 68.000 68.000 68.000 68.000 68.000 68.000 68.000 68.000 68.000 67.659 66.706 65.094 64.634 64.784 65.000 65.000 65.000 65.000 64.405 64.000 64.207 65.000 65.000 65.000 65.000 65.083 65.336 65.324 64.859 64.272 63.778 63.471 62.639 61.808 61.352 61.155 61.021 61.177 61.181 61.256 61.637 62.418 63.198 63.891 64.104 63.767 62.982 62.099 62.012 61.443 61.026 61.011 61.000 61.000 61.000 61.000 61.000 61.000 61.000 61.000 61.000 61.000 61.000 61.000 61.000 61.000 61.000 61.000 61.000 60.847 60.380 60.000 60.087 60.674 60.717 60.704 60.691 60.873 61.938 62.000 62.000 62.000 62.000 62.000 60.422 60.000 59.824 59.435 59.000 59.000 58.694 58.497 58.370 58.000 58.000 57.345 57.000 57.000 57.030 57.346 57.381 57.859 58.652 59.343 59.330 59.317 59.304 59.291 59.278 59.265 59.997 60.658 61.081 61.179 61.006 61.000 61.000 61.063 61.149 61.136 61.124 60.568 60.196 60.151 60.072 60.059 60.046 60.033 60.015 60.000 60.000 60.000 59.524 59.000 59.000 59.000 59.000 59.000 59.000 59.000 59.000 59.000 58.464 58.000 58.000 58.000 58.000 58.000 58.000 58.000 58.000 58.000 58.424 58.820 59.000 59.000 59.000 59.000 59.273 59.621 59.609 59.596 59.583 59.570 59.675 60.000 60.000 60.000 60.000 60.000 60.000 60.000 60.000 60.000 60.000 60.000 60.000 59.710 59.831 59.870 59.649 59.662 59.152 59.181 59.300 59.424 59.999 60.000 58.931 58.137 58.049 58.204 58.033 57.360 57.076 57.158 57.145 57.133 57.120 57.107 57.121 57.162 57.137 58.433 59.000 59.000 59.002 59.004 59.723
 97.052 98.473 99.558 101.085 101.891 102.697 103.389 104.538 106.384 107.367 107.441 107.571 108.137 109.000 109.000 109.000 109.000 108.863 108.509 108.012 107.213 106.407 105.601 105.000 104.994 104.571 104.184 103.571 102.765 101.940 100.763 100.552 100.306 99.847 99.338 98.520 97.701 97.370 97.357 97.444 98.237 98.804 99.000 99.000 98.906 98.313 97.511 97.109 97.000 97.000 97.000 97.000 96.523 96.484 97.000 97.000 97.000 97.541 97.902 97.696 96.928 96.941 96.954 96.953 96.716 95.938 95.145 94.352 93.559 92.740 91.761 90.019 86.840 83.501 80.005 76.537 75.011 74.449 75.030 76.836 79.853 83.961 87.745 90.777 92.063 91.353 89.512 87.081 84.983 83.722 83.252 83.000 83.000 83.000 83.000 83.000 83.000 83.000 83.000 83.260 83.553 83.502 83.065 83.000 83.000 83.144 83.528 83.950 84.000 84.000 83.675 83.000 83.000 83.000 83.000 83.000 83.000 83.000 82.228 81.422 81.000 80.863 80.271 79.453 79.095 79.000 79.000 79.000 79.000 79.000 78.629 78.114 78.000 78.000 78.000 78.047 78.343 79.000 79.000 79.000 78.496 77.697 77.008 76.997 76.268 75.482 75.028 75.000 75.000 74.304 73.531 72.698 72.000 72.000 72.000 72.000 72.000 71.833 71.186 70.393 69.600 68.807 68.191 68.000 68.000 68.000 68.000 68.000 68.000 68.000 68.000 68.000 68.000 68.000 68.000 68.000 68.000 67.675 66.738 65.126 64.257 64.549 65.000 65.000 65.000 64.577 64.185 64.000 64.191 64.997 65.000 65.000 65.000 64.857 64.319 63.761 62.544 61.762 61.570 61.529 61.295 61.082 61.000 61.000 61.000 61.000 61.000 61.000 61.048 61.259 62.052 62.845 63.104 62.751 62.067 62.003 61.282 61.017 61.000 61.000 61.000 61.000 61.000 61.000 61.000 61.000 61.000 60.944 60.898 60.885 60.877 60.979 60.899 60.833 60.820 60.807 60.795 60.247 60.000 60.000 60.000 60.000 60.000 60.000 60.100 60.542 61.895 62.000 62.000 62.000 61.938 61.614 60.360 59.754 59.346 59.000 59.000 58.618 58.200 58.000 57.886 57.472 57.459 57.161 57.000 56.855 56.408 56.395 56.382 56.844 57.637 58.400 58.928 59.000 59.000 59.000 59.000 59.000 59.728 60.128 60.227 60.214 60.201 60.804 61.000 61.000 61.000 61.000 61.000 60.934 60.902 60.726 60.000 60.000 60.000 60.000 60.000 60.000 60.000 60.000 59.540 59.000 59.000 59.000 59.000 59.000 59.000 59.000 59.000 58.896 58.404 58.000 58.000 58.000 58.000 58.000 57.916 57.791 57.991 58.000 58.000 58.269 58.686 58.673 58.660 58.648 58.635 58.705 59.000 59.000 59.000 59.000 59.140 59.571 59.936 60.000 60.000 60.000 60.000 60.000 60.000 60.000 60.000 60.000 60.000 60.000 60.000 60.000 59.905 59.370 59.079 59.000 59.000 59.051 59.270 59.262 58.506 57.694 57.383 58.000 58.000 57.885 57.472 57.000 57.000 57.000 56.424 56.518 57.000 57.066 57.818 57.375 58.024 59.000 59.000 59.000 59.000
 97.302 98.457 99.526 101.069 101.875 102.681 103.000 103.293 104.148 105.329 105.640 106.225 107.341 108.723 108.978 109.000 108.805 108.408 108.000 108.000 107.229 106.180 105.349 104.916 104.542 104.526 103.907 103.088 102.381 101.988 101.617 101.201 100.558 99.752 98.914 97.620 97.128 97.000 97.000 97.029 97.295 97.540 97.960 98.293 98.165 97.347 95.986 95.885 96.228 96.215 96.202 96.189 96.077 96.060 96.298 96.983 97.000 97.592 98.000 97.983 97.919 97.173 97.593 97.553 96.995 96.953 96.159 95.367 94.545 93.141 90.541 87.163 82.550 78.758 76.258 74.925 74.340 75.931 78.281 81.488 85.510 89.116 91.334 92.300 91.731 89.806 87.565 85.559 84.423 84.000 83.871 83.333 83.343 83.140 83.000 83.000 83.000 83.000 83.000 83.000 83.000 83.000 83.000 83.000 83.000 83.000 83.040 83.412 83.450 83.437 83.293 83.000 83.000 83.000 83.000 83.000 83.000 83.000 82.244 81.438 81.000 80.826 80.020 79.214 79.000 79.000 79.000 79.000 79.000 79.000 78.572 78.000 78.000 78.000 78.000 78.000 78.023 78.074 78.061 78.697 78.512 77.706 76.901 76.094 76.000 76.000 75.676 75.000 75.000 75.060 74.546 73.362 71.981 71.872 71.967 72.000 72.000 72.000 72.000 71.367 70.616 69.823 69.030 68.262 68.275 68.288 68.301 68.236 68.000 68.000 68.000 68.000 68.000 68.000 68.000 68.000 67.784 67.111 65.963 65.084 64.273 64.269 64.492 64.479 64.467 64.110 64.000 64.000 64.072 64.394 64.389 64.376 64.363 64.279 63.983 62.632 61.495 61.000 61.000 61.000 61.000 61.000 61.000 61.000 61.000 61.000 61.000 61.000 61.000 61.100 61.906 62.712 63.000 62.676 61.880 61.126 61.014 61.000 61.000 61.000 61.000 61.000 61.000 61.000 61.000 61.000 60.939 60.357 60.000 60.000 60.022 60.715 60.307 60.000 60.000 60.000 60.000 60.000 60.000 60.000 60.000 60.000 60.000 60.000 60.309 61.115 61.921 62.000 62.000 62.000 61.855 61.049 60.243 59.437 58.839 58.550 58.537 58.112 58.000 57.800 57.386 57.000 57.000 56.655 56.434 56.322 56.000 56.000 56.000 56.169 56.621 57.322 57.034 57.885 58.644 59.000 59.000 59.000 59.181 58.847 58.455 58.429 58.404 58.518 58.980 59.326 59.437 60.108 60.125 60.112 60.099 60.070 60.000 60.000 60.000 60.000 60.000 60.000 59.996 59.972 59.509 58.957 58.944 58.931 58.918 58.906 58.893 58.880 58.867 58.156 57.841 57.828 57.815 57.803 57.790 57.777 57.424 56.896 57.690 57.725 57.712 57.700 57.687 57.674 57.661 57.648 57.781 58.205 59.000 59.000 59.000 59.000 59.000 59.022 59.451 59.833 60.000 60.000 60.000 60.000 60.000 60.000 60.000 60.000 60.000 60.000 60.000 60.000 59.869 59.063 59.000 59.000 59.000 59.000 59.000 59.000 58.422 57.909 57.819 57.999 58.000 58.000 57.586 57.000 57.000 57.000 56.362 56.048 56.321 57.005 57.060 57.649 57.544 57.061 57.205 58.785 58.995
 97.270 98.512 99.625 101.053 101.859 102.523 102.773 103.104 104.000 104.000 104.501 105.063 106.005 107.478 108.258 108.064 107.589 107.261 107.235 107.209 106.429 105.272 104.566 104.457 104.012 103.629 102.923 102.302 102.000 101.996 101.562 101.170 100.574 99.634 98.333 96.708 96.384 96.371 96.190 95.690 95.664 95.638 96.098 96.586 96.533 96.293 95.364 95.124 95.228 95.215 95.202 95.189 95.626 96.000 96.024 96.132 96.798 97.064 97.443 98.000 98.000 97.952 97.982 97.986 97.766 97.000 97.001 96.341 94.572 91.531 87.339 82.483 78.423 75.956 75.030 75.236 76.384 79.373 82.568 85.951 89.371 90.671 91.204 90.672 89.114 87.031 85.810 84.967 84.311 84.000 84.000 84.000 84.000 83.619 83.368 83.304 83.000 83.000 83.000 83.000 83.000 83.000 83.000 83.000 83.000 83.000 83.000 83.000 83.374 83.563 83.576 83.531 83.057 83.000 83.000 83.000 83.000 83.000 82.260 81.832 81.457 80.842 80.036 79.230 78.564 78.524 79.000 79.000 79.000 79.000 78.588 78.000 78.000 78.000 78.000 78.000 78.000 78.000 78.000 78.033 77.564 76.745 76.009 76.000 76.000 76.000 75.705 75.055 75.067 75.748 75.419 73.917 71.874 71.176 71.791 72.000 72.000 72.000 72.000 72.000 71.409 70.603 69.797 69.000 69.000 69.000 69.000 68.767 68.000 68.000 68.000 68.000 68.000 68.000 68.000 68.000 67.304 66.101 65.000 65.000 64.289 64.000 64.000 64.000 64.000 64.000 64.000 64.000 64.000 64.000 64.000 64.000 64.000 64.000 64.000 62.939 61.664 61.000 61.000 61.000 61.000 61.000 61.000 61.000 61.000 61.000 61.000 61.000 61.000 61.012 61.117 61.814 62.105 62.064 61.886 61.080 61.000 61.000 61.000 61.000 61.000 61.000 61.000 61.000 61.000 61.000 60.214 60.000 60.000 60.000 60.000 60.000 60.000 60.000 59.958 59.808 59.795 59.783 59.770 59.821 60.000 60.000 60.000 60.000 60.293 61.099 61.905 62.000 62.000 62.000 61.821 60.693 59.848 59.029 58.210 57.550 57.537 57.891 58.000 57.617 57.000 57.000 56.568 56.176 56.000 56.000 56.000 56.000 56.000 56.000 56.089 56.325 56.046 56.879 57.778 58.292 58.280 58.267 58.254 57.357 56.456 56.430 56.405 56.379 56.447 56.774 57.446 58.226 58.250 58.224 58.198 58.173 58.147 58.121 58.095 58.070 58.243 59.009 58.992 58.355 57.970 57.958 57.945 57.932 57.919 57.863 57.786 57.760 57.735 57.126 56.764 56.657 56.632 56.606 56.580 56.554 56.281 55.881 56.674 56.726 56.713 56.700 56.737 56.989 57.000 56.797 57.019 57.812 58.605 58.920 59.000 59.000 59.000 59.011 59.388 59.811 60.000 60.000 60.000 60.000 60.000 60.000 60.000 60.000 60.000 60.000 60.000 60.000 59.885 59.079 59.000 59.000 59.000 59.000 59.000 59.000 58.860 58.482 58.000 58.000 58.000 58.000 57.602 57.000 57.000 57.000 56.378 56.382 56.927 57.000 57.000 57.037 57.024 57.000 57.003 57.010 58.354
 97.238 98.850 100.191 100.850 101.643 101.787 101.774 102.282 103.765 103.966 104.000 104.000 104.405 105.432 105.945 105.505 105.288 105.262 105.236 105.210 104.747 104.264 104.000 103.930 103.557 103.122 102.705 102.309 102.000 102.000 101.202 100.667 99.795 98.414 96.776 95.138 94.769 94.743 94.629 94.345 94.332 94.319 94.776 95.293 95.222 94.617 94.332 94.242 94.229 94.128 93.471 93.966 94.706 95.164 95.271 95.955 96.754 97.000 97.366 98.000 98.000 98.000 98.000 98.000 97.996 97.985 97.174 95.055 91.250 86.326 81.536 77.611 75.643 75.044 75.455 76.763 80.148 83.254 85.781 87.895 89.627 89.601 88.716 87.410 85.958 84.749 84.736 84.189 84.000 84.000 84.000 84.000 84.000 84.000 84.000 83.884 83.398 83.407 83.166 83.000 83.000 83.000 83.000 83.000 83.000 83.000 83.000 83.000 83.664 84.000 83.841 83.378 83.045 83.000 83.000 83.000 83.000 83.000 82.276 82.000 81.664 80.858 80.052 79.246 78.864 78.854 79.000 79.000 79.000 79.000 78.604 78.000 78.000 78.000 78.000 78.000 78.000 77.965 77.209 77.049 76.581 76.017 76.000 76.000 76.000 76.000 76.000 75.995 75.939 75.920 74.924 73.391 72.104 72.009 72.000 72.086 72.171 72.155 72.007 72.000 71.553 70.764 69.859 69.266 69.055 69.000 69.000 68.851 68.318 68.058 68.000 68.000 68.000 68.000 68.000 67.723 66.831 65.723 65.000 65.000 64.639 64.247 64.000 64.000 64.000 64.000 64.000 64.000 64.000 64.000 64.000 64.000 63.767 63.351 63.338 63.070 62.225 61.423 61.000 61.000 61.000 61.000 61.000 61.000 61.000 61.000 61.000 61.000 61.000 61.000 61.000 61.081 61.106 61.093 61.072 61.006 61.000 61.495 61.972 61.859 61.066 61.000 61.000 61.000 60.992 60.940 60.213 60.000 60.000 60.000 60.000 60.000 60.000 59.932 59.643 59.000 59.000 59.000 59.000 59.187 59.758 59.962 59.813 59.706 59.970 60.763 61.556 61.895 62.000 62.000 61.774 60.162 58.680 57.622 56.937 56.615 56.976 57.755 58.000 57.633 56.911 56.485 56.099 56.000 55.776 55.422 55.409 55.396 55.383 55.370 55.507 56.000 56.000 56.207 56.445 56.586 56.609 57.175 57.254 55.900 54.231 53.647 53.608 53.570 53.956 54.650 55.431 56.211 56.251 56.225 56.199 56.174 56.148 56.122 56.096 56.070 56.233 57.013 56.993 56.967 56.942 56.916 56.890 56.864 56.839 56.412 55.894 55.881 55.868 55.758 55.287 54.829 54.816 54.803 54.791 54.778 54.765 54.865 55.659 55.726 55.713 55.802 56.099 56.641 56.662 56.285 56.234 56.796 57.590 58.383 58.830 59.000 59.090 59.459 59.901 60.000 60.000 60.000 60.000 60.000 60.000 60.000 60.000 60.000 60.000 59.586 59.379 59.366 59.318 59.032 59.000 59.000 59.225 59.620 59.047 59.000 58.590 58.154 58.000 58.000 58.000 58.000 57.618 57.000 57.000 57.000 56.394 56.045 56.293 57.000 57.000 57.000 57.000 57.000 57.000 57.000 57.000
 97.117 98.657 99.864 100.017 100.662 100.787 100.873 101.431 102.786 103.365 103.629 103.709 103.696 103.709 103.963 104.000 103.823 103.631 103.618 103.606 103.593 103.802 103.855 103.351 102.160 102.411 103.057 103.134 102.424 102.012 100.798 99.862 98.648 97.024 95.402 94.263 93.620 93.372 93.359 93.322 92.771 92.640 92.753 93.065 93.543 93.302 92.750 92.851 93.229 93.195 93.020 93.135 93.691 94.164 94.277 95.070 96.508 97.000 97.035 97.086 97.073 97.782 98.000 98.000 97.819 97.017 94.580 90.248 84.929 79.950 76.847 75.322 75.104 75.755 77.522 80.843 84.611 86.425 87.319 87.702 87.799 87.625 86.337 85.276 84.530 84.000 84.000 84.000 83.847 83.697 83.684 83.671 83.916 84.000 84.000 84.000 84.000 84.000 83.658 83.262 83.000 83.000 83.000 83.000 83.000 83.000 83.000 83.000 83.293 83.438 83.464 83.549 83.077 83.000 83.000 83.000 82.937 82.400 82.094 82.000 81.680 80.874 80.068 79.262 79.000 78.731 78.340 78.970 79.000 79.000 78.620 78.000 78.000 78.000 78.000 78.000 78.000 77.978 77.172 77.000 76.560 76.000 76.000 76.000 76.000 76.000 76.000 75.918 75.113 74.945 74.454 73.695 72.902 72.203 72.040 72.529 73.000 72.859 72.053 72.000 71.876 71.121 70.000 70.000 69.217 69.000 69.000 69.000 68.995 68.462 68.351 68.209 68.000 67.986 67.660 66.935 66.116 65.413 65.000 65.000 65.000 64.754 64.359 64.000 64.000 64.000 64.000 64.000 64.000 64.000 64.000 63.661 63.237 63.000 63.000 63.000 62.426 61.620 61.000 61.000 61.000 61.000 61.000 61.000 61.000 61.000 61.000 61.000 61.000 61.000 61.000 61.000 61.000 61.000 61.000 61.000 61.656 61.979 62.000 61.888 61.082 61.000 60.988 60.964 60.816 60.049 60.000 60.000 60.000 60.000 60.000 60.000 60.000 59.604 59.000 59.000 59.000 59.000 59.000 59.056 59.274 59.659 59.070 58.706 58.874 59.428 60.208 60.988 61.283 61.257 61.075 59.758 57.463 56.062 55.844 56.519 56.964 57.739 57.734 57.149 56.410 56.018 55.586 55.448 55.269 55.000 55.000 55.000 55.000 55.000 55.078 55.345 55.332 55.319 55.306 55.468 56.015 56.230 55.760 54.429 52.953 52.216 52.203 52.190 52.678 53.471 54.264 55.057 55.126 55.113 55.100 55.087 55.074 55.061 55.049 55.036 55.027 55.020 54.997 54.984 54.971 54.958 54.946 54.933 54.920 54.867 54.788 54.767 54.848 54.300 54.000 54.000 54.000 54.000 54.000 54.000 54.000 54.073 54.668 54.921 55.000 55.225 55.688 55.675 55.912 56.000 55.872 55.840 56.949 57.769 58.337 58.735 59.187 59.993 60.000 60.000 60.000 60.000 60.000 60.000 59.655 59.689 60.000 59.969 59.489 59.131 59.000 59.000 59.000 59.000 59.000 59.343 59.577 59.257 59.022 59.000 58.469 58.000 57.889 57.253 57.199 57.186 57.110 57.000 57.000 57.000 56.410 56.000 56.019 56.083 56.071 56.642 57.000 57.000 57.000 57.000 57.004
 96.439 97.562 98.852 99.628 99.763 99.919 100.327 100.990 101.749 101.736 102.369 102.710 102.697 102.748 103.541 103.658 103.163 102.632 102.619 102.606 102.306 102.672 102.816 101.860 100.222 100.792 101.852 102.505 102.256 101.013 99.394 98.643 98.107 97.208 95.609 94.327 93.398 92.744 92.222 91.673 90.841 90.641 90.918 91.366 91.527 90.911 90.597 90.953 91.670 92.217 92.204 92.750 93.088 93.165 93.354 94.843 95.812 96.113 96.400 97.000 97.000 97.751 98.000 97.649 96.356 93.134 88.281 82.784 78.313 75.732 75.001 75.167 76.581 79.126 82.273 85.182 86.591 86.759 86.300 86.042 86.576 85.905 85.255 84.517 84.000 84.000 84.000 83.805 83.198 82.794 83.039 83.305 84.078 84.354 84.239 84.000 84.000 83.689 83.581 83.353 83.000 83.000 83.000 83.000 83.000 83.000 83.000 83.000 83.000 83.246 83.678 83.950 83.144 83.000 83.000 83.000 82.920 82.114 82.000 82.000 81.696 80.969 80.752 80.021 79.357 78.923 78.812 78.989 79.000 79.000 78.636 78.000 78.000 78.000 78.000 78.000 78.000 77.994 77.188 77.000 76.576 76.000 76.000 76.000 76.000 75.988 75.960 75.885 75.120 74.323 74.000 73.711 73.000 73.000 72.394 72.509 72.830 72.715 72.055 71.846 71.356 70.651 70.000 70.000 69.233 69.000 69.000 69.000 69.000 69.000 68.789 68.376 67.919 67.590 66.771 66.215 65.561 65.000 65.000 65.000 65.000 64.769 64.358 64.000 64.000 64.000 64.000 64.000 63.936 63.454 63.391 63.178 63.000 63.000 63.000 63.000 62.442 61.636 61.000 61.000 61.000 61.000 61.000 61.000 61.000 61.000 61.000 61.000 61.000 61.000 61.000 61.000 61.000 61.000 61.061 61.813 62.623 62.958 62.689 61.904 61.098 61.000 60.486 60.000 60.000 60.000 60.000 60.000 60.000 60.000 60.000 60.000 59.913 59.518 59.000 59.000 59.000 59.000 59.094 59.353 59.724 58.905 58.086 57.707 57.694 57.716 58.240 58.744 58.926 58.989 59.182 58.671 57.079 56.134 56.215 57.050 57.423 57.512 56.984 56.333 55.928 55.502 54.709 54.449 54.642 55.000 55.000 54.528 54.747 55.000 54.871 54.345 54.333 54.320 54.307 54.524 55.281 55.268 54.607 53.333 52.170 52.000 52.000 52.000 52.086 52.455 53.167 53.265 53.871 54.113 54.101 54.088 54.075 54.062 54.049 54.036 54.023 54.010 53.995 53.969 53.954 53.959 53.946 53.880 53.840 53.443 52.894 52.903 53.697 53.947 54.000 54.000 54.000 54.000 54.000 54.000 54.000 54.000 54.000 54.504 54.714 54.793 55.000 55.000 55.479 55.650 55.423 55.230 56.526 57.654 58.000 58.365 59.171 59.977 60.000 60.000 60.000 60.000 59.996 59.569 59.174 59.189 59.431 59.403 59.064 59.000 59.000 59.000 59.000 59.000 59.000 59.485 59.912 59.642 59.070 59.000 58.485 57.756 57.197 57.014 57.000 57.000 57.000 57.000 57.000 56.336 56.052 56.000 56.000 56.000 56.000 56.035 56.045 56.242 57.000 57.000 57.630
 95.424 96.217 96.978 97.619 98.397 99.177 99.551 99.788 100.754 100.954 101.456 101.710 101.771 102.033 102.574 102.658 102.344 101.900 101.590 101.258 100.497 100.241 100.098 99.495 98.215 98.438 99.073 99.840 100.334 99.530 98.366 98.000 97.796 97.089 95.464 94.308 93.414 92.362 91.162 90.343 89.524 89.321 89.438 89.590 89.530 88.698 88.512 89.279 90.488 91.217 91.204 91.867 92.574 93.000 93.187 94.799 95.705 96.000 96.032 96.200 96.935 96.355 95.582 93.754 90.222 85.320 80.392 76.678 74.616 74.241 75.154 77.699 80.762 83.483 85.297 85.998 85.890 85.315 85.000 84.958 84.815 84.802 84.789 84.414 84.000 83.980 83.767 82.843 82.213 82.303 83.143 84.214 85.061 85.354 85.034 84.379 84.392 83.959 83.604 83.275 83.000 83.000 83.000 83.000 83.000 83.000 83.000 83.000 83.338 83.746 84.000 83.966 83.160 83.000 83.000 82.835 82.326 82.044 82.000 82.000 81.712 81.000 81.000 80.294 79.875 79.768 79.781 79.794 79.807 79.376 78.652 78.000 78.000 78.000 78.000 77.661 77.090 77.077 77.013 77.000 76.985 76.767 76.000 76.000 75.991 75.547 75.000 75.000 75.000 74.339 74.000 73.727 73.000 73.000 73.000 72.503 72.000 71.980 71.822 71.221 71.000 70.667 69.966 69.755 69.181 69.000 69.000 68.947 68.684 68.663 68.268 67.857 67.425 66.608 66.113 66.000 65.758 65.340 64.984 64.608 64.831 64.770 64.375 64.000 64.000 64.000 64.000 63.836 63.378 63.040 63.000 63.000 63.000 63.000 63.000 62.504 62.144 61.652 61.000 61.000 61.000 61.000 61.000 61.000 61.000 61.000 61.000 61.000 61.000 61.000 61.000 61.000 61.000 61.000 61.050 61.856 63.287 63.957 63.431 61.920 61.114 60.994 60.491 60.000 60.000 60.000 60.000 60.000 60.000 60.000 60.000 59.896 59.376 59.000 59.000 59.000 59.000 59.000 59.304 59.559 58.740 57.921 57.275 57.000 57.000 57.000 57.000 57.000 56.838 56.889 57.642 57.949 57.600 57.422 57.435 57.458 57.532 56.819 56.001 55.501 55.363 54.544 54.122 54.000 54.349 55.000 55.000 54.233 54.220 54.372 54.293 54.003 54.000 54.000 54.000 54.063 54.281 54.269 53.152 52.273 52.000 52.000 52.000 52.000 52.000 52.045 52.153 52.140 52.215 52.228 52.202 52.277 52.998 53.062 53.049 53.037 52.887 52.075 51.998 51.985 52.326 52.919 52.893 52.137 51.967 51.964 51.916 52.005 52.706 53.474 53.910 53.961 53.818 53.805 53.927 54.000 54.000 54.000 54.000 54.000 54.000 54.203 54.719 54.968 55.000 55.000 55.000 55.125 55.931 57.179 57.586 58.072 59.155 59.961 60.000 60.000 60.000 60.000 60.000 59.203 59.000 59.000 59.000 59.000 59.000 59.000 59.000 59.000 59.000 59.000 59.000 59.469 59.808 59.267 59.031 59.000 58.875 58.225 56.914 56.279 56.200 56.187 56.174 56.162 56.149 56.034 55.510 55.110 55.097 55.084 55.072 55.059 55.422 56.007 56.026 56.814 56.992
 94.554 95.303 95.828 95.815 96.426 97.038 97.415 97.872 99.252 100.231 100.617 100.832 101.226 102.000 102.000 102.000 101.841 101.283 100.178 99.346 98.514 97.682 97.136 97.018 96.186 96.058 96.295 96.825 97.470 97.431 97.052 97.198 97.092 96.122 94.497 93.635 93.166 92.249 90.818 90.012 88.678 87.914 87.897 88.146 87.547 86.715 86.981 87.785 88.702 89.435 89.409 90.042 91.205 92.392 93.089 94.007 95.418 96.000 96.000 96.009 96.068 93.993 91.123 87.252 82.494 78.354 75.748 74.447 74.411 75.641 78.191 82.129 84.903 86.057 85.979 85.878 85.166 85.000 85.000 84.773 83.994 83.834 83.789 83.676 83.527 83.454 82.835 81.561 81.342 81.985 82.871 84.470 85.604 86.180 86.050 85.425 85.756 85.810 85.295 84.515 83.752 83.038 83.000 83.000 83.000 83.000 83.000 83.000 83.272 83.440 83.427 83.406 83.070 82.614 82.375 82.274 82.000 82.000 82.000 82.000 81.728 81.000 81.000 80.822 80.755 80.999 81.477 80.862 80.806 80.294 79.501 78.729 78.048 78.000 77.509 77.066 77.000 77.000 77.000 77.000 77.000 76.802 76.000 76.000 75.385 75.000 75.000 74.998 74.945 74.327 74.000 73.769 73.110 73.017 72.904 72.438 72.000 71.907 71.101 71.000 70.887 70.524 69.907 69.312 69.072 69.000 68.897 68.584 68.028 68.000 67.800 67.397 66.886 66.395 66.401 66.414 66.254 65.787 64.981 64.175 64.631 65.000 64.757 64.000 64.000 63.641 63.443 63.313 63.000 63.000 63.000 63.000 63.000 62.930 62.397 62.091 62.000 61.668 60.902 60.316 60.263 60.667 61.000 61.000 61.000 61.000 61.000 61.000 61.000 61.000 61.000 61.000 61.000 61.000 61.034 61.840 62.682 63.043 62.514 61.016 61.001 60.324 60.000 60.000 60.000 60.000 60.000 60.000 60.000 60.000 60.000 59.366 59.069 59.000 59.000 59.000 59.000 59.000 58.914 58.576 57.757 56.938 56.720 56.707 56.695 56.688 56.942 57.000 56.563 56.153 56.666 57.459 57.591 57.578 57.566 57.474 56.655 55.836 55.017 54.501 54.435 54.040 54.000 54.290 54.521 54.424 54.411 54.099 53.658 53.372 53.359 53.346 53.854 54.399 54.692 54.705 54.715 54.138 52.767 51.680 51.230 51.217 51.205 51.192 51.179 51.166 51.153 51.140 51.127 51.114 51.101 51.097 51.144 51.126 51.586 52.037 52.021 52.001 51.264 51.000 51.000 51.000 51.000 51.000 51.527 51.565 51.165 51.874 51.973 52.516 53.188 53.520 53.000 53.000 53.501 53.779 53.767 53.754 53.741 53.728 53.848 54.000 54.055 54.599 54.896 54.826 54.638 54.734 55.528 56.610 57.000 57.525 58.700 59.493 59.535 59.788 60.000 60.000 60.000 59.632 59.224 59.000 59.000 59.000 59.000 59.000 59.000 59.000 59.000 59.000 59.000 59.143 59.225 59.000 59.000 59.000 59.000 58.642 57.606 56.177 55.435 55.188 55.175 55.266 55.941 55.364 55.056 55.000 55.000 55.000 54.289 54.059 54.425 55.033 55.021 55.014 55.597
 94.392 94.896 94.974 94.823 94.802 94.789 95.067 95.707 96.487 97.851 98.771 99.655 100.670 101.685 101.672 101.659 101.059 99.875 98.574 97.755 96.669 95.893 95.452 95.001 93.799 93.588 93.788 94.307 94.981 94.955 94.929 95.427 95.732 95.232 94.082 93.252 93.000 92.281 90.729 89.395 88.297 87.021 86.429 86.396 85.565 85.322 85.414 85.907 86.687 87.436 87.410 88.027 89.257 90.800 92.214 93.007 94.474 95.114 94.845 93.927 91.661 89.202 85.726 81.327 76.889 75.179 74.269 74.580 76.169 78.991 83.007 85.456 86.638 86.625 85.838 85.131 85.027 85.000 84.936 84.654 83.983 83.177 82.868 82.342 81.764 81.751 81.738 81.067 80.712 80.888 81.502 82.823 84.592 85.789 86.188 86.147 87.270 87.695 87.748 87.391 86.440 84.511 83.705 83.215 83.000 83.000 83.000 83.000 82.680 82.440 82.427 82.415 82.885 82.386 82.000 82.000 82.000 82.000 81.564 81.311 81.221 81.000 81.000 81.000 81.362 82.053 82.831 83.319 82.851 82.545 81.655 79.620 78.134 78.000 77.460 77.000 77.000 77.000 77.000 77.000 76.639 76.021 76.000 76.000 75.401 75.000 75.000 74.983 74.177 74.000 74.000 74.000 73.953 73.147 72.341 72.000 72.000 71.923 71.117 71.000 70.505 70.000 70.000 70.000 69.281 69.000 68.669 68.000 68.000 68.000 67.445 67.000 67.000 67.000 67.000 67.000 66.776 66.330 65.902 64.746 65.093 65.491 65.164 63.983 63.555 63.162 63.000 63.000 63.000 63.000 62.590 62.379 62.366 62.321 62.035 62.000 61.650 61.206 60.965 60.744 60.196 60.135 60.501 61.000 61.000 61.000 61.000 61.000 61.000 61.000 61.000 61.000 61.000 61.000 61.001 61.057 61.092 61.087 61.046 61.000 61.000 60.340 60.000 60.000 60.000 60.000 60.000 60.000 60.000 60.000 60.000 60.000 59.553 59.109 59.000 59.000 59.000 58.881 58.411 57.592 56.773 55.954 55.721 55.708 55.755 56.003 56.809 57.000 56.579 55.916 55.638 56.112 56.447 56.579 56.454 56.071 55.611 54.852 54.267 54.000 54.048 54.471 54.916 55.049 54.683 54.000 54.000 53.558 53.177 53.000 53.000 53.000 53.765 54.571 55.000 55.000 55.000 54.205 52.799 51.593 51.000 51.000 51.000 51.000 51.000 51.000 51.000 51.000 51.000 50.587 50.102 50.089 50.076 50.063 50.547 51.038 51.025 51.012 50.999 50.986 50.973 50.960 50.947 50.934 50.922 50.942 51.000 51.000 51.679 51.941 52.000 52.164 52.819 52.806 52.793 52.780 52.767 52.762 52.959 53.000 53.323 53.779 54.000 54.000 54.449 54.338 54.000 54.058 54.551 56.011 56.798 57.317 58.123 58.929 59.000 59.541 60.000 60.000 60.000 60.000 59.429 59.000 59.000 59.000 59.000 59.364 59.367 59.000 59.000 59.000 59.000 59.000 59.000 58.965 58.383 58.751 59.000 58.727 57.842 56.230 55.309 55.000 55.000 55.018 55.137 55.038 55.000 54.704 54.098 54.085 54.018 54.000 54.017 54.034 54.021 54.008 54.584
 93.446 94.118 94.546 93.864 93.803 93.790 93.857 94.125 94.728 95.310 96.031 97.088 98.426 99.743 99.691 99.639 99.046 98.044 97.212 96.380 95.166 94.207 93.343 92.157 91.231 91.060 91.281 91.795 92.518 92.901 93.305 93.960 94.791 95.386 94.118 92.830 92.387 91.902 90.701 89.089 88.239 86.865 85.742 85.117 84.298 84.270 84.257 84.343 84.672 85.449 86.063 86.820 87.335 87.978 89.582 91.736 92.868 93.229 92.209 89.149 85.921 83.315 80.302 77.254 75.043 75.002 75.007 77.160 80.776 84.558 86.937 87.831 87.527 86.734 86.088 86.003 85.326 85.060 84.611 83.967 83.816 82.997 82.178 81.452 80.947 80.752 80.739 80.259 80.000 80.000 80.042 80.584 82.222 83.590 84.554 85.425 87.011 88.178 89.303 89.956 89.578 87.555 85.942 84.388 83.154 82.492 82.479 82.466 82.196 82.000 82.000 82.000 82.318 82.156 82.000 82.000 81.990 81.455 81.121 81.000 81.000 81.000 81.000 81.000 81.464 82.477 83.796 83.975 83.866 83.414 82.101 79.789 78.177 78.000 77.476 77.000 77.000 77.000 77.000 76.475 76.025 76.000 76.000 76.000 75.424 75.016 75.000 74.999 74.245 74.030 74.000 74.000 73.972 73.271 72.499 72.155 72.125 71.950 71.301 71.068 70.521 70.000 69.978 69.768 69.216 68.855 68.482 68.000 68.000 67.754 67.300 67.000 67.000 67.000 67.000 67.000 67.000 67.000 67.000 65.783 66.077 66.292 65.579 63.983 63.177 63.000 63.000 63.000 62.973 62.493 62.134 62.000 62.000 62.000 62.000 61.537 61.159 61.000 60.924 60.340 60.074 60.000 60.078 60.225 60.212 60.798 61.000 61.000 61.000 61.000 61.000 60.487 60.108 60.096 60.084 60.821 61.000 61.000 61.000 61.000 61.000 60.356 60.000 60.000 60.000 60.000 60.000 60.000 60.000 60.000 60.000 60.000 60.000 59.736 59.154 59.014 59.000 58.345 57.427 56.609 55.790 54.971 54.721 54.708 54.877 55.670 56.725 57.206 56.807 55.711 54.618 54.605 54.965 55.159 54.996 54.554 54.541 54.180 54.000 54.000 54.077 54.883 55.319 55.228 54.699 53.939 53.463 53.112 52.678 52.373 52.360 52.347 53.083 53.876 54.558 54.883 54.302 53.491 52.522 51.314 50.231 50.218 50.205 50.193 50.180 50.167 50.154 50.141 50.128 50.063 50.000 50.000 50.000 50.000 50.024 50.038 50.025 50.012 49.999 49.986 49.974 49.961 49.948 49.935 49.922 50.255 50.912 50.995 51.000 51.489 51.845 51.832 51.819 51.960 52.000 52.000 52.000 52.013 52.611 52.900 53.000 53.170 53.705 53.953 54.000 54.000 54.000 54.000 54.000 55.103 56.287 57.173 57.716 58.874 59.334 59.752 60.000 59.931 59.514 59.472 59.204 59.000 59.000 59.000 59.462 59.836 59.609 59.000 59.000 59.000 59.000 59.000 59.000 58.944 57.556 57.437 57.843 57.983 57.150 56.159 55.325 55.000 55.000 55.000 55.000 55.000 55.000 54.683 54.000 54.000 54.000 54.000 54.000 54.000 54.000 54.000 53.998
 92.855 92.842 92.829 92.816 92.803 92.903 93.266 93.764 93.751 93.738 94.291 94.977 95.469 95.739 95.693 95.843 95.800 95.405 94.855 94.326 93.565 92.301 90.663 89.093 88.699 88.591 88.552 88.781 89.548 90.315 91.082 92.387 94.034 95.219 93.595 92.398 92.000 91.468 90.180 89.082 87.759 86.593 85.643 84.837 84.031 84.000 84.000 84.000 84.045 84.219 84.372 84.997 85.702 86.613 88.217 89.929 91.456 91.324 89.067 85.120 81.845 78.611 76.249 75.080 75.087 75.885 78.112 81.615 85.372 88.236 89.036 89.084 88.543 87.750 86.957 86.164 86.031 85.433 84.569 83.651 82.832 82.013 81.194 80.778 80.605 80.000 80.000 80.000 80.000 80.000 80.000 80.000 80.434 81.410 82.637 83.715 84.682 86.162 87.735 89.010 89.649 89.471 88.707 86.375 83.676 82.000 82.000 82.000 82.000 82.000 82.000 82.000 82.000 82.000 81.758 81.363 81.350 81.066 81.000 81.000 81.000 81.000 81.000 81.000 81.448 82.119 82.442 82.416 82.390 81.886 80.723 79.053 78.119 78.000 77.940 77.615 77.000 77.000 77.000 76.463 76.000 76.000 76.000 76.000 76.000 75.627 75.000 75.000 74.949 74.372 74.000 74.000 74.000 74.000 73.462 73.088 72.801 72.172 72.029 71.343 70.638 70.170 69.925 69.119 68.628 67.940 67.495 67.690 67.677 67.188 67.000 67.000 67.000 67.000 67.000 67.000 67.000 67.000 67.000 66.584 66.504 66.311 65.611 63.999 63.194 63.000 62.768 62.432 62.406 62.066 62.000 62.000 61.839 61.354 61.341 61.108 61.000 60.802 60.264 60.029 60.000 60.000 60.000 60.000 60.000 60.146 60.186 60.173 60.161 60.148 60.135 60.053 60.000 60.000 60.000 60.056 60.621 61.000 61.000 61.000 61.000 60.370 60.000 60.000 60.000 60.000 60.000 60.000 60.000 60.000 60.000 60.000 60.000 60.000 59.895 59.089 58.712 57.637 56.444 55.625 54.806 54.186 54.000 54.000 54.165 54.971 56.298 57.240 57.004 55.610 54.000 54.000 54.000 53.824 53.567 53.568 53.925 54.000 53.782 53.502 53.550 54.344 54.464 54.451 54.153 53.334 52.515 52.399 52.190 52.000 52.000 52.000 52.245 52.861 53.654 54.146 53.327 51.951 51.369 50.778 50.000 50.000 50.000 50.000 49.668 49.342 50.000 50.000 50.000 50.000 50.000 49.958 49.213 49.064 49.051 49.038 49.026 49.013 49.000 48.987 48.974 48.961 48.948 48.935 48.963 49.330 50.122 50.833 50.871 50.937 51.000 51.000 51.000 51.627 51.794 51.781 51.813 52.000 52.000 52.448 52.835 53.000 53.032 53.838 54.000 53.844 53.639 53.626 53.614 54.543 55.761 56.696 57.143 58.390 59.240 59.523 59.511 59.437 59.035 59.000 59.000 59.000 59.000 59.000 59.763 60.000 59.625 59.000 59.000 59.000 59.000 59.000 59.000 58.990 58.541 57.545 57.110 57.183 56.953 56.147 55.341 55.000 55.000 55.000 55.000 55.000 54.567 54.078 54.000 54.000 54.000 54.000 53.685 53.035 53.022 53.009 53.552
 91.855 91.796 91.659 91.633 91.607 92.101 92.483 92.325 92.488 92.672 93.125 93.425 93.286 92.709 92.421 92.901 92.910 92.199 91.866 91.826 91.177 90.090 88.696 87.086 86.254 86.062 86.036 86.261 87.041 87.821 88.601 90.332 92.285 93.206 92.502 92.121 91.381 90.322 89.245 88.426 87.362 86.465 85.659 84.853 84.047 84.000 84.000 84.000 83.864 83.232 83.206 83.788 84.581 85.581 87.191 89.483 89.616 88.103 85.225 81.147 77.127 75.538 75.055 75.257 76.261 79.473 83.430 87.027 89.686 91.080 91.106 90.418 89.637 88.827 87.972 87.179 86.289 85.370 84.130 82.668 81.849 81.030 80.332 80.000 80.000 80.000 80.000 80.000 80.000 79.933 79.688 79.675 79.662 80.095 81.048 82.268 82.557 83.397 84.506 85.687 86.889 88.830 89.392 87.232 84.064 82.000 82.000 82.000 81.708 81.632 82.000 82.000 81.546 81.390 81.237 81.000 81.000 81.000 81.000 81.000 80.854 80.286 80.273 80.260 80.354 80.469 80.443 80.417 80.391 79.903 79.026 78.145 78.017 78.000 78.000 77.969 77.814 77.083 77.000 76.972 76.960 76.843 76.060 76.000 76.005 75.643 74.994 74.951 74.211 74.000 74.000 74.000 74.000 74.000 74.000 73.647 73.130 72.971 72.165 71.359 71.000 70.747 69.941 69.135 67.658 66.523 66.199 66.691 66.678 66.900 67.000 66.887 66.626 66.613 66.892 67.000 67.000 67.000 67.000 67.000 66.433 66.000 65.733 64.539 63.738 63.219 62.598 62.000 62.000 62.000 61.620 61.381 61.280 61.000 61.000 61.000 60.684 60.222 60.000 60.000 60.000 60.000 60.000 60.000 60.000 60.000 60.000 60.000 60.000 60.000 60.000 60.000 60.000 60.000 60.000 60.000 60.582 61.000 60.812 60.019 60.006 60.000 60.000 60.000 60.000 60.000 60.000 60.000 60.000 60.000 60.000 60.000 59.929 59.792 59.561 58.729 57.337 56.387 55.687 54.881 54.075 54.000 54.000 54.000 54.104 54.653 55.432 56.031 55.916 55.037 54.018 53.688 53.593 53.346 53.000 53.008 53.445 53.529 53.292 53.000 53.022 53.406 53.464 53.451 53.170 52.394 52.049 52.000 51.698 51.374 51.361 51.348 51.335 51.491 51.721 51.850 51.584 50.593 50.258 50.157 50.000 50.000 49.384 49.193 49.110 49.033 49.155 49.142 49.129 49.116 49.103 49.088 49.013 49.000 48.575 48.039 48.026 48.013 48.000 48.000 48.000 48.000 48.000 48.000 48.469 49.224 49.897 49.884 49.966 50.462 50.846 50.833 50.820 50.807 50.911 51.000 51.138 51.745 51.946 52.000 52.289 52.766 53.011 53.557 53.665 53.370 53.000 53.000 53.000 54.053 55.243 56.155 56.671 57.828 58.687 59.000 59.000 59.000 59.000 59.000 59.000 59.000 59.000 59.000 59.305 59.395 59.245 59.000 59.000 59.000 59.000 59.000 59.000 59.000 59.000 57.774 57.000 57.000 56.969 56.163 55.357 55.000 55.000 55.000 55.000 55.000 54.521 54.000 54.000 54.000 53.349 53.061 53.033 53.000 53.000 53.000 53.000
 90.788 90.450 89.830 89.817 89.804 90.189 90.315 89.854 90.445 91.396 91.726 91.811 91.956 91.702 91.163 91.182 91.057 90.460 89.641 88.993 88.195 87.183 85.958 84.660 83.815 83.301 83.280 83.868 85.047 86.247 87.120 88.329 89.586 90.323 90.757 90.803 90.098 89.080 88.326 88.032 87.287 86.481 85.675 84.869 84.063 84.000 84.000 84.000 83.839 83.033 83.000 83.112 83.566 84.550 86.149 87.862 86.588 83.486 79.712 76.413 75.296 75.023 75.422 76.936 80.182 84.254 88.346 91.452 93.027 93.040 93.053 92.367 91.574 90.499 89.080 88.204 86.483 84.711 83.060 81.684 80.865 80.194 80.000 80.000 79.959 79.757 79.740 79.727 79.714 79.556 79.000 79.000 79.000 79.279 79.872 80.665 81.458 81.597 81.853 82.561 83.860 85.872 86.495 85.109 83.070 82.000 82.000 81.620 81.218 81.144 81.429 81.416 81.103 81.000 80.778 80.364 80.351 80.338 80.325 80.312 80.242 80.001 80.000 80.000 79.687 79.235 79.222 79.209 79.196 79.101 78.749 78.000 78.000 78.000 77.581 77.105 77.084 77.008 77.000 77.000 77.000 76.997 76.986 76.998 76.471 75.675 74.853 74.047 74.000 74.000 74.000 74.000 74.000 74.000 74.000 74.000 73.793 72.987 72.181 71.375 71.000 70.818 70.191 69.190 67.690 66.539 66.000 66.000 66.000 66.456 66.823 66.703 66.000 66.000 66.715 67.000 67.000 67.000 67.000 67.000 66.449 66.000 65.838 65.032 64.226 63.420 62.614 61.891 61.421 61.407 61.154 61.000 61.000 60.982 60.451 60.329 60.175 60.000 60.000 60.000 60.000 60.000 60.000 60.000 60.000 60.000 60.000 60.000 60.000 60.000 60.000 60.000 60.000 60.000 60.000 60.000 60.033 60.045 60.027 60.000 60.000 60.000 60.000 60.000 60.000 60.000 60.000 60.000 60.000 59.995 59.896 59.865 59.390 58.528 57.591 56.911 56.115 55.787 55.477 54.683 54.068 53.811 53.723 53.710 53.697 53.684 54.171 54.505 54.415 53.940 53.631 52.831 52.594 52.581 52.568 52.555 52.542 52.529 52.718 53.111 53.495 53.086 52.657 52.452 52.186 51.426 51.413 51.400 51.203 51.000 51.000 51.000 50.535 50.323 50.310 50.297 50.284 50.073 50.000 49.742 49.233 49.220 49.050 49.000 49.000 49.000 49.000 49.000 49.000 49.000 49.000 48.987 48.244 48.651 48.568 48.000 48.000 48.000 48.000 48.000 48.000 48.000 48.000 48.000 48.000 48.271 48.908 48.990 49.624 49.859 49.846 49.833 49.820 49.951 50.439 50.860 51.000 51.000 51.577 51.887 52.000 52.137 52.691 52.938 53.000 53.000 53.000 53.000 53.000 53.642 54.711 55.683 56.093 57.342 58.519 58.773 58.650 59.000 59.000 59.000 59.000 59.000 59.000 59.000 59.000 59.000 59.000 59.000 59.000 59.000 59.000 59.000 59.000 59.000 59.000 57.368 56.555 56.841 56.225 56.039 55.373 55.000 55.000 55.000 55.000 55.000 54.537 54.000 53.933 53.196 53.023 53.000 53.000 53.000 53.000 53.000 53.000
 89.464 89.000 88.988 88.840 88.671 88.583 88.622 88.765 88.752 89.977 90.595 90.944 91.310 90.732 90.433 89.961 89.524 89.112 88.280 86.977 85.786 84.400 82.871 81.680 80.833 80.272 80.252 81.064 83.036 84.622 85.571 86.351 87.131 87.911 88.691 88.804 88.594 88.271 88.000 88.000 87.303 86.497 85.478 84.264 84.023 84.000 84.000 84.000 83.966 83.791 83.193 83.000 83.067 83.373 84.288 84.509 82.223 78.940 75.962 74.190 74.845 76.165 78.545 81.971 86.010 89.321 91.958 93.466 94.000 94.000 94.000 93.362 92.628 91.888 90.976 89.103 85.928 83.233 81.520 80.723 80.052 80.000 80.000 80.000 79.840 79.034 79.000 79.000 79.000 79.000 79.000 79.000 78.795 78.650 78.857 79.650 80.443 80.854 81.000 81.143 81.622 82.487 82.599 82.067 81.507 81.494 81.481 81.141 81.000 81.000 80.934 80.462 80.404 80.391 80.249 80.000 80.000 80.000 80.000 80.000 80.000 80.000 79.428 79.261 79.149 79.000 79.000 79.000 79.000 79.000 78.960 78.808 78.131 78.000 77.945 77.657 77.000 77.000 77.000 77.000 77.000 77.000 77.000 77.000 77.000 76.357 74.905 74.112 74.016 74.000 74.000 74.000 74.000 74.000 74.000 74.000 73.809 73.003 72.197 71.391 71.000 71.000 70.946 69.334 67.722 66.555 66.000 66.000 66.000 66.000 66.310 66.460 66.000 66.000 66.420 66.796 67.000 67.000 67.000 67.000 66.466 66.000 65.854 65.048 64.242 63.130 62.076 61.357 61.007 61.000 61.000 60.752 60.369 60.351 60.062 60.000 60.000 59.836 59.291 59.278 59.746 60.000 60.000 60.000 60.000 60.000 60.000 60.000 60.000 60.000 60.000 60.000 60.000 60.000 60.000 60.000 60.000 60.000 60.000 60.000 60.000 60.000 60.000 60.000 60.000 60.000 60.000 59.965 59.882 59.754 58.922 58.644 58.111 57.095 55.816 55.652 55.065 54.687 54.331 53.762 53.749 53.037 52.723 52.710 52.697 52.684 52.671 53.194 53.525 53.172 52.649 51.848 51.823 52.000 51.924 51.563 51.542 51.530 51.918 52.711 53.485 53.087 52.041 51.452 51.335 50.975 50.502 50.401 50.388 50.375 50.362 50.349 50.106 50.000 50.000 49.928 49.350 49.272 49.259 49.166 49.000 49.000 49.000 49.000 49.000 49.000 49.000 49.000 48.495 48.117 48.104 48.091 48.015 48.040 48.031 48.000 48.000 48.000 48.000 48.000 48.000 48.000 48.000 48.000 48.000 48.000 48.079 48.791 48.962 49.000 49.000 49.000 49.000 49.590 49.905 50.267 50.803 50.989 51.000 51.413 51.823 52.000 52.000 52.536 52.666 52.654 52.641 52.628 52.615 53.477 54.432 55.137 55.626 56.782 58.008 58.063 57.779 58.536 58.938 59.000 59.000 59.000 59.000 59.000 59.000 59.000 59.000 59.000 59.000 59.000 59.000 59.000 59.000 59.000 59.000 58.534 57.469 56.195 56.000 56.000 55.389 55.000 55.000 55.000 55.000 55.000 54.553 54.000 53.941 53.135 53.000 53.000 53.000 53.000 53.000 53.000 53.000
 88.857 88.844 88.777 87.958 87.009 86.584 86.835 87.551 87.726 88.435 89.091 89.516 89.667 89.401 88.625 88.144 87.610 86.765 85.920 85.075 83.668 82.170 80.796 79.158 78.305 77.788 77.557 78.028 79.996 81.975 83.354 84.336 85.246 86.467 87.260 87.402 87.389 87.376 87.363 87.350 86.656 85.837 84.726 83.298 83.285 83.273 83.260 83.003 82.467 82.441 81.674 81.389 81.363 81.364 81.462 80.107 77.844 75.613 74.338 74.905 76.461 79.218 82.834 86.688 89.970 92.450 93.636 94.000 94.000 94.000 94.000 94.000 94.000 93.747 92.673 88.561 84.428 81.853 80.584 80.000 80.000 80.000 80.000 80.000 79.856 79.050 79.000 78.847 78.715 78.702 78.689 78.676 78.270 78.000 78.130 78.634 79.427 80.220 80.763 81.000 81.000 81.000 81.000 81.000 81.000 81.000 81.000 81.000 81.000 80.836 80.387 80.039 80.000 79.685 79.378 79.365 79.352 79.339 79.326 79.313 79.300 79.287 79.063 79.000 79.000 79.000 79.000 79.000 79.000 79.000 79.000 78.996 78.879 78.315 78.000 77.751 77.000 77.000 77.000 77.000 77.000 77.000 77.000 77.000 77.000 76.691 75.885 75.079 74.273 74.000 74.000 74.000 74.000 74.000 74.000 74.000 73.825 73.019 72.213 71.407 71.000 71.000 70.981 69.576 68.191 67.014 66.295 66.295 66.049 66.000 66.000 66.000 66.000 66.000 66.000 66.288 66.576 66.563 66.550 66.537 66.252 66.000 65.870 65.064 63.866 62.659 61.646 60.909 60.440 60.408 60.395 60.235 60.000 60.000 60.000 59.593 59.317 59.237 59.000 59.000 59.170 59.585 60.000 60.000 60.000 60.000 60.000 60.000 60.000 60.000 60.000 60.000 60.000 60.000 60.000 60.000 60.000 60.000 60.000 60.000 60.000 60.000 60.000 60.000 60.000 60.000 60.000 59.567 58.679 57.771 56.939 56.191 55.423 54.840 54.785 53.966 53.671 53.214 52.715 52.524 52.499 51.970 51.724 51.711 51.667 51.399 51.578 52.001 52.082 51.633 51.620 51.156 51.326 51.582 51.477 51.018 51.000 51.000 51.199 51.601 51.981 51.957 51.364 50.773 50.440 50.415 50.069 50.000 50.000 50.000 50.000 50.000 49.556 49.324 49.311 49.272 49.031 49.000 49.000 49.000 49.000 49.000 49.000 49.000 49.000 49.000 49.000 48.350 48.057 48.000 48.000 48.000 48.000 48.000 48.000 48.000 48.000 48.000 48.000 48.000 48.000 48.000 48.000 48.000 48.000 48.000 48.000 48.000 48.684 49.000 49.000 49.000 49.000 49.000 49.414 49.854 50.102 50.710 50.934 51.000 51.256 51.753 51.990 52.000 52.000 52.000 52.000 52.000 52.000 52.977 54.176 55.000 55.043 56.293 57.178 57.503 57.739 58.529 58.934 59.000 59.000 59.000 59.000 59.000 59.000 59.000 59.000 59.000 59.000 59.000 59.000 59.000 59.000 59.000 59.000 57.759 56.481 56.000 56.000 56.000 55.405 54.675 54.348 55.000 55.000 55.000 54.945 54.676 53.957 53.151 53.000 53.000 53.000 53.000 53.000 53.000 53.000
 87.918 87.964 87.794 86.975 85.506 84.792 85.041 85.834 86.627 87.420 87.727 87.923 88.305 87.473 86.411 85.472 84.740 84.146 83.314 82.194 80.922 79.672 78.400 76.749 75.868 75.291 75.222 75.881 77.480 79.463 80.823 81.999 83.196 84.335 86.045 86.403 85.852 85.130 85.091 85.053 84.789 83.861 82.763 82.299 82.286 81.768 81.520 81.187 80.382 79.727 79.473 79.390 79.364 79.101 77.711 76.710 75.684 74.708 74.482 76.757 80.581 84.035 86.969 89.497 91.956 92.809 93.620 94.000 94.000 94.000 94.000 94.000 94.000 93.953 93.384 88.522 83.836 81.097 80.155 80.151 80.017 80.000 80.000 80.000 79.872 79.066 78.809 78.331 78.000 78.000 78.000 78.000 78.000 78.000 78.000 78.000 78.489 79.205 80.168 81.000 81.000 81.000 81.000 81.000 81.000 81.027 81.445 81.531 81.287 80.877 80.522 80.064 80.000 79.498 79.000 79.000 79.000 79.000 79.000 79.000 79.000 79.000 79.000 79.000 79.000 79.000 79.000 79.000 79.000 79.000 79.000 79.000 79.000 78.379 78.000 77.975 77.871 77.142 77.000 77.000 77.000 77.000 77.000 77.000 76.995 76.684 75.869 75.090 74.289 74.000 74.000 74.000 74.000 74.000 74.000 74.000 73.841 73.035 72.229 71.423 71.000 71.000 71.000 70.404 69.662 68.572 67.524 67.283 66.490 66.333 66.346 66.270 66.000 66.000 66.000 66.000 66.000 66.000 66.000 66.000 66.000 65.849 65.384 64.565 63.403 62.468 61.475 60.371 60.021 59.553 59.395 59.382 59.479 59.987 59.484 59.135 59.000 59.000 58.993 58.412 58.266 58.681 59.418 60.000 60.000 60.000 60.000 60.000 60.000 60.000 60.000 60.000 60.000 60.000 60.000 60.000 60.000 60.000 60.000 60.000 60.000 60.000 60.000 60.000 60.000 60.000 59.960 59.150 57.525 55.901 55.077 54.784 54.353 53.805 53.633 52.952 52.037 51.483 51.133 50.525 50.500 50.649 50.724 50.711 50.639 50.075 50.469 50.659 50.647 50.634 50.621 50.893 51.000 51.000 51.000 51.000 51.000 51.000 51.000 50.913 50.501 50.479 50.466 50.272 50.000 50.000 50.000 50.000 50.000 50.000 50.000 50.000 49.347 49.000 49.000 49.000 49.000 49.000 49.000 49.000 49.000 49.000 48.436 48.195 48.448 48.892 48.210 48.037 48.000 48.000 48.000 48.000 48.000 48.000 48.000 48.000 48.000 48.000 48.000 48.000 48.000 48.000 48.000 47.960 47.925 47.934 48.000 48.000 48.583 48.860 48.848 48.835 48.822 48.942 49.000 49.243 49.797 49.981 50.542 50.732 50.814 51.103 51.660 51.680 51.667 51.654 51.642 51.629 51.616 52.197 53.389 54.664 55.007 55.451 56.450 57.633 58.608 59.000 59.000 59.000 59.000 59.000 59.000 59.000 59.000 59.000 59.000 59.000 59.000 59.000 59.000 59.000 59.000 59.000 59.000 57.754 56.216 55.243 55.230 55.822 55.421 54.615 54.034 54.165 54.153 54.140 54.489 54.779 53.973 53.167 53.000 53.000 53.000 53.000 53.000 53.000 53.000
 87.209 87.474 86.639 85.660 84.397 83.884 84.191 84.818 85.611 86.404 86.728 86.636 86.322 85.491 84.190 82.995 82.407 82.526 81.707 79.883 78.454 77.085 75.494 74.201 73.339 73.327 73.885 74.765 75.954 77.528 78.838 80.030 81.085 81.875 83.796 84.579 84.190 83.233 82.729 82.703 82.677 82.048 81.133 80.599 80.573 79.868 79.162 78.452 77.681 77.465 77.417 77.391 77.103 76.361 75.391 74.549 74.664 75.577 77.295 80.486 84.527 86.961 88.675 90.340 91.985 92.798 93.604 94.000 94.000 94.000 94.000 94.000 94.000 93.508 91.681 86.751 83.215 81.455 81.000 80.918 80.112 80.000 80.000 80.000 79.914 79.307 78.347 78.000 78.000 78.000 78.000 78.000 78.000 77.872 77.638 77.625 77.612 78.189 79.214 80.233 80.564 80.916 81.000 81.000 81.000 81.038 81.844 82.000 81.792 81.556 81.502 80.709 80.191 79.514 79.000 78.938 78.415 78.340 78.327 78.314 78.390 78.953 78.464 78.262 78.513 79.000 79.000 79.000 79.000 79.000 79.000 79.000 79.000 78.395 78.000 77.806 77.092 77.014 77.000 77.000 77.000 77.000 77.000 77.000 76.524 75.723 75.000 75.000 74.305 74.000 74.000 74.000 74.000 74.000 74.000 74.000 73.857 73.051 72.389 71.529 70.921 70.810 70.995 71.000 70.568 69.996 69.326 68.298 67.505 67.126 67.000 66.767 66.000 66.000 66.000 66.000 66.000 66.000 66.000 66.000 66.000 65.708 64.852 63.631 62.763 61.944 60.981 59.927 59.460 59.106 58.670 58.383 58.528 59.321 59.079 59.000 58.740 58.305 58.292 58.056 58.000 58.412 59.052 59.246 59.867 60.000 60.000 60.000 60.000 60.000 60.000 60.000 60.000 60.000 60.000 60.000 60.000 60.000 60.000 60.000 60.000 60.000 60.000 60.000 60.000 60.000 59.438 58.235 56.558 54.933 53.999 53.220 52.853 52.637 51.824 51.513 50.286 49.241 48.776 48.772 48.961 49.480 49.724 49.712 49.699 49.686 49.673 49.660 49.751 50.000 50.000 50.711 51.000 51.000 51.000 51.000 51.000 50.743 50.518 50.346 49.527 49.881 49.692 49.454 49.441 49.428 49.883 50.000 50.000 50.000 50.000 50.000 49.363 49.000 49.000 48.962 48.385 48.273 48.260 48.247 48.234 48.222 48.063 48.000 48.056 48.151 48.012 47.378 47.131 47.118 47.235 47.955 48.000 48.000 48.000 48.000 48.000 48.000 48.000 47.990 47.977 47.964 47.951 47.354 47.000 47.214 47.899 47.887 47.874 47.925 48.000 48.000 48.000 48.552 48.796 48.847 49.077 49.687 49.745 49.871 50.233 50.744 50.980 51.000 51.000 51.000 51.000 51.000 51.000 51.578 52.610 53.847 54.994 55.000 56.215 57.827 59.000 59.000 59.000 59.000 59.000 59.000 59.000 59.000 59.000 59.000 59.000 59.000 59.000 59.000 59.000 59.000 59.000 59.000 58.478 57.202 55.578 54.243 54.230 55.567 55.437 54.929 54.677 54.016 53.333 53.650 54.051 54.091 53.989 53.183 53.000 53.000 53.000 53.000 53.000 53.000 53.000
 85.489 85.336 84.486 82.835 82.538 83.097 83.780 83.802 84.595 85.221 85.457 85.319 84.935 84.129 83.104 81.697 80.737 80.817 79.972 77.713 75.769 74.251 73.073 72.598 71.810 72.076 72.702 73.170 73.950 75.497 77.083 78.496 79.627 80.420 81.545 82.051 82.012 81.674 81.365 81.352 80.920 80.213 79.381 78.600 78.574 77.885 77.053 76.428 76.173 75.532 75.966 75.795 75.310 75.060 74.241 74.658 75.856 78.022 81.015 83.557 85.446 86.595 87.782 89.381 90.980 92.568 93.588 93.988 93.980 94.000 94.000 94.000 94.000 93.519 91.648 86.087 82.408 81.000 81.000 80.945 80.285 80.062 80.000 80.000 80.000 80.000 78.767 78.132 77.909 77.703 77.690 77.677 77.664 77.424 77.000 77.000 77.000 77.344 77.809 78.333 79.113 80.254 80.816 81.000 80.894 80.507 80.883 81.276 81.934 82.419 81.948 81.142 80.336 79.531 78.829 78.337 78.040 77.543 77.328 77.315 77.335 77.554 77.876 78.000 78.335 79.000 79.000 79.000 78.552 78.185 78.172 78.159 78.146 77.544 77.120 77.086 77.000 77.000 77.000 76.599 76.043 76.030 76.017 76.004 76.000 75.739 75.000 75.000 74.321 74.000 74.000 74.000 74.000 74.000 74.000 74.000 73.873 73.067 73.000 72.021 70.789 70.121 70.730 70.941 71.000 71.000 70.736 69.623 68.840 68.060 67.407 66.861 66.371 66.384 66.145 66.000 66.000 66.000 66.000 66.000 65.777 65.236 64.376 63.166 61.940 60.961 60.142 59.386 59.035 58.572 57.866 57.383 57.423 57.697 58.183 58.332 58.202 58.000 58.000 58.000 57.568 57.650 58.241 58.236 59.029 59.203 59.190 59.368 60.000 60.000 60.000 60.000 60.000 60.000 60.000 60.000 60.000 60.000 60.000 60.000 60.000 60.000 60.000 60.000 60.000 60.000 59.417 57.864 55.590 53.966 52.433 51.923 51.798 51.465 50.492 48.994 48.119 47.876 48.000 48.018 48.623 48.738 48.725 48.712 48.699 48.686 48.891 49.000 49.277 50.000 50.000 50.423 50.596 50.583 50.619 50.964 50.670 50.249 49.838 49.433 49.025 49.362 49.205 49.000 49.000 49.000 49.326 49.402 49.390 49.377 49.364 49.351 49.128 49.000 48.840 48.288 48.044 48.000 48.000 48.000 48.000 48.000 48.000 48.000 48.000 47.918 47.238 47.042 47.000 47.000 47.014 47.087 47.080 47.067 47.054 47.042 47.029 47.016 47.003 46.994 47.000 47.000 46.961 46.939 46.956 47.000 47.000 47.000 47.000 47.381 47.848 47.836 47.823 47.936 48.000 48.218 48.771 48.758 48.923 49.368 49.806 50.114 50.920 51.000 51.000 51.000 51.000 51.000 51.000 51.339 52.109 53.274 54.534 54.552 55.995 57.795 59.000 59.000 59.000 59.000 59.000 59.000 59.000 59.000 59.000 59.000 58.838 58.372 58.359 58.347 58.334 58.122 57.547 56.952 56.135 55.151 54.347 54.000 54.000 54.323 54.733 54.715 54.020 53.201 53.035 53.081 53.128 53.115 53.102 53.018 53.000 53.000 53.000 53.000 53.000 53.000 53.000
 81.900 82.228 81.507 80.155 80.408 81.524 82.561 82.555 83.335 83.646 83.729 83.890 84.356 83.525 82.032 80.394 78.838 77.472 76.614 74.911 73.403 72.283 71.573 71.560 70.826 71.061 71.521 71.578 71.963 73.466 74.756 76.094 77.498 78.265 79.032 79.562 80.021 80.255 79.730 79.704 79.062 78.230 77.555 77.276 76.688 75.902 75.404 75.248 75.220 75.029 75.142 74.714 74.184 74.233 74.774 76.166 77.761 79.755 82.045 83.010 83.875 85.182 86.750 88.497 90.882 92.532 93.001 92.993 93.180 93.954 93.950 93.937 93.924 93.250 90.676 85.814 82.378 81.000 81.000 81.000 81.000 80.466 80.206 80.159 80.000 80.000 79.308 78.502 77.696 77.000 77.000 77.000 77.000 77.000 77.000 77.000 77.000 77.000 77.000 77.097 77.548 78.405 79.194 79.755 79.917 79.496 79.483 80.088 81.075 81.915 81.985 81.648 80.947 79.878 78.741 78.000 78.000 77.323 77.000 76.802 76.302 76.289 76.984 77.641 78.080 78.237 78.224 78.212 78.091 77.716 77.173 77.160 77.147 77.057 77.000 77.000 77.000 76.268 76.069 76.033 76.000 76.000 76.000 76.000 76.000 75.755 75.000 75.000 74.337 74.000 74.000 74.000 74.000 74.000 74.000 73.954 73.744 73.069 72.863 72.376 71.331 70.000 70.000 70.753 71.000 71.000 71.000 71.000 70.467 69.743 68.692 67.644 67.368 67.072 66.627 66.236 65.903 65.565 65.552 65.539 65.072 64.253 63.434 62.615 61.118 59.977 59.318 58.946 58.479 57.701 57.193 56.803 56.371 56.358 57.083 57.696 58.000 57.892 57.320 57.280 57.114 57.097 57.242 57.229 57.388 57.887 58.190 58.393 59.183 59.854 60.000 60.000 60.000 60.000 60.000 60.000 60.000 60.000 60.000 60.000 60.000 59.998 59.983 59.971 59.958 59.945 58.873 56.939 54.704 53.004 52.127 51.308 50.489 49.526 48.041 47.072 46.919 47.395 47.955 47.764 47.751 47.738 47.725 47.779 48.000 48.000 48.437 48.815 49.169 49.635 49.622 49.609 49.596 49.583 49.668 50.461 50.158 49.759 49.352 48.937 48.527 48.480 48.758 49.000 49.000 49.000 49.000 49.000 49.000 49.000 49.000 49.000 49.000 48.723 48.245 48.000 48.000 48.000 48.000 47.815 47.235 47.222 47.210 47.197 47.184 47.157 47.018 47.000 47.000 47.000 47.000 47.000 47.000 46.506 46.055 46.042 46.029 46.016 46.003 46.363 46.978 46.965 46.205 46.000 46.367 46.913 46.901 46.979 47.000 47.000 47.000 47.000 47.000 47.527 47.890 48.000 48.000 48.000 48.507 48.863 49.210 49.805 50.598 50.682 50.840 50.889 50.643 50.630 50.617 50.820 51.704 53.158 53.964 54.000 55.727 57.763 59.000 59.000 59.000 59.000 59.000 58.880 58.437 58.424 58.037 57.797 57.524 56.712 56.169 56.041 56.002 55.686 54.899 54.624 53.870 53.404 53.257 53.244 53.231 53.218 53.315 53.320 53.154 53.008 53.000 53.000 53.000 53.000 53.000 53.000 53.000 53.000 53.000 53.000 53.000 53.000 53.000
 78.859 78.846 78.833 78.820 79.392 80.105 80.605 80.770 81.366 82.099 82.458 82.368 82.077 81.232 79.950 78.427 76.621 74.575 73.756 72.937 71.926 70.886 70.147 70.121 69.709 69.807 70.194 70.508 70.495 71.572 72.480 73.418 74.483 75.250 76.017 76.784 77.551 78.180 78.363 77.838 77.475 76.920 76.168 75.596 75.338 75.102 75.000 75.000 74.963 74.336 74.210 74.105 74.000 74.143 75.629 77.236 78.430 79.374 80.417 81.930 83.463 85.052 86.978 89.241 90.887 91.762 92.002 92.351 92.976 92.963 92.951 92.938 92.895 92.049 88.875 84.118 81.768 81.000 81.000 81.000 81.000 81.124 81.205 80.960 80.216 80.032 79.324 78.518 77.712 76.972 76.722 76.678 76.837 77.000 77.000 77.000 77.000 77.000 77.000 76.935 76.579 76.549 76.842 77.423 78.110 78.492 78.484 79.072 79.645 80.222 81.443 81.899 81.369 80.125 78.757 78.000 78.000 77.339 77.000 76.914 76.697 76.710 76.915 77.497 78.000 77.917 77.291 77.212 77.199 77.124 77.000 77.000 77.000 77.000 77.000 76.849 76.118 76.018 76.000 76.000 76.000 76.000 76.000 76.000 76.000 75.771 75.000 75.000 74.353 74.000 73.978 73.908 73.986 73.916 73.863 73.604 72.985 72.841 72.238 71.896 71.216 70.028 70.224 70.803 71.000 71.000 71.000 71.000 71.000 70.617 69.966 69.173 68.380 67.587 67.157 66.759 66.207 65.426 65.078 64.709 64.088 63.388 62.925 61.705 60.498 59.532 59.000 58.920 58.114 56.900 56.397 56.267 56.000 56.000 56.249 56.861 57.320 57.264 57.016 57.000 57.000 56.729 56.242 56.229 56.216 56.323 56.381 56.555 57.335 58.115 58.810 59.126 59.317 60.000 60.000 60.000 60.000 60.000 60.000 60.000 60.000 59.512 58.989 59.000 59.000 58.961 57.940 56.335 54.530 52.099 51.143 50.324 49.505 48.711 48.032 46.465 46.461 47.170 47.633 47.007 47.000 47.000 47.000 47.215 48.000 48.000 48.000 48.290 48.648 48.635 48.623 48.610 48.597 48.698 49.046 49.495 49.545 49.267 48.853 48.450 48.041 48.000 48.247 48.638 49.000 49.000 49.000 49.000 49.000 49.000 49.000 49.000 48.611 48.197 48.000 48.000 48.000 48.000 47.686 47.191 47.000 47.000 47.000 47.000 47.000 47.000 47.000 47.000 47.000 46.744 46.107 46.094 46.081 46.033 46.000 46.000 46.000 46.000 46.000 45.991 45.978 45.965 45.952 45.974 46.000 46.000 46.000 46.709 46.951 47.000 47.000 47.000 47.000 47.000 47.351 47.785 47.784 47.966 48.000 48.470 49.000 49.058 49.617 49.903 50.335 50.455 50.000 50.000 50.000 50.530 51.535 52.781 53.925 54.000 55.165 56.787 58.113 58.491 58.088 57.952 57.714 57.149 56.312 56.274 55.616 55.197 55.069 54.709 53.877 53.695 53.669 53.559 53.309 53.296 53.091 53.000 53.000 53.000 53.000 53.000 53.000 53.000 53.000 53.000 53.000 53.000 53.000 53.000 53.000 53.000 53.000 53.000 53.000 53.000 53.000 53.000 53.000
 77.860 77.847 77.834 77.821 78.377 78.872 79.141 79.759 79.756 80.187 80.459 80.282 79.682 78.613 77.524 76.270 74.906 73.592 72.773 71.699 70.270 69.015 68.574 68.561 68.548 68.535 68.822 69.509 69.496 70.201 70.716 71.244 72.024 72.804 73.585 74.365 75.145 75.925 76.705 76.431 76.340 75.937 75.118 74.301 74.288 74.275 74.262 74.249 74.229 74.036 74.000 74.000 74.000 74.073 75.006 76.494 77.613 78.658 80.184 81.796 83.408 85.020 86.948 89.127 89.955 90.750 91.003 91.342 91.977 91.964 91.951 91.903 91.502 90.366 87.935 84.007 81.800 81.000 81.000 81.003 81.147 81.821 82.205 81.923 80.952 80.146 79.340 78.660 77.934 76.922 76.116 76.000 76.330 76.758 77.000 77.000 77.000 77.000 77.000 76.921 76.470 76.113 76.000 76.189 76.596 76.981 77.371 77.747 78.129 78.731 79.867 80.179 79.970 79.200 78.294 77.979 77.459 77.121 77.000 77.000 77.000 77.000 77.000 77.127 77.251 77.216 77.023 77.000 77.000 77.000 76.898 76.220 76.148 76.135 76.122 76.092 76.004 76.000 76.000 76.000 76.000 76.000 76.000 76.000 75.992 75.771 74.999 74.962 74.347 73.968 73.693 73.044 73.760 73.297 72.936 72.850 72.771 72.095 71.870 71.402 70.762 70.311 70.935 71.000 71.000 71.000 71.000 71.000 71.000 71.000 70.762 70.188 69.395 68.602 67.809 67.408 67.223 66.428 65.275 64.384 63.578 63.000 62.949 61.750 60.539 59.548 59.000 58.936 58.130 56.648 56.000 55.823 55.372 55.359 55.808 56.171 56.536 57.000 57.000 57.000 56.604 56.167 56.000 56.000 55.400 55.204 55.191 55.211 55.329 56.100 56.880 57.609 58.138 58.219 58.929 59.075 58.651 58.330 59.036 59.023 58.355 57.995 58.242 58.943 58.917 58.237 57.402 55.929 53.495 51.138 50.160 49.341 48.570 47.978 47.839 46.452 46.000 46.287 46.778 46.765 46.752 46.892 47.000 47.142 47.702 47.941 48.000 48.000 48.000 48.000 48.000 48.000 48.000 48.151 48.571 48.559 48.546 48.533 48.370 48.000 48.000 48.000 48.000 48.145 48.512 48.961 49.000 49.000 49.000 49.000 49.000 49.000 48.427 48.000 48.000 48.000 48.000 48.000 47.591 47.000 47.000 47.000 47.000 47.000 47.000 47.000 47.000 46.434 46.133 46.087 46.000 46.000 46.000 46.000 46.000 45.894 45.111 45.017 45.004 45.000 45.000 45.000 45.000 45.525 45.927 45.929 45.998 46.000 46.515 46.917 47.000 47.000 47.000 47.000 47.000 47.000 47.028 47.640 47.911 48.333 48.794 49.000 49.000 49.463 49.829 50.000 49.966 49.667 49.888 50.311 51.043 52.199 53.460 53.883 54.294 54.897 55.701 56.469 55.700 55.430 55.011 54.269 53.880 53.850 53.576 53.399 53.386 53.366 53.062 53.000 53.000 53.000 53.000 53.000 53.000 53.000 53.000 53.000 53.000 53.000 53.000 53.000 53.000 53.000 53.000 53.000 53.000 52.875 52.151 52.091 52.078 52.065 52.214 52.978 53.000 53.000 53.000
 77.000 76.979 76.844 76.821 77.361 78.154 78.782 78.769 78.756 78.743 78.730 78.717 78.703 77.078 75.453 74.387 73.697 72.597 71.477 69.941 68.483 67.587 67.574 67.561 67.852 68.000 68.285 69.000 69.000 69.340 69.740 70.144 70.565 71.358 71.725 72.349 73.129 73.909 74.689 74.707 74.681 74.533 74.258 74.004 74.000 74.000 74.000 74.000 74.000 74.000 74.000 73.652 73.381 74.046 74.852 75.754 76.999 78.540 80.084 80.965 82.457 84.517 86.900 89.106 89.912 90.718 91.000 90.990 90.977 90.964 90.951 90.419 90.000 89.502 87.085 83.889 81.832 81.000 81.030 81.167 81.842 82.614 83.000 82.549 80.968 80.162 79.356 79.000 78.561 77.215 76.173 75.784 75.826 76.187 76.640 76.627 76.886 77.000 77.000 77.000 77.000 76.267 76.000 76.000 75.926 75.519 75.855 76.244 76.631 77.073 77.853 78.300 78.407 78.234 77.869 77.362 77.063 76.586 76.329 76.316 76.304 76.291 76.278 76.265 76.252 76.180 75.542 75.426 75.400 75.374 75.330 75.175 75.148 75.135 74.832 74.219 74.193 74.853 75.071 75.058 75.045 75.032 75.019 75.006 74.986 74.960 74.931 74.137 73.941 73.538 72.981 72.902 72.889 72.876 72.474 72.000 71.990 71.848 71.264 71.000 71.000 71.000 71.000 71.000 71.000 71.000 71.000 71.000 71.000 71.000 71.000 70.848 70.042 69.528 68.825 68.408 68.239 67.446 65.858 64.859 63.874 63.000 62.982 62.176 60.740 59.564 59.000 58.925 57.654 56.480 55.719 55.280 55.000 55.000 55.239 55.664 56.097 56.382 56.939 56.483 56.127 56.000 55.896 55.273 55.054 55.000 54.707 54.178 54.166 54.272 54.361 54.772 55.342 55.307 56.074 56.226 56.161 56.110 56.109 56.071 56.025 55.992 56.212 56.916 56.877 56.838 55.836 53.944 51.729 50.190 49.295 48.489 48.000 47.877 47.071 46.265 46.000 46.000 46.000 46.000 46.000 46.423 46.727 46.766 46.997 47.795 48.000 48.000 47.925 47.636 47.623 47.611 47.598 47.686 48.000 48.000 47.700 47.533 47.520 47.546 47.942 48.000 48.000 48.000 48.048 48.393 48.837 49.000 49.000 49.000 49.000 49.000 48.443 48.000 48.000 48.000 48.000 48.000 47.607 47.000 46.996 46.371 46.211 46.198 46.185 46.172 46.159 46.052 46.000 46.000 46.000 46.000 46.000 45.551 45.056 45.039 45.003 45.000 45.000 45.000 44.997 44.968 44.953 44.973 45.000 45.141 45.866 45.889 45.947 46.326 46.850 46.837 46.824 46.925 47.000 47.000 47.000 47.000 47.632 48.000 48.176 48.723 48.956 49.000 49.314 49.657 49.593 49.072 49.428 49.802 50.608 52.110 52.916 53.400 53.541 53.528 53.588 53.978 53.611 53.477 53.295 53.000 53.000 53.000 53.000 53.000 53.000 53.000 53.000 53.000 53.000 53.000 53.000 53.000 53.000 53.000 53.000 53.000 53.000 53.000 52.617 52.427 52.922 52.250 51.558 51.725 52.130 51.992 51.173 51.091 51.078 51.392 52.155 52.961 53.000 53.000 53.000
 76.956 76.747 76.063 76.000 76.434 77.068 77.565 77.539 77.698 77.744 77.630 77.435 77.409 76.046 74.677 73.865 73.163 71.245 69.306 68.072 66.995 66.077 65.743 66.058 66.458 66.822 67.186 67.602 68.376 68.838 69.492 70.000 70.046 70.393 70.419 70.928 71.721 72.514 73.307 73.354 73.705 74.000 74.000 74.000 74.000 74.000 74.000 74.000 74.000 73.375 73.211 73.115 73.224 74.030 74.836 76.190 77.763 79.164 80.060 80.866 81.727 83.502 85.907 88.219 89.795 90.012 90.004 90.000 90.000 90.000 90.000 89.967 89.926 89.477 87.128 83.953 81.865 81.000 81.180 81.986 82.000 82.598 83.000 82.581 80.984 80.178 79.533 79.152 78.760 77.909 76.297 75.342 75.309 75.654 75.668 75.956 76.687 76.804 76.712 77.000 77.000 76.283 76.000 76.000 75.865 75.059 75.000 75.261 75.459 75.520 75.855 76.618 76.815 76.789 76.689 76.368 75.836 75.878 76.000 76.000 76.000 76.000 75.536 75.265 75.252 75.225 75.030 74.471 74.200 74.187 74.175 74.162 74.149 74.136 74.084 73.892 73.163 73.145 73.142 73.116 73.090 73.064 73.038 73.013 72.998 72.980 72.967 72.955 72.942 72.929 72.723 72.000 72.000 72.000 72.000 72.000 71.953 71.147 71.000 71.000 71.058 71.227 71.239 71.079 71.000 71.084 71.260 71.027 71.000 71.000 71.000 70.864 70.058 70.000 69.664 69.408 69.254 68.461 66.890 65.875 64.692 63.390 62.998 62.192 61.093 60.117 59.425 58.936 57.324 56.356 55.550 55.000 55.000 55.000 55.000 55.160 55.515 56.028 56.265 56.084 56.000 55.765 55.214 55.017 55.000 54.571 54.126 54.000 54.000 53.353 53.140 53.175 53.229 53.203 53.247 53.227 53.188 53.149 53.111 53.072 52.411 52.431 53.197 53.917 53.878 53.840 52.901 51.591 50.830 50.011 49.274 48.505 47.957 47.753 47.072 46.281 46.000 46.000 46.000 46.000 46.000 46.000 46.000 46.167 46.973 47.779 48.000 47.868 47.522 47.000 47.000 47.000 47.000 47.133 47.572 47.559 47.194 47.000 47.000 47.032 47.430 47.482 47.469 47.456 47.443 47.431 47.712 48.114 48.585 49.000 49.000 49.000 48.816 48.439 47.895 47.330 47.289 47.276 47.164 46.863 46.246 46.046 46.000 46.000 46.000 46.000 46.000 46.000 46.000 46.000 45.957 45.227 45.083 45.037 45.000 45.000 45.000 45.000 45.000 44.992 44.873 44.083 44.000 44.495 44.928 44.927 44.995 45.000 45.488 45.913 46.000 46.000 46.000 46.476 46.799 46.829 47.000 47.000 47.461 47.735 47.785 48.024 48.585 48.683 48.670 48.746 49.000 49.000 49.000 49.482 50.576 52.094 52.900 53.000 53.000 53.000 53.000 53.000 53.000 53.000 53.000 53.000 53.000 53.000 53.000 53.000 53.000 53.000 53.000 53.000 53.000 53.000 53.000 53.000 53.000 53.000 53.000 53.000 53.000 52.484 52.110 52.053 52.102 51.283 50.464 50.214 50.260 50.222 50.113 50.092 50.079 50.399 51.192 51.986 52.758 53.000 53.000
 76.703 76.000 76.000 75.873 75.809 75.796 75.783 75.770 76.321 76.488 76.105 75.436 75.410 74.848 74.099 73.280 72.143 70.004 67.587 66.529 65.369 63.954 63.167 63.593 63.936 64.312 64.570 64.647 66.220 67.469 68.419 69.070 69.445 69.432 69.419 69.612 70.099 70.952 72.244 72.826 73.183 73.329 73.417 73.968 74.000 74.000 74.000 73.867 73.250 73.047 73.000 73.000 73.377 74.853 76.349 77.958 79.222 80.117 80.897 80.986 81.054 82.025 83.916 86.234 87.820 89.382 90.000 89.991 89.978 89.965 89.952 89.449 89.000 88.721 87.027 83.905 81.840 81.000 81.164 81.970 82.000 82.471 82.797 82.439 81.001 80.194 80.000 79.583 78.839 78.244 76.892 75.793 75.184 75.000 75.038 75.544 76.028 75.917 75.873 76.576 76.563 76.164 76.000 76.000 75.881 75.075 75.000 75.000 75.000 75.000 75.000 74.880 75.152 75.169 74.764 74.738 74.940 75.205 75.330 75.317 75.304 75.291 75.104 74.682 74.431 75.000 75.000 74.860 74.429 74.000 74.000 74.000 74.000 74.000 73.738 73.099 73.009 73.000 73.000 73.000 73.000 73.000 73.000 73.000 72.637 72.000 72.000 72.000 72.000 72.000 72.000 72.000 72.000 72.000 71.943 71.851 71.813 71.135 71.000 71.000 71.254 71.986 71.793 71.245 71.127 71.483 71.910 71.104 71.000 71.000 70.892 70.567 70.047 70.000 70.000 70.000 69.913 69.458 67.921 66.891 65.723 64.217 63.021 62.612 61.612 60.596 59.905 59.539 58.404 57.179 56.167 55.467 55.000 55.000 55.000 55.000 55.087 55.361 55.917 56.000 56.000 55.700 55.000 55.000 54.439 54.098 54.000 53.889 53.215 53.039 53.000 52.686 52.115 52.102 51.381 51.152 51.126 51.101 51.073 50.261 50.028 49.999 50.211 50.972 50.926 50.894 50.448 49.921 49.847 49.028 48.882 48.453 47.715 47.000 47.000 46.297 45.901 45.792 45.806 45.983 46.000 46.140 46.272 46.393 46.970 47.526 47.676 47.414 47.000 47.000 46.702 46.611 46.599 46.586 46.573 46.560 46.262 46.068 46.042 46.040 46.421 46.483 46.470 46.457 46.444 46.431 46.418 46.900 47.693 48.379 48.366 48.354 48.341 47.997 47.178 46.359 45.757 45.553 45.527 45.584 45.986 46.000 46.000 46.000 46.000 46.000 46.000 45.476 45.135 45.122 45.105 45.015 45.000 45.000 44.758 44.044 44.031 44.019 44.006 44.000 44.000 44.000 44.000 44.000 44.000 44.112 44.838 44.971 45.000 45.299 45.874 45.993 46.000 46.000 46.000 46.143 46.765 46.951 47.000 47.000 47.153 47.715 47.947 48.000 48.000 48.159 48.645 48.632 48.871 49.466 50.544 52.078 52.884 53.000 53.000 53.000 53.000 53.000 53.000 53.000 53.000 53.000 53.000 53.000 53.000 53.000 53.000 53.000 53.000 53.000 53.000 53.000 53.000 53.000 53.000 53.000 53.000 53.000 53.000 52.858 52.792 52.598 51.936 51.130 50.324 50.000 50.000 49.918 49.195 49.092 49.550 50.317 51.123 51.929 52.735 53.000 53.000
 76.719 76.000 76.000 75.426 75.094 75.000 74.975 74.788 74.757 74.744 74.482 74.000 74.000 74.000 73.255 72.173 70.954 69.316 67.184 65.197 63.562 62.467 62.000 62.000 62.343 62.537 62.411 62.085 63.266 64.425 65.590 66.786 67.932 68.364 68.420 68.698 69.296 70.141 71.242 72.069 72.684 73.219 73.726 73.981 74.000 74.000 73.738 73.210 73.008 73.000 73.000 73.309 74.198 75.822 78.122 79.405 80.281 80.906 81.000 81.000 81.000 81.477 82.574 84.258 86.626 88.357 89.005 89.000 89.000 89.000 89.000 89.000 88.977 88.561 86.130 83.051 81.531 81.138 81.276 81.961 82.000 82.000 82.000 81.823 81.017 80.211 79.848 79.438 79.000 78.991 78.432 77.069 75.758 75.000 74.984 74.685 74.616 74.603 74.747 75.185 75.511 75.551 75.538 75.525 75.459 75.045 75.000 75.000 75.000 74.926 74.469 74.107 74.225 74.254 74.000 74.000 74.276 74.344 74.331 74.318 74.305 74.292 74.279 74.155 74.056 74.262 74.872 75.000 74.553 74.000 74.000 74.000 74.000 74.000 73.965 73.889 73.902 73.274 73.000 73.000 73.000 73.000 73.000 72.467 71.998 71.981 71.968 71.955 71.975 72.000 72.000 72.000 72.000 72.000 71.597 71.000 71.000 71.000 71.000 71.000 71.188 71.740 71.114 71.000 71.340 71.723 71.657 71.083 71.000 71.000 70.702 70.037 70.335 70.108 70.000 70.000 70.000 70.000 68.840 67.906 66.755 65.156 63.557 63.114 62.140 61.148 60.442 60.000 59.657 58.364 57.183 56.252 55.000 55.000 55.000 55.000 55.000 55.019 55.256 55.765 56.000 55.716 55.000 55.000 54.298 54.000 54.000 53.880 53.074 53.000 52.538 52.084 52.000 52.000 51.238 51.000 50.650 50.051 50.038 50.005 49.410 49.000 49.207 49.958 49.171 48.967 48.935 48.922 48.867 48.133 48.000 47.940 47.626 47.000 47.000 46.313 45.507 45.000 45.082 45.699 45.930 46.523 47.000 47.000 47.000 47.000 46.821 46.664 46.651 46.638 46.139 46.000 46.000 46.000 46.000 45.645 44.934 44.535 44.522 44.540 45.333 45.483 45.470 45.457 45.444 45.431 45.419 45.885 46.678 47.380 47.367 47.354 47.006 46.342 45.510 44.678 44.367 44.277 44.518 45.038 45.228 45.816 46.000 46.000 45.853 45.185 45.161 45.059 45.000 45.000 44.985 44.257 44.083 44.071 44.044 44.000 44.000 44.000 44.000 43.993 43.980 43.968 43.955 43.942 43.950 44.000 44.000 44.718 45.000 45.000 45.116 45.790 45.956 46.000 46.000 46.000 46.000 46.593 46.895 47.000 47.000 47.002 47.563 47.878 48.000 48.000 48.000 48.000 48.399 49.234 50.512 52.062 52.868 53.000 53.000 53.000 53.000 53.000 53.000 53.000 53.000 53.000 53.000 53.000 53.000 53.000 53.000 53.000 53.000 53.000 53.000 53.000 53.000 53.000 53.000 53.000 53.000 53.000 53.000 53.000 53.000 52.758 51.952 51.146 50.340 49.601 49.131 49.109 49.012 49.000 49.495 50.301 51.107 51.913 52.719 53.517 53.667
 76.634 76.000 76.000 76.000 75.512 75.000 74.900 74.094 74.000 74.000 74.000 74.000 74.000 74.000 72.903 71.174 69.389 68.055 66.168 64.326 63.014 62.411 62.424 62.437 62.450 62.271 61.780 61.013 61.415 61.795 62.598 63.878 65.395 66.162 67.035 67.881 68.674 69.520 70.824 71.698 72.504 73.310 74.000 74.000 74.000 73.614 73.175 73.000 73.000 73.000 73.000 73.370 74.495 76.775 79.203 80.446 80.919 81.000 81.000 81.000 81.000 81.030 81.306 82.213 84.605 86.985 88.462 88.992 88.979 88.966 88.985 89.000 88.704 87.695 85.277 82.860 82.000 82.000 82.000 82.000 82.000 82.000 82.000 81.839 81.033 80.227 79.421 79.000 79.000 79.000 79.000 77.976 76.501 75.269 74.973 74.167 74.000 74.000 73.897 73.610 74.052 74.403 74.538 74.526 74.555 74.947 75.000 75.000 74.832 74.395 74.033 74.000 74.000 74.000 74.000 74.000 74.000 74.000 73.752 73.318 73.305 73.292 73.279 73.267 73.408 74.013 74.819 75.000 74.913 74.619 74.035 74.710 74.850 74.863 75.110 75.713 75.011 74.230 73.472 73.000 73.000 73.000 72.300 72.004 71.670 71.000 71.000 71.000 71.519 71.955 72.000 72.000 72.000 72.000 71.666 71.148 71.161 71.034 71.000 71.000 71.000 71.000 71.000 71.000 71.000 71.000 71.000 71.000 71.000 70.843 70.473 70.088 70.894 70.566 70.194 70.000 70.000 70.000 69.270 68.709 67.948 66.671 65.085 63.872 62.956 62.163 61.370 60.577 60.121 59.158 57.957 56.712 55.617 55.115 55.000 55.000 55.000 55.000 55.000 55.656 55.663 55.189 54.944 54.324 54.069 54.000 53.760 53.162 53.015 53.000 52.478 52.000 51.882 51.157 51.023 51.000 50.642 50.000 50.000 50.000 49.418 49.000 48.997 48.974 48.961 48.368 48.000 47.983 47.909 47.896 47.883 47.481 47.000 46.991 46.854 46.147 45.421 45.000 45.000 45.000 45.701 46.507 47.000 47.000 47.000 47.000 46.463 46.000 46.000 46.000 46.000 46.000 46.000 46.000 46.000 45.209 44.133 43.535 43.622 44.008 44.408 44.807 44.771 44.458 44.445 44.432 44.419 44.869 45.499 45.761 45.735 45.709 45.190 44.559 44.211 43.392 43.290 43.655 44.329 45.000 45.000 45.168 45.213 45.200 45.156 45.005 45.000 45.000 45.000 44.829 44.110 44.019 44.000 44.000 44.000 43.971 43.190 43.019 43.007 42.987 42.962 42.936 42.940 42.970 43.264 43.916 43.904 44.593 44.940 45.000 45.000 45.000 45.605 45.914 46.000 46.000 46.000 46.000 46.568 47.000 47.000 47.000 47.000 47.598 48.000 48.000 48.000 48.000 48.000 48.698 50.075 51.628 52.421 52.848 53.000 53.000 53.000 53.000 53.000 53.000 53.000 53.000 53.000 53.000 53.000 53.000 53.000 53.000 53.000 53.000 53.000 53.000 53.000 53.000 53.000 53.000 53.000 53.000 53.000 53.000 53.000 52.774 51.968 51.162 50.356 49.550 49.000 49.000 49.000 49.000 49.038 49.353 50.146 50.939 52.416 53.509 53.999
 75.862 75.849 75.836 75.823 75.428 75.000 74.916 74.110 74.000 74.000 74.000 74.000 74.000 73.777 72.616 70.765 68.856 68.050 65.732 64.438 63.632 63.000 63.000 63.343 63.449 63.248 62.747 61.972 61.594 61.194 61.202 61.801 62.933 63.713 65.145 66.545 67.818 69.140 70.752 72.121 73.145 73.767 73.932 73.369 73.291 73.134 73.000 73.000 73.000 72.426 72.213 72.837 74.479 76.897 79.315 80.578 81.000 81.000 81.000 81.000 80.443 80.455 81.013 81.121 83.526 85.305 86.896 87.989 88.000 88.000 88.637 88.941 88.648 87.658 85.228 82.874 82.000 82.000 82.000 82.000 82.000 82.000 82.000 81.886 81.265 80.301 79.437 79.000 79.000 79.000 79.000 78.407 77.334 76.139 75.346 74.553 74.144 74.000 73.765 73.000 73.000 73.360 73.539 73.526 73.549 73.939 74.325 74.474 74.325 74.000 74.000 74.000 73.693 73.396 73.383 73.371 73.358 73.345 73.214 73.000 73.000 73.000 73.000 72.718 72.445 73.238 74.031 74.215 73.871 73.337 73.203 73.996 74.150 74.138 74.375 75.055 74.236 73.417 73.038 73.000 72.917 72.138 71.322 71.008 70.995 70.982 70.969 70.956 70.974 71.340 72.000 72.000 72.082 72.121 72.084 72.000 72.000 71.212 71.000 71.000 71.000 71.000 71.000 71.000 70.887 70.724 70.711 70.698 70.685 70.363 70.000 70.072 70.878 71.000 70.510 70.000 69.957 69.608 69.159 69.000 68.674 67.800 66.589 65.021 63.972 62.988 61.838 61.032 60.226 59.420 58.459 57.303 56.003 55.196 55.000 55.000 55.000 55.000 55.000 55.640 55.554 55.000 54.942 54.136 54.000 54.000 53.718 53.000 53.000 53.000 52.494 52.000 51.882 51.076 51.000 50.506 50.042 50.000 50.000 49.260 49.006 49.000 48.812 48.016 48.000 48.000 48.000 47.809 47.089 47.019 47.000 47.000 46.966 46.808 46.125 45.345 45.000 45.000 45.000 45.000 45.853 46.623 47.000 47.000 47.000 46.778 46.324 46.000 46.000 46.000 46.000 46.000 46.000 46.000 46.000 44.885 43.649 43.000 43.193 43.999 44.000 44.296 44.275 44.000 44.000 44.000 44.000 44.182 44.394 44.381 44.368 44.355 43.865 43.329 43.288 43.032 43.000 43.507 44.313 45.000 45.000 45.000 45.000 45.000 45.000 45.000 45.000 44.518 44.136 44.101 44.002 43.286 43.084 43.071 43.059 43.031 42.212 41.406 41.014 40.996 41.000 41.000 41.657 42.436 42.930 42.917 42.904 43.578 44.371 44.865 44.853 44.840 44.827 45.239 45.667 45.788 45.775 45.940 46.552 47.000 47.045 47.281 47.302 47.714 48.000 48.000 48.000 48.000 48.232 48.646 49.358 50.625 51.766 52.357 52.544 52.531 52.547 52.934 53.000 53.000 53.000 53.000 53.000 53.000 53.000 53.000 53.000 53.000 53.000 53.000 53.000 53.000 53.000 53.000 53.000 53.000 52.867 52.258 52.235 52.222 52.209 51.987 51.168 50.349 49.530 49.082 49.000 49.000 49.000 49.000 49.000 49.270 50.076 50.882 51.708 52.510 53.004
 74.895 75.000 75.000 75.000 75.000 74.947 74.731 74.097 74.000 74.000 73.922 73.720 73.707 72.766 71.494 70.131 68.872 68.066 66.055 64.838 64.045 63.410 63.423 64.206 64.449 64.462 64.287 63.494 62.701 61.908 61.527 61.640 62.024 62.830 64.272 65.884 67.645 69.725 71.350 72.547 73.472 73.814 73.234 72.415 72.291 72.278 72.265 72.252 72.239 72.062 72.000 72.675 74.431 76.849 78.633 79.710 80.453 81.000 81.000 80.291 80.034 80.028 80.250 81.010 81.868 83.281 84.867 86.460 87.981 87.995 88.000 87.973 87.646 86.628 84.264 82.602 82.000 82.000 82.000 82.000 82.000 82.000 82.000 81.972 81.787 80.455 79.453 79.000 79.000 79.000 79.000 78.423 77.744 77.155 76.362 75.569 74.776 74.396 74.190 73.411 73.073 73.000 73.000 72.882 72.513 72.501 72.813 73.198 73.462 73.449 73.436 73.423 72.907 72.397 72.455 72.950 73.000 73.000 73.000 73.000 73.000 73.000 72.595 72.169 72.044 72.237 72.408 72.431 72.325 72.190 72.179 72.298 72.302 72.276 72.279 72.332 72.213 71.520 71.572 72.060 71.977 71.158 71.007 70.516 70.000 70.000 70.000 70.000 70.489 71.233 71.847 71.899 72.635 72.879 72.559 71.976 71.846 71.188 71.000 71.000 71.000 71.000 71.000 71.000 70.586 70.000 70.000 70.000 70.000 70.000 70.000 70.036 70.546 70.621 70.320 70.000 69.950 69.493 69.134 69.000 68.836 68.367 67.574 66.053 64.988 63.855 62.322 61.075 60.242 59.436 58.852 58.260 56.661 55.850 55.264 55.000 55.000 55.008 55.575 55.893 55.570 55.000 54.990 54.803 54.270 54.000 53.734 53.000 53.000 53.000 52.510 52.000 51.898 51.092 51.000 50.480 50.000 49.875 49.099 49.007 49.000 48.645 48.000 48.000 48.000 47.970 47.936 47.923 47.910 47.176 47.000 46.947 46.668 46.000 46.000 45.361 45.000 45.000 45.013 45.200 46.420 47.000 47.000 47.000 47.000 46.301 46.000 46.000 46.000 46.000 46.000 46.000 46.000 45.939 45.595 44.376 43.435 43.000 43.177 43.983 44.000 44.000 44.000 44.000 44.000 44.000 44.000 44.000 44.000 44.000 44.000 44.000 43.539 42.821 42.367 42.916 43.000 43.845 44.814 44.923 44.309 44.227 44.214 44.201 44.188 44.175 44.162 44.067 43.692 42.981 42.249 41.421 41.170 41.144 41.118 41.092 41.040 40.410 40.008 40.223 41.000 41.000 41.641 42.000 42.000 42.000 42.000 42.598 43.297 43.770 43.853 43.840 43.827 43.814 44.052 44.602 44.759 45.493 46.286 46.827 47.148 47.954 48.229 48.314 48.205 48.000 48.000 48.000 48.596 49.000 49.208 50.022 51.287 51.834 52.000 52.000 52.044 52.850 53.000 53.000 53.000 53.000 53.000 53.000 53.000 53.000 53.000 53.000 53.000 53.000 53.000 53.000 53.000 53.000 52.606 52.274 52.218 52.007 52.000 52.000 52.000 51.806 51.000 50.194 49.388 49.000 49.000 49.000 49.000 48.419 48.492 49.017 49.171 50.737 51.672 52.008 52.004
 74.079 74.854 74.972 75.000 75.000 74.754 74.000 74.000 74.000 73.881 73.531 72.977 72.740 71.519 70.500 69.694 68.888 68.082 66.821 65.854 65.061 64.410 64.423 64.861 65.251 65.462 65.303 64.510 63.717 63.227 62.845 62.539 62.564 63.839 65.396 67.286 69.368 71.287 72.416 72.875 73.157 73.069 72.204 70.824 70.584 70.908 71.266 71.326 71.927 72.000 72.000 72.386 73.571 75.976 78.261 79.545 80.048 80.123 80.110 80.022 80.000 79.646 79.246 80.039 80.832 82.230 83.829 85.428 87.004 87.797 87.955 87.500 86.434 84.809 83.184 82.298 82.000 82.000 82.000 82.000 82.000 82.000 82.000 81.887 81.081 80.275 79.469 79.000 79.000 79.000 79.000 78.439 78.000 77.827 77.021 76.215 75.635 75.238 74.880 74.412 73.619 73.447 73.264 72.877 72.467 72.077 72.000 71.977 71.924 71.898 71.872 71.847 71.621 71.574 72.038 72.336 72.359 72.346 72.333 72.232 71.659 71.588 71.408 71.268 71.255 71.242 71.229 71.668 71.695 71.190 71.177 71.164 71.151 71.138 71.125 71.113 71.100 71.031 70.623 70.122 70.093 70.040 70.022 70.005 69.996 69.983 69.970 69.987 69.972 69.931 70.024 70.739 71.512 71.759 71.733 71.584 70.883 70.958 71.000 71.000 70.963 70.781 70.763 70.750 70.444 70.000 70.000 70.000 70.000 70.000 69.920 69.647 69.634 69.621 69.608 69.702 70.000 70.000 69.318 69.000 69.000 68.900 68.094 66.938 65.733 64.525 63.287 61.688 60.831 59.717 59.000 58.778 57.671 56.374 55.422 55.000 55.128 55.686 55.941 56.000 55.586 55.000 55.000 55.000 54.362 54.000 53.951 53.773 53.115 53.000 52.526 51.757 51.107 51.011 50.366 50.039 50.000 49.884 49.078 49.000 49.000 48.660 48.000 48.000 48.000 47.436 47.000 47.000 47.000 46.919 46.885 46.524 46.000 46.000 46.000 45.377 45.000 45.000 45.032 45.651 46.409 46.743 46.658 46.434 46.408 45.910 45.678 45.665 45.652 45.640 45.360 45.228 45.202 45.099 44.611 43.819 43.248 43.000 43.084 43.494 43.498 43.783 44.000 44.000 44.000 43.545 43.420 43.407 43.261 42.763 42.738 42.712 42.533 42.247 42.018 42.263 42.765 43.607 44.266 44.166 43.347 43.227 43.611 44.000 44.000 44.000 44.000 43.545 42.502 41.101 40.269 39.438 39.171 39.145 39.285 40.030 40.034 40.008 40.000 40.207 41.000 41.000 41.625 42.000 42.000 42.000 42.000 42.000 42.000 42.231 42.853 42.841 42.828 42.815 42.861 43.081 43.705 44.647 45.520 46.326 47.132 47.938 48.744 49.000 48.644 48.000 48.000 48.283 48.739 49.000 49.115 49.582 50.374 51.168 51.734 52.000 52.015 52.422 52.493 52.712 53.000 53.000 53.000 52.617 52.416 52.571 53.000 53.000 53.000 53.000 52.794 52.326 52.313 52.300 52.133 52.000 52.000 52.000 52.000 51.560 51.210 51.019 50.201 49.382 49.064 49.000 49.000 48.988 48.268 48.035 48.035 48.290 49.046 49.886 50.686 51.017 51.271
 72.818 73.707 74.487 74.758 74.812 74.615 74.000 74.000 73.844 73.408 72.931 72.655 71.836 71.224 70.516 69.710 68.904 68.098 67.554 66.673 65.680 65.000 65.000 65.000 65.544 66.161 66.392 65.994 65.232 64.732 64.146 63.639 64.099 65.725 67.712 69.759 71.509 72.625 72.936 73.000 72.712 71.921 70.533 68.896 68.585 69.028 69.937 71.021 71.213 71.227 71.607 72.305 73.244 74.996 76.727 78.279 79.137 79.248 79.953 80.000 79.488 79.046 79.010 79.045 79.816 81.776 83.398 84.403 86.007 86.813 86.972 86.541 85.538 83.926 82.314 82.000 82.000 82.000 82.000 82.000 82.119 82.097 82.000 81.924 81.301 80.361 79.485 79.000 79.000 79.000 79.000 78.455 78.000 77.897 77.380 76.600 76.162 75.770 75.332 75.003 74.548 74.177 73.589 73.000 72.988 72.584 72.187 71.790 71.405 71.000 71.000 71.000 71.000 71.110 71.385 71.372 71.359 71.346 71.129 70.604 70.332 70.294 70.281 70.268 70.255 70.242 70.811 71.121 71.129 71.000 71.000 71.000 71.000 71.000 71.000 70.992 70.267 70.087 70.043 69.782 69.048 69.035 69.022 69.009 68.997 68.985 68.996 69.652 69.485 69.000 69.000 69.000 69.634 69.880 69.867 69.854 69.841 70.569 70.815 70.802 70.631 69.812 69.764 69.894 70.000 70.000 70.000 70.000 69.810 69.673 69.516 69.000 69.000 69.000 69.000 69.148 69.583 69.570 69.186 69.000 69.000 68.916 68.110 67.304 66.257 65.061 63.834 62.675 61.431 60.248 59.396 58.856 58.050 56.970 56.088 55.663 55.732 55.994 56.000 56.000 55.892 55.590 55.000 55.000 54.378 54.000 54.000 53.993 53.857 53.844 53.399 52.606 51.821 51.111 50.318 50.000 50.000 49.900 49.094 49.000 48.490 48.001 48.000 48.000 47.972 47.430 47.000 47.000 47.000 46.229 46.000 46.000 46.000 46.000 45.867 45.322 45.000 44.955 44.782 44.769 45.238 45.486 45.211 44.435 44.409 44.383 44.205 43.997 43.959 43.920 43.184 42.843 42.804 42.765 42.727 42.279 42.099 41.917 41.641 41.998 41.996 42.534 43.139 43.365 42.904 42.080 41.842 41.580 41.104 40.771 41.254 41.356 41.343 41.331 41.318 41.305 41.482 42.017 42.532 42.541 42.936 43.000 43.105 43.437 43.918 43.253 43.163 43.072 42.631 41.630 40.119 39.257 39.000 39.000 39.010 39.045 39.034 39.021 39.390 40.190 40.979 40.994 41.582 41.967 42.000 42.000 42.000 42.000 42.000 42.000 42.000 42.000 42.000 42.000 42.225 42.808 42.976 44.397 45.504 46.392 47.359 47.945 48.728 49.000 48.660 48.000 48.000 48.758 49.000 49.000 49.071 49.409 49.879 50.594 51.218 51.532 51.519 51.506 51.177 51.391 52.187 52.977 52.527 52.148 52.000 52.107 52.391 52.378 52.365 52.352 52.239 51.931 51.377 51.301 51.288 51.038 50.524 50.498 50.473 50.324 49.930 49.363 49.191 48.398 48.159 48.146 48.133 48.121 48.021 48.000 48.000 48.015 48.084 48.877 49.670 50.456 51.001
 70.182 71.536 72.310 73.077 73.590 73.842 73.996 73.813 73.280 73.000 72.756 71.964 71.394 71.103 70.532 69.726 68.920 68.114 67.744 66.812 65.696 65.000 65.000 65.314 65.739 66.334 67.066 67.460 67.123 66.468 65.879 65.785 66.630 68.257 70.156 71.736 72.683 73.000 73.000 72.603 71.644 70.204 68.567 66.929 66.586 67.340 68.595 69.556 70.143 70.228 70.698 71.260 71.491 72.412 73.904 75.477 76.962 78.140 78.215 78.861 79.039 78.676 78.205 78.963 79.767 81.158 82.763 84.365 85.964 86.766 86.379 85.976 85.499 83.876 82.329 82.000 82.000 82.000 82.008 82.138 82.722 82.531 82.000 82.000 82.000 80.780 79.753 79.184 79.000 79.000 79.000 78.471 78.000 78.000 78.000 77.247 76.441 76.000 75.899 75.434 75.094 74.411 73.786 73.377 73.000 73.000 72.697 72.524 72.306 71.530 71.089 71.000 70.732 70.398 70.385 70.372 70.359 70.346 70.237 70.000 70.000 70.000 70.000 69.766 69.350 69.949 70.739 71.000 71.000 71.000 71.000 71.000 70.513 70.139 69.963 69.234 68.403 68.175 68.149 68.110 68.070 68.835 69.000 68.564 68.000 68.052 68.834 68.986 69.000 69.000 69.000 69.000 69.000 69.000 69.000 69.000 69.000 69.600 69.718 69.606 69.468 68.817 68.764 69.311 69.834 70.000 70.000 69.764 69.281 69.000 69.000 69.000 69.000 68.766 68.609 68.596 68.583 68.570 68.557 68.544 68.531 68.483 68.064 67.320 66.514 65.572 64.448 63.655 62.152 61.069 60.083 58.950 58.649 57.897 57.104 56.662 56.569 56.025 56.000 56.000 56.000 55.812 55.006 55.000 54.866 54.466 54.175 54.817 54.830 54.843 54.793 54.491 53.663 52.161 51.242 50.487 49.741 49.049 49.004 49.000 48.498 48.000 48.000 48.000 47.274 47.000 47.000 47.000 47.000 46.245 46.000 46.000 45.976 45.850 45.179 45.000 44.924 44.634 44.000 44.000 43.849 43.744 43.560 42.989 42.751 42.692 42.369 41.912 41.653 41.640 40.946 40.615 40.602 40.548 40.192 40.126 40.100 39.901 39.592 39.990 39.997 40.237 40.772 41.307 40.910 40.097 39.509 39.069 38.905 39.379 40.171 40.357 40.615 41.000 41.017 41.577 41.708 41.844 42.000 42.055 42.861 43.000 43.000 43.056 43.173 43.019 43.000 43.000 42.691 41.770 40.158 39.273 39.000 39.000 39.000 39.000 39.000 39.000 39.369 39.997 40.000 40.763 40.983 41.399 42.000 42.000 42.000 42.000 42.000 42.000 42.000 42.000 42.000 42.000 42.000 42.070 42.876 44.365 45.488 46.589 48.000 48.000 48.499 48.849 48.676 48.044 48.329 48.836 49.000 49.000 49.160 49.966 50.000 50.323 50.720 51.000 51.000 51.000 50.392 50.199 50.557 50.838 51.330 51.430 51.417 51.404 51.357 50.842 50.731 50.705 50.679 50.567 49.736 49.602 49.576 49.465 49.262 49.250 49.237 48.809 48.350 48.198 48.185 48.042 48.000 48.000 48.000 48.000 48.000 47.463 47.082 47.261 48.023 49.600 50.593 50.990 51.000
 68.977 68.855 69.492 70.237 71.409 72.797 73.571 73.104 73.000 72.894 72.567 72.000 72.000 71.354 70.548 69.742 68.936 68.130 67.324 66.518 65.712 65.000 65.000 65.399 65.782 66.464 67.597 68.416 68.499 67.971 67.708 68.312 69.590 70.791 71.967 72.745 72.889 72.391 71.871 70.729 69.221 67.712 66.613 65.534 65.293 65.525 66.045 66.812 67.579 68.195 68.898 69.405 69.458 70.238 71.709 72.873 74.019 75.469 76.148 77.568 78.086 78.048 78.139 78.945 80.477 81.548 82.366 83.337 84.933 85.750 85.956 85.572 84.602 82.995 82.189 82.000 82.000 82.000 82.030 82.706 82.939 82.632 82.148 82.000 82.000 81.485 80.769 79.976 79.251 79.029 79.000 78.487 78.000 78.000 78.000 77.534 76.838 76.257 76.000 76.000 75.233 74.427 74.000 73.815 73.009 73.000 73.000 73.000 72.900 72.529 71.736 71.575 71.150 70.454 70.000 70.000 69.576 69.347 69.334 69.321 69.308 69.295 69.282 69.187 69.028 69.223 69.397 69.435 69.409 69.383 69.357 69.331 68.747 68.280 68.083 67.251 67.123 67.088 67.075 67.062 67.049 67.066 67.651 68.006 67.997 67.984 67.972 68.607 68.946 68.933 68.925 68.988 69.000 69.000 69.000 68.986 68.858 68.708 68.118 67.607 67.607 67.762 67.938 68.409 69.089 69.726 69.713 68.932 68.687 68.798 68.937 68.651 68.344 67.641 67.379 67.684 68.000 68.000 68.000 68.000 68.000 67.975 67.576 67.166 66.530 65.724 64.963 64.608 63.580 62.377 61.168 60.152 59.674 58.912 58.119 57.440 56.954 56.704 56.701 56.314 56.266 56.568 55.775 55.765 55.778 55.708 55.648 55.823 56.505 57.208 57.203 56.506 55.688 54.102 52.576 51.045 49.738 49.000 49.000 49.000 48.514 48.000 48.000 48.000 47.290 47.000 47.000 47.000 47.000 46.261 46.000 46.000 45.843 45.037 45.000 45.000 44.619 44.000 44.000 44.000 43.395 43.000 43.000 42.977 42.171 42.000 42.000 41.753 41.000 41.000 40.335 40.000 40.000 39.917 39.111 39.000 39.000 38.858 38.525 38.512 38.499 38.486 38.633 38.921 38.895 38.541 37.861 37.626 38.069 38.375 39.155 39.737 40.137 40.467 41.009 41.815 42.000 42.000 42.000 42.010 42.204 42.731 43.000 43.000 43.000 43.000 42.431 42.151 42.098 41.802 40.190 39.289 39.000 39.000 39.000 39.000 39.000 39.000 39.003 39.159 39.965 40.000 40.552 41.328 41.945 42.000 42.000 42.000 42.000 42.000 42.000 42.000 42.000 42.000 42.000 42.055 42.861 44.176 45.342 46.484 47.749 47.969 48.000 48.345 48.467 48.076 48.597 48.900 49.000 49.132 49.489 49.971 50.000 50.248 50.488 50.533 50.520 50.507 50.202 49.794 49.373 49.015 50.178 50.430 50.168 49.809 49.767 49.437 48.952 48.706 48.680 48.631 48.353 48.301 48.289 48.276 48.263 48.250 48.237 48.108 48.000 48.000 48.000 48.000 48.000 48.000 48.000 48.000 48.000 47.422 47.000 47.190 47.996 48.837 49.639 50.425 51.000
 68.983 68.190 68.038 68.471 69.494 70.782 71.562 72.162 72.426 72.295 72.000 72.000 72.000 71.370 70.702 70.088 69.279 68.199 67.341 66.535 65.729 64.968 64.628 64.566 65.270 66.603 68.107 68.913 69.000 69.012 69.381 70.350 71.988 72.454 72.812 72.787 72.230 71.411 70.102 68.547 66.909 65.600 65.319 65.058 64.565 63.978 63.763 64.543 65.323 66.103 66.529 66.608 66.633 67.400 68.278 69.493 70.741 71.675 73.146 74.707 76.192 77.367 78.123 78.929 80.470 81.541 82.347 83.148 83.941 84.734 84.981 84.979 84.577 83.021 82.205 82.000 82.000 82.000 82.003 82.132 82.695 83.000 82.757 82.000 82.000 82.000 81.650 80.991 80.198 79.405 79.094 78.503 78.000 78.000 78.000 78.000 77.473 76.667 75.944 75.604 75.141 74.443 73.834 73.440 73.013 73.000 73.000 73.000 73.000 72.998 72.645 72.575 72.414 71.973 71.206 70.727 69.993 69.357 69.000 69.000 69.000 68.523 68.283 68.270 68.257 68.244 68.231 67.817 67.410 67.384 67.358 67.332 67.223 66.841 66.235 66.119 66.101 66.088 66.076 66.063 66.050 66.037 66.038 66.426 66.996 66.970 66.967 67.565 67.916 67.933 67.966 68.684 68.789 68.763 68.701 68.487 67.642 66.797 66.043 65.608 65.692 66.472 67.252 67.504 67.812 68.452 68.427 67.874 67.862 68.127 68.096 66.978 65.840 64.903 64.834 65.668 66.755 67.062 67.389 67.545 67.425 67.020 66.587 66.165 65.743 65.346 65.000 65.000 64.709 63.899 62.904 62.124 61.344 60.114 59.468 59.003 58.349 58.375 58.401 57.883 57.802 58.322 57.542 57.530 57.556 57.581 57.607 57.633 58.457 58.780 58.796 58.521 57.719 56.133 54.547 52.960 51.391 49.897 49.137 49.000 48.530 48.000 48.000 48.000 47.331 47.024 47.000 47.000 47.000 46.349 46.053 46.000 45.859 45.053 45.000 45.000 44.704 44.169 44.005 44.000 43.411 43.000 43.000 42.993 42.187 42.000 42.000 41.846 41.333 41.056 40.592 40.384 40.294 39.933 39.127 39.000 38.782 38.382 38.000 38.000 38.000 37.736 37.474 37.461 37.448 37.435 37.192 37.144 37.491 37.977 38.769 39.206 39.594 40.062 40.317 41.105 41.293 41.280 41.267 41.272 41.870 42.145 42.216 42.203 42.190 42.177 42.055 42.000 42.000 41.834 40.222 39.305 39.000 39.000 39.000 39.000 39.000 39.000 39.000 39.143 39.949 40.000 40.000 40.367 41.161 41.900 41.980 42.000 42.000 42.000 42.000 42.000 41.894 41.817 41.804 41.829 42.623 43.416 44.665 46.070 47.069 47.874 48.000 48.000 48.000 48.000 48.000 48.710 49.000 49.322 50.000 50.000 50.317 50.746 50.648 50.000 50.000 50.000 50.000 49.618 49.000 49.000 49.355 49.431 49.245 49.000 48.985 48.485 48.133 48.000 48.000 48.000 48.000 48.000 48.000 48.000 48.000 48.000 48.000 48.000 48.000 48.000 48.000 48.000 48.000 48.000 48.000 48.000 48.000 47.438 47.000 47.012 47.056 47.831 49.197 50.398 51.000
 70.134 69.354 68.574 68.155 68.292 68.933 69.553 69.549 70.106 70.887 71.523 71.723 71.710 71.269 71.000 70.775 69.948 68.623 67.725 66.932 66.139 65.321 64.188 64.292 65.405 67.030 68.520 68.947 69.350 70.020 71.005 72.187 72.935 73.000 72.689 72.066 71.156 69.839 67.738 66.303 65.187 64.333 64.320 64.307 64.118 63.595 62.902 62.527 63.308 64.088 64.433 64.407 64.428 65.208 65.988 66.838 67.686 68.530 70.103 71.677 73.250 74.801 76.329 77.878 78.779 80.082 81.340 82.125 82.908 83.689 84.469 84.567 83.833 83.027 82.295 82.045 82.000 82.000 82.002 82.680 82.827 82.814 82.620 82.000 82.000 82.000 82.000 81.811 81.214 80.421 79.628 78.835 78.234 78.000 78.000 78.000 77.683 77.076 76.283 75.490 75.115 74.459 73.653 73.000 73.000 73.000 73.000 73.000 73.000 73.000 73.000 73.000 73.000 72.915 72.595 71.802 70.606 69.564 69.000 69.000 69.000 68.340 68.000 68.000 68.000 68.000 67.469 67.110 67.000 67.000 67.000 67.000 67.000 66.668 66.000 66.000 66.000 66.000 66.000 65.842 65.075 65.037 65.024 65.016 65.000 65.004 65.788 65.960 66.346 66.882 66.918 66.830 66.790 66.764 66.480 65.657 64.953 64.154 63.817 63.804 63.866 64.479 65.072 65.258 65.537 66.214 66.408 66.402 66.749 66.677 65.678 64.027 62.655 61.890 61.841 62.563 64.149 64.939 65.719 66.091 65.852 65.040 65.014 64.676 64.481 64.468 64.482 64.920 64.622 64.222 63.890 63.530 62.736 61.691 61.296 61.018 60.348 60.374 60.400 60.274 60.268 60.337 59.557 59.529 59.555 59.293 58.803 58.816 59.611 60.337 60.373 59.668 58.869 57.270 55.671 54.462 53.619 52.766 51.226 49.684 48.993 48.738 48.009 48.003 48.000 47.517 47.000 47.000 47.000 47.000 46.487 46.000 45.892 45.210 45.043 45.000 45.000 44.876 44.247 44.229 43.669 43.255 43.268 43.281 42.496 42.491 42.639 42.665 42.677 42.185 42.113 41.983 41.548 40.768 39.988 39.582 38.979 38.334 38.000 38.000 37.653 37.244 37.000 37.000 37.000 36.592 36.423 36.608 37.056 37.364 38.124 38.358 38.710 39.332 39.319 39.547 39.587 39.846 40.268 40.262 41.055 41.229 41.216 41.387 42.030 42.693 42.293 41.614 41.139 41.051 40.142 39.321 39.000 39.000 39.000 39.000 39.000 39.000 39.000 39.126 39.918 39.993 40.000 40.332 40.943 40.997 41.697 41.894 41.881 41.869 41.856 41.843 41.328 41.000 41.000 41.018 41.645 42.549 43.772 45.233 46.794 47.818 48.000 48.000 48.000 48.000 48.000 48.442 48.812 49.187 49.643 49.966 50.724 51.000 50.664 50.000 50.000 50.000 49.717 49.306 48.909 48.468 48.444 48.431 48.418 48.405 48.389 48.070 48.000 48.000 48.000 48.000 48.000 48.000 48.000 48.000 48.000 48.000 48.000 48.000 48.000 48.000 48.000 48.000 48.000 48.000 47.889 47.180 47.110 47.044 47.000 47.000 47.000 47.770 48.595 49.402 50.007
 72.149 71.369 70.472 69.098 68.122 68.000 68.000 67.829 68.329 69.122 69.963 70.981 71.000 71.000 70.873 70.531 69.979 68.887 68.005 67.351 66.667 65.521 64.235 64.942 66.372 67.874 69.035 69.427 70.527 71.515 72.332 73.000 73.000 72.596 71.600 70.300 68.925 67.274 65.345 64.166 63.569 63.333 63.321 63.308 63.295 63.172 62.805 62.000 62.196 62.370 62.433 62.407 62.387 62.504 63.674 64.753 65.533 66.320 67.191 68.646 70.219 71.792 73.365 74.938 75.808 77.084 78.342 79.230 80.803 81.665 82.453 83.233 83.733 83.036 83.000 82.492 82.075 82.000 82.000 82.000 82.000 82.000 82.000 82.000 82.000 82.000 82.000 82.000 81.953 81.147 80.540 79.850 79.057 78.315 78.042 78.000 78.000 77.699 76.893 76.087 75.281 74.475 73.669 73.000 73.000 73.000 73.000 73.000 73.000 73.000 73.000 73.000 73.000 73.000 72.998 72.192 70.771 69.580 69.000 69.000 69.000 68.809 68.716 68.542 68.000 68.000 67.844 67.781 67.794 67.733 67.083 67.000 67.000 66.955 66.765 66.063 66.000 66.000 66.000 65.848 65.042 65.000 65.000 65.000 65.000 65.000 64.978 64.960 64.947 65.132 65.826 65.068 64.895 64.882 64.627 63.856 63.844 63.282 63.000 63.000 62.984 62.805 62.766 62.753 62.964 63.533 64.081 64.104 64.065 63.802 63.096 61.742 61.159 61.000 61.000 61.336 62.948 63.780 64.328 64.546 64.428 64.000 64.000 64.000 64.000 64.000 64.015 64.372 64.152 64.000 64.000 63.975 63.671 63.388 63.295 63.033 62.347 62.373 62.399 62.425 62.220 61.706 61.520 61.528 61.133 60.717 60.605 60.631 61.423 61.774 61.799 61.392 59.900 59.012 57.609 56.430 55.650 54.850 53.264 52.291 51.090 49.753 48.969 48.170 48.012 47.555 47.044 47.000 47.000 47.000 46.503 46.000 46.000 46.000 45.279 45.000 45.000 45.000 45.000 45.000 44.577 44.254 44.267 44.280 43.741 44.020 44.444 44.796 45.381 45.721 45.853 45.494 44.753 43.982 42.559 41.376 40.240 39.082 37.969 37.576 37.162 37.000 37.000 36.949 36.503 36.128 36.000 36.131 36.397 36.384 37.109 37.707 38.121 38.333 38.320 38.839 39.000 39.107 39.404 39.993 40.193 40.694 41.000 41.386 42.813 42.969 42.367 41.561 41.000 40.949 40.143 39.337 39.000 39.000 39.000 39.000 39.000 39.000 39.000 39.000 39.000 39.703 39.981 40.000 40.131 40.871 40.908 40.954 41.000 41.000 41.000 41.000 41.000 41.000 41.000 41.000 41.000 42.092 43.178 44.201 45.801 47.400 47.702 47.689 47.676 47.663 47.650 47.883 48.484 49.000 49.096 49.902 50.406 50.786 50.825 50.407 50.032 49.637 49.226 49.000 48.844 48.038 48.000 48.000 48.000 48.000 48.000 48.000 48.000 48.000 48.000 48.000 48.000 48.000 48.000 48.000 48.000 48.000 47.494 47.226 47.213 47.200 47.187 47.174 47.161 47.149 47.024 46.205 46.110 46.097 46.392 47.000 47.000 47.754 48.560 49.007 49.007
